; generated by PrusaSlicer 2.1.0+ on 2020-06-23 at 23:37:24 UTC

; 

; external perimeters extrusion width = 0.45mm
; perimeters extrusion width = 0.45mm
; infill extrusion width = 0.45mm
; solid infill extrusion width = 0.45mm
; top infill extrusion width = 0.40mm
; first layer extrusion width = 0.42mm

M73 P0 R37
M73 Q0 S37
M201 X1000 Y1000 Z1000 E8000 ; sets maximum accelerations, mm/sec^2
M203 X200 Y200 Z12 E120 ; sets maximum feedrates, mm/sec
M204 P1250 R1250 T1250 ; sets acceleration (P, T) and retract acceleration (R), mm/sec^2
M205 X8.00 Y8.00 Z0.40 E1.50 ; sets the jerk limits, mm/sec
M205 S0 T0 ; sets the minimum extruding and travel feed rate, mm/sec
M107
M862.3 P "MK3SMMU2S" ; printer model check
M862.1 P0.4 ; nozzle diameter check
M115 U3.8.1 ; tell printer latest fw version
G90 ; use absolute coordinates
M83 ; extruder relative mode
M104 S200 ; set extruder temp
M140 S60 ; set bed temp
M190 S60 ; wait for bed temp
M109 S200 ; wait for extruder temp
G28 W ; home all without mesh bed level
G80 ; mesh bed leveling
G21 ; set units to millimeters

; Send the filament type to the MMU2.0 unit.
; E stands for extruder number, F stands for filament type (0: default; 1:flex; 2: PVA)
M403 E0 F0
M403 E1 F0
M403 E2 F0
M403 E3 F0
M403 E4 F0


;go outside print area
G1 Y-3.0 F1000.0
G1 Z0.4 F1000.0
; select extruder
T2
; initial load
G1 X55.0 E29.0 F1073.0
M73 Q0 S37
M73 P0 R37
G1 X5.0 E29.0 F1800.0
G1 X55.0 E8.0 F2000.0
G1 Z0.3 F1000.0
G92 E0.0
G1 X240.0 E25.0 F2200.0
G1 Y-2.0 F1000.0
G1 X55.0 E25 F1400.0
G1 Z0.20 F1000.0
G1 X5.0 E4.0 F1000.0
G92 E0.0


M221 S95
G92 E0.0
G21 ; set units to millimeters
G90 ; use absolute coordinates
M83 ; use relative distances for extrusion
T2
M104 S200 ; set temperature
; Filament gcode
;BEFORE_LAYER_CHANGE
G92 E0.0
;0.15


G1 E-0.80000 F2100.00000
G1 Z0.600 F10800.000
;AFTER_LAYER_CHANGE
;0.15
G1 X112.599 Y94.050
G1 Z0.150
G1 E0.80000 F2100.00000
M204 S1000
G1 F1200
G1 X113.066 Y93.290 E0.02159
G1 X113.448 Y92.937 E0.01256
G1 X113.895 Y92.667 E0.01265
G1 X114.384 Y92.493 E0.01256
G1 X114.898 Y92.420 E0.01256
G1 X135.004 Y92.418 E0.48625
G1 X135.942 Y92.596 E0.02310
G1 X136.752 Y93.103 E0.02310
G1 X137.323 Y93.874 E0.02319
G1 X137.574 Y94.795 E0.02310
G1 X137.581 Y115.075 E0.49047
G1 X137.401 Y115.950 E0.02159
G1 X136.934 Y116.710 E0.02159
G1 X136.537 Y117.075 E0.01303
G1 X136.069 Y117.350 E0.01313
G1 X135.558 Y117.521 E0.01303
G1 X135.022 Y117.582 E0.01303
G1 X114.925 Y117.581 E0.48606
G1 X114.050 Y117.401 E0.02159
G1 X113.290 Y116.934 E0.02159
G1 X112.925 Y116.537 E0.01303
G1 X112.650 Y116.069 E0.01313
G1 X112.479 Y115.558 E0.01303
G1 X112.418 Y115.022 E0.01303
G1 X112.419 Y94.925 E0.48606
G1 X112.587 Y94.109 E0.02014
G1 F8640
G1 X113.066 Y93.290 E-0.21918
G1 X113.448 Y92.937 E-0.11987
G1 X113.895 Y92.667 E-0.12078
G1 X114.384 Y92.493 E-0.11987
G1 X114.898 Y92.420 E-0.11987
G1 X115.160 Y92.420 E-0.06042
G1 E-0.04000 F2100.00000
G1 Z0.750 F10800.000
G1 X114.076 Y93.010
G1 Z0.150
G1 E0.80000 F2100.00000
G1 F1200
G1 X114.928 Y92.807 E0.02119
G1 X135.004 Y92.806 E0.48553
G1 X135.808 Y92.960 E0.01980
G1 X136.499 Y93.398 E0.01980
G1 X136.982 Y94.059 E0.01980
G1 X137.189 Y94.851 E0.01980
G1 X137.193 Y115.059 E0.48872
G1 X137.037 Y115.814 E0.01866
G1 X136.629 Y116.469 E0.01866
G1 X135.898 Y117.002 E0.02188
G1 X135.014 Y117.194 E0.02188
G1 X114.941 Y117.193 E0.48545
G1 X114.186 Y117.037 E0.01866
G1 X113.531 Y116.629 E0.01866
G1 X112.998 Y115.898 E0.02188
G1 X112.806 Y115.014 E0.02188
G1 X112.807 Y94.941 E0.48545
G1 X112.963 Y94.186 E0.01866
G1 X113.371 Y93.531 E0.01866
G1 X114.027 Y93.046 E0.01973
G1 F8640
G1 X114.928 Y92.807 E-0.21508
G1 X117.288 Y92.807 E-0.54492
G1 E-0.04000 F2100.00000
G1 Z0.750 F10800.000
G1 X134.014 Y114.014
G1 Z0.150
G1 E0.80000 F2100.00000
G1 F1200
G1 X115.986 Y114.014 E0.43602
G1 X115.986 Y95.986 E0.43602
G1 X134.014 Y95.986 E0.43602
G1 X134.014 Y113.954 E0.43457
G1 X134.402 Y114.402 F10800.000
G1 F1200
G1 X115.598 Y114.402 E0.45478
G1 X115.598 Y95.598 E0.45478
G1 X134.402 Y95.598 E0.45478
G1 X134.402 Y114.342 E0.45333
G1 X134.790 Y114.790 F10800.000
G1 F1200
G1 X115.210 Y114.790 E0.47354
G1 X115.210 Y95.210 E0.47354
G1 X134.790 Y95.210 E0.47354
G1 X134.790 Y114.730 E0.47209
G1 X134.404 Y114.686 F10800.000
G1 F8640
G1 X131.499 Y114.740 E-0.76000
G1 E-0.04000 F2100.00000
G1 Z0.750 F10800.000
G1 X133.937 Y96.851
G1 Z0.150
G1 E0.80000 F2100.00000
G1 F1200
G1 X133.323 Y96.238 E0.02109
G1 X132.772 Y96.238 E0.01340
G1 X133.762 Y97.228 E0.03403
G1 X133.762 Y97.779 E0.01340
G1 X132.221 Y96.238 E0.05298
G1 X131.670 Y96.238 E0.01340
G1 X133.762 Y98.330 E0.07192
G1 X133.762 Y98.881 E0.01340
G1 X131.119 Y96.238 E0.09086
G1 X130.568 Y96.238 E0.01340
G1 X133.762 Y99.432 E0.10981
G1 X133.762 Y99.984 E0.01340
G1 X130.016 Y96.238 E0.12875
G1 X129.465 Y96.238 E0.01340
G1 X133.762 Y100.535 E0.14770
G1 X133.762 Y101.086 E0.01340
G1 X128.914 Y96.238 E0.16664
G1 X128.363 Y96.238 E0.01340
G1 X133.762 Y101.637 E0.18558
G1 X133.762 Y102.188 E0.01340
G1 X127.812 Y96.238 E0.20453
G1 X127.261 Y96.238 E0.01340
G1 X133.762 Y102.739 E0.22347
G1 X133.762 Y103.290 E0.01340
G1 X126.710 Y96.238 E0.24241
G1 X126.158 Y96.238 E0.01340
G1 X133.762 Y103.842 E0.26136
G1 X133.762 Y104.393 E0.01340
G1 X125.607 Y96.238 E0.28030
G1 X125.056 Y96.238 E0.01340
G1 X133.762 Y104.944 E0.29925
G1 X133.762 Y105.495 E0.01340
G1 X124.505 Y96.238 E0.31819
G1 X123.954 Y96.238 E0.01340
G1 X133.762 Y106.046 E0.33713
G1 X133.762 Y106.597 E0.01340
G1 X123.403 Y96.238 E0.35608
G1 X122.851 Y96.238 E0.01340
G1 X133.762 Y107.149 E0.37502
G1 X133.762 Y107.700 E0.01340
G1 X122.300 Y96.238 E0.39396
G1 X121.749 Y96.238 E0.01340
G1 X133.762 Y108.251 E0.41291
G1 X133.762 Y108.802 E0.01340
G1 X121.198 Y96.238 E0.43185
G1 X120.647 Y96.238 E0.01340
G1 X133.762 Y109.353 E0.45080
G1 X133.762 Y109.904 E0.01340
G1 X120.096 Y96.238 E0.46974
G1 X119.545 Y96.238 E0.01340
G1 X133.762 Y110.455 E0.48868
G1 X133.762 Y111.007 E0.01340
G1 X118.993 Y96.238 E0.50763
G1 X118.442 Y96.238 E0.01340
G1 X133.762 Y111.558 E0.52657
G1 X133.762 Y112.109 E0.01340
G1 X117.891 Y96.238 E0.54552
M73 Q2 S36
M73 P2 R36
G1 X117.340 Y96.238 E0.01340
G1 X133.762 Y112.660 E0.56446
G1 X133.762 Y113.211 E0.01340
G1 X116.789 Y96.238 E0.58340
G1 X116.238 Y96.238 E0.01339
G1 X133.762 Y113.762 E0.60235
G1 X133.211 Y113.762 E0.01340
G1 X116.238 Y96.789 E0.58340
G1 X116.238 Y97.340 E0.01340
G1 X132.660 Y113.762 E0.56446
G1 X132.109 Y113.762 E0.01340
G1 X116.238 Y97.891 E0.54551
G1 X116.238 Y98.442 E0.01340
G1 X131.558 Y113.762 E0.52657
G1 X131.007 Y113.762 E0.01340
G1 X116.238 Y98.993 E0.50763
G1 X116.238 Y99.545 E0.01340
G1 X130.455 Y113.762 E0.48868
G1 X129.904 Y113.762 E0.01340
G1 X116.238 Y100.096 E0.46974
G1 X116.238 Y100.647 E0.01340
G1 X129.353 Y113.762 E0.45079
G1 X128.802 Y113.762 E0.01340
G1 X116.238 Y101.198 E0.43185
G1 X116.238 Y101.749 E0.01340
G1 X128.251 Y113.762 E0.41291
G1 X127.700 Y113.762 E0.01340
G1 X116.238 Y102.300 E0.39396
G1 X116.238 Y102.852 E0.01340
G1 X127.148 Y113.762 E0.37502
G1 X126.597 Y113.762 E0.01340
G1 X116.238 Y103.403 E0.35608
G1 X116.238 Y103.954 E0.01340
G1 X126.046 Y113.762 E0.33713
G1 X125.495 Y113.762 E0.01340
G1 X116.238 Y104.505 E0.31819
G1 X116.238 Y105.056 E0.01340
G1 X124.944 Y113.762 E0.29924
G1 X124.393 Y113.762 E0.01340
G1 X116.238 Y105.607 E0.28030
G1 X116.238 Y106.158 E0.01340
G1 X123.842 Y113.762 E0.26136
G1 X123.290 Y113.762 E0.01340
G1 X116.238 Y106.710 E0.24241
G1 X116.238 Y107.261 E0.01340
G1 X122.739 Y113.762 E0.22347
G1 X122.188 Y113.762 E0.01340
G1 X116.238 Y107.812 E0.20452
G1 X116.238 Y108.363 E0.01340
G1 X121.637 Y113.762 E0.18558
G1 X121.086 Y113.762 E0.01340
G1 X116.238 Y108.914 E0.16664
G1 X116.238 Y109.465 E0.01340
G1 X120.535 Y113.762 E0.14769
G1 X119.984 Y113.762 E0.01340
G1 X116.238 Y110.016 E0.12875
G1 X116.238 Y110.568 E0.01340
G1 X119.432 Y113.762 E0.10981
G1 X118.881 Y113.762 E0.01340
G1 X116.238 Y111.119 E0.09086
G1 X116.238 Y111.670 E0.01340
G1 X118.330 Y113.762 E0.07192
G1 X117.779 Y113.762 E0.01340
G1 X116.238 Y112.221 E0.05297
G1 X116.238 Y112.772 E0.01340
G1 X117.228 Y113.762 E0.03403
G1 X116.677 Y113.762 E0.01340
G1 X116.063 Y113.149 E0.02108
;BEFORE_LAYER_CHANGE
G92 E0.0
;0.25


G1 F8640
G1 X116.677 Y113.762 E-0.20032
G1 X117.228 Y113.762 E-0.12726
G1 X116.238 Y112.772 E-0.32331
G1 X116.238 Y112.300 E-0.10912
G1 E-0.04000 F2100.00000
G1 Z0.750 F10800.000
;AFTER_LAYER_CHANGE
;0.25
G1 X114.050 Y117.401
G1 Z0.250
G1 E0.80000 F2100.00000
G1 F3000
G1 X113.290 Y116.934 E0.01479
G1 X112.925 Y116.537 E0.00893
G1 X112.650 Y116.069 E0.00899
G1 X112.479 Y115.558 E0.00893
G1 X112.418 Y115.022 E0.00893
G1 X112.419 Y94.925 E0.33301
G1 X112.599 Y94.050 E0.01479
G1 X113.066 Y93.290 E0.01479
G1 X113.448 Y92.937 E0.00860
G1 X113.895 Y92.667 E0.00867
G1 X114.384 Y92.493 E0.00860
G1 X114.898 Y92.420 E0.00860
G1 X135.004 Y92.418 E0.33314
G1 X135.942 Y92.596 E0.01583
G1 X136.752 Y93.103 E0.01583
G1 X137.323 Y93.874 E0.01589
G1 X137.574 Y94.795 E0.01583
G1 X137.581 Y115.075 E0.33603
G1 X137.401 Y115.950 E0.01479
G1 X136.934 Y116.710 E0.01479
G1 X136.537 Y117.075 E0.00893
G1 X136.069 Y117.350 E0.00899
G1 X135.558 Y117.521 E0.00893
G1 X135.022 Y117.582 E0.00893
G1 X114.925 Y117.581 E0.33301
G1 X114.109 Y117.413 E0.01380
G1 F8640
G1 X113.290 Y116.934 E-0.21918
G1 X112.925 Y116.537 E-0.12443
G1 X112.650 Y116.069 E-0.12534
G1 X112.479 Y115.558 E-0.12443
G1 X112.418 Y115.022 E-0.12443
G1 X112.418 Y114.840 E-0.04219
G1 E-0.04000 F2100.00000
G1 Z0.850 F10800.000
G1 X133.918 Y113.918
G1 Z0.250
G1 E0.80000 F2100.00000
M204 S800
G1 F2700
G1 X116.082 Y113.918 E0.31777
G1 X116.082 Y96.082 E0.31777
G1 X133.918 Y96.082 E0.31777
G1 X133.918 Y113.858 E0.31671
M204 S1000
G1 X134.346 Y114.346 F10800.000
M204 S800
G1 F2700
G1 X115.654 Y114.346 E0.33304
G1 X115.654 Y95.654 E0.33304
G1 X134.346 Y95.654 E0.33304
G1 X134.346 Y114.286 E0.33198
M204 S1000
G1 X134.775 Y114.775 F10800.000
M204 S800
G1 F1500
G1 X115.225 Y114.775 E0.34831
G1 X115.225 Y95.225 E0.34831
G1 X134.775 Y95.225 E0.34831
G1 X134.775 Y114.715 E0.34725
M204 S1000
G1 X134.389 Y114.671 F10800.000
G1 F8640
G1 X131.484 Y114.725 E-0.76000
G1 E-0.04000 F2100.00000
G1 Z0.850 F10800.000
G1 X132.959 Y113.832
G1 Z0.250
G1 E0.80000 F2100.00000
M204 S1250
G1 F4800
G1 X133.639 Y113.152 E0.01727
G1 X133.639 Y112.541 E0.01096
G1 X132.541 Y113.639 E0.02787
G1 X131.931 Y113.639 E0.01096
G1 X133.639 Y111.931 E0.04337
G1 X133.639 Y111.320 E0.01096
G1 X131.320 Y113.639 E0.05887
G1 X130.710 Y113.639 E0.01096
G1 X133.639 Y110.710 E0.07438
G1 X133.639 Y110.099 E0.01096
G1 X130.099 Y113.639 E0.08988
G1 X129.488 Y113.639 E0.01096
G1 X133.639 Y109.488 E0.10538
G1 X133.639 Y108.878 E0.01096
G1 X128.878 Y113.639 E0.12088
G1 X128.267 Y113.639 E0.01096
G1 X133.639 Y108.267 E0.13638
G1 X133.639 Y107.657 E0.01096
G1 X127.657 Y113.639 E0.15188
G1 X127.046 Y113.639 E0.01096
G1 X133.639 Y107.046 E0.16738
G1 X133.639 Y106.435 E0.01096
G1 X126.435 Y113.639 E0.18288
G1 X125.825 Y113.639 E0.01096
G1 X133.639 Y105.825 E0.19838
G1 X133.639 Y105.214 E0.01096
G1 X125.214 Y113.639 E0.21388
G1 X124.604 Y113.639 E0.01096
G1 X133.639 Y104.604 E0.22938
G1 X133.639 Y103.993 E0.01096
G1 X123.993 Y113.639 E0.24488
G1 X123.382 Y113.639 E0.01096
G1 X133.639 Y103.382 E0.26038
G1 X133.639 Y102.772 E0.01096
G1 X122.772 Y113.639 E0.27588
G1 X122.161 Y113.639 E0.01096
G1 X133.639 Y102.161 E0.29138
G1 X133.639 Y101.551 E0.01096
G1 X121.551 Y113.639 E0.30688
G1 X120.940 Y113.639 E0.01096
G1 X133.639 Y100.940 E0.32238
G1 X133.639 Y100.329 E0.01096
G1 X120.329 Y113.639 E0.33788
G1 X119.719 Y113.639 E0.01096
G1 X133.639 Y99.719 E0.35338
G1 X133.639 Y99.108 E0.01096
G1 X119.108 Y113.639 E0.36888
G1 X118.498 Y113.639 E0.01096
G1 X133.639 Y98.498 E0.38438
G1 X133.639 Y97.887 E0.01096
G1 X117.887 Y113.639 E0.39988
G1 X117.276 Y113.639 E0.01096
G1 X133.639 Y97.276 E0.41538
G1 X133.639 Y96.666 E0.01096
G1 X116.666 Y113.639 E0.43088
G1 X116.361 Y113.639 E0.00548
G1 X116.361 Y113.334 E0.00548
G1 X133.334 Y96.361 E0.43088
G1 X132.723 Y96.361 E0.01096
G1 X116.361 Y112.723 E0.41538
G1 X116.361 Y112.113 E0.01096
G1 X132.113 Y96.361 E0.39988
G1 X131.502 Y96.361 E0.01096
G1 X116.361 Y111.502 E0.38438
G1 X116.361 Y110.892 E0.01096
G1 X130.892 Y96.361 E0.36888
G1 X130.281 Y96.361 E0.01096
G1 X116.361 Y110.281 E0.35338
G1 X116.361 Y109.670 E0.01096
G1 X129.670 Y96.361 E0.33788
G1 X129.060 Y96.361 E0.01096
G1 X116.361 Y109.060 E0.32238
G1 X116.361 Y108.449 E0.01096
G1 X128.449 Y96.361 E0.30688
G1 X127.839 Y96.361 E0.01096
G1 X116.361 Y107.839 E0.29138
G1 X116.361 Y107.228 E0.01096
G1 X127.228 Y96.361 E0.27588
G1 X126.617 Y96.361 E0.01096
G1 X116.361 Y106.617 E0.26038
G1 X116.361 Y106.007 E0.01096
G1 X126.007 Y96.361 E0.24488
G1 X125.396 Y96.361 E0.01096
G1 X116.361 Y105.396 E0.22938
G1 X116.361 Y104.786 E0.01096
G1 X124.786 Y96.361 E0.21388
G1 X124.175 Y96.361 E0.01096
G1 X116.361 Y104.175 E0.19838
G1 X116.361 Y103.564 E0.01096
G1 X123.564 Y96.361 E0.18287
G1 X122.954 Y96.361 E0.01096
G1 X116.361 Y102.954 E0.16737
G1 X116.361 Y102.343 E0.01096
G1 X122.343 Y96.361 E0.15187
G1 X121.733 Y96.361 E0.01096
G1 X116.361 Y101.733 E0.13637
G1 X116.361 Y101.122 E0.01096
G1 X121.122 Y96.361 E0.12087
G1 X120.511 Y96.361 E0.01096
G1 X116.361 Y100.511 E0.10537
G1 X116.361 Y99.901 E0.01096
G1 X119.901 Y96.361 E0.08987
G1 X119.290 Y96.361 E0.01096
G1 X116.361 Y99.290 E0.07437
G1 X116.361 Y98.680 E0.01096
G1 X118.680 Y96.361 E0.05887
G1 X118.069 Y96.361 E0.01096
G1 X116.361 Y98.069 E0.04337
G1 X116.361 Y97.459 E0.01096
G1 X117.459 Y96.361 E0.02787
G1 X116.848 Y96.361 E0.01096
G1 X116.168 Y97.041 E0.01727
M204 S1000
;BEFORE_LAYER_CHANGE
G92 E0.0
;0.35


G1 F8640
G1 X116.848 Y96.361 E-0.22210
G1 X117.459 Y96.361 E-0.14099
G1 X116.361 Y97.459 E-0.35851
G1 X116.361 Y97.625 E-0.03840
G1 E-0.04000 F2100.00000
G1 Z0.850 F10800.000
;AFTER_LAYER_CHANGE
;0.35
G1 X112.599 Y94.050
G1 Z0.350
G1 E0.80000 F2100.00000
G1 F3000
G1 X113.066 Y93.290 E0.01479
G1 X113.448 Y92.937 E0.00860
G1 X113.895 Y92.667 E0.00867
G1 X114.384 Y92.493 E0.00860
G1 X114.898 Y92.420 E0.00860
G1 X135.004 Y92.418 E0.33314
G1 X135.942 Y92.596 E0.01583
G1 X136.752 Y93.103 E0.01583
G1 X137.323 Y93.874 E0.01589
G1 X137.574 Y94.795 E0.01583
G1 X137.581 Y115.075 E0.33603
G1 X137.401 Y115.950 E0.01479
G1 X136.934 Y116.710 E0.01479
G1 X136.537 Y117.075 E0.00893
G1 X136.069 Y117.350 E0.00899
G1 X135.558 Y117.521 E0.00893
G1 X135.022 Y117.582 E0.00893
G1 X114.925 Y117.581 E0.33301
G1 X114.050 Y117.401 E0.01479
G1 X113.290 Y116.934 E0.01479
G1 X112.925 Y116.537 E0.00893
G1 X112.650 Y116.069 E0.00899
G1 X112.479 Y115.558 E0.00893
G1 X112.418 Y115.022 E0.00893
G1 X112.419 Y94.925 E0.33301
G1 X112.587 Y94.109 E0.01380
G1 F8640
G1 X113.066 Y93.290 E-0.21918
G1 X113.448 Y92.937 E-0.11987
G1 X113.895 Y92.667 E-0.12078
G1 X114.384 Y92.493 E-0.11987
G1 X114.898 Y92.420 E-0.11987
G1 X115.160 Y92.420 E-0.06042
G1 E-0.04000 F2100.00000
G1 Z0.950 F10800.000
G1 X133.918 Y113.918
G1 Z0.350
G1 E0.80000 F2100.00000
M204 S800
G1 F2700
G1 X116.082 Y113.918 E0.31777
G1 X116.082 Y96.082 E0.31777
G1 X133.918 Y96.082 E0.31777
G1 X133.918 Y113.858 E0.31671
M204 S1000
G1 X134.346 Y114.346 F10800.000
M204 S800
G1 F2700
G1 X115.654 Y114.346 E0.33304
G1 X115.654 Y95.654 E0.33304
G1 X134.346 Y95.654 E0.33304
G1 X134.346 Y114.286 E0.33198
M204 S1000
G1 X134.775 Y114.775 F10800.000
M204 S800
G1 F1500
G1 X115.225 Y114.775 E0.34831
G1 X115.225 Y95.225 E0.34831
G1 X134.775 Y95.225 E0.34831
G1 X134.775 Y114.715 E0.34725
M204 S1000
G1 X134.389 Y114.671 F10800.000
G1 F8640
G1 X131.484 Y114.725 E-0.76000
G1 E-0.04000 F2100.00000
G1 Z0.950 F10800.000
G1 X133.832 Y97.041
G1 Z0.350
G1 E0.80000 F2100.00000
M204 S1250
G1 F4800
G1 X133.152 Y96.361 E0.01727
G1 X132.541 Y96.361 E0.01096
G1 X133.639 Y97.459 E0.02787
G1 X133.639 Y98.069 E0.01096
G1 X131.931 Y96.361 E0.04337
G1 X131.320 Y96.361 E0.01096
G1 X133.639 Y98.680 E0.05887
G1 X133.639 Y99.290 E0.01096
G1 X130.710 Y96.361 E0.07438
G1 X130.099 Y96.361 E0.01096
G1 X133.639 Y99.901 E0.08988
G1 X133.639 Y100.512 E0.01096
G1 X129.488 Y96.361 E0.10538
G1 X128.878 Y96.361 E0.01096
