; generated by PrusaSlicer 2.1.0+ on 2020-06-23 at 22:32:43 UTC

; 

; external perimeters extrusion width = 0.45mm
; perimeters extrusion width = 0.45mm
; infill extrusion width = 0.45mm
; solid infill extrusion width = 0.45mm
; top infill extrusion width = 0.40mm
; first layer extrusion width = 0.42mm

M73 P0 R29
M73 Q0 S29
M201 X1000 Y1000 Z1000 E8000 ; sets maximum accelerations, mm/sec^2
M203 X200 Y200 Z12 E120 ; sets maximum feedrates, mm/sec
M204 P1250 R1250 T1250 ; sets acceleration (P, T) and retract acceleration (R), mm/sec^2
M205 X8.00 Y8.00 Z0.40 E1.50 ; sets the jerk limits, mm/sec
M205 S0 T0 ; sets the minimum extruding and travel feed rate, mm/sec
M107
M862.3 P "MK3SMMU2S" ; printer model check
M862.1 P0.4 ; nozzle diameter check
M115 U3.8.1 ; tell printer latest fw version
G90 ; use absolute coordinates
M83 ; extruder relative mode
M104 S200 ; set extruder temp
M140 S60 ; set bed temp
M190 S60 ; wait for bed temp
M109 S200 ; wait for extruder temp
G28 W ; home all without mesh bed level
G80 ; mesh bed leveling
G21 ; set units to millimeters

; Send the filament type to the MMU2.0 unit.
; E stands for extruder number, F stands for filament type (0: default; 1:flex; 2: PVA)
M403 E0 F0
M403 E1 F0
M403 E2 F0
M403 E3 F0
M403 E4 F0


;go outside print area
G1 Y-3.0 F1000.0
G1 Z0.4 F1000.0
; select extruder
T2
; initial load
G1 X55.0 E29.0 F1073.0
M73 Q0 S29
M73 P0 R29
G1 X5.0 E29.0 F1800.0
G1 X55.0 E8.0 F2000.0
G1 Z0.3 F1000.0
G92 E0.0
G1 X240.0 E25.0 F2200.0
G1 Y-2.0 F1000.0
G1 X55.0 E25 F1400.0
G1 Z0.20 F1000.0
G1 X5.0 E4.0 F1000.0
G92 E0.0


M221 S95
G92 E0.0
G21 ; set units to millimeters
G90 ; use absolute coordinates
M83 ; use relative distances for extrusion
T2
M104 S200 ; set temperature
; Filament gcode
;BEFORE_LAYER_CHANGE
G92 E0.0
;0.15


G1 E-0.80000 F2100.00000
G1 Z0.600 F10800.000
;AFTER_LAYER_CHANGE
;0.15
G1 X117.215 Y98.970
G1 Z0.150
G1 E0.80000 F2100.00000
M204 S1000
G1 F1200
G1 X117.648 Y98.187 E0.02164
G1 X118.066 Y97.746 E0.01470
G1 X118.569 Y97.398 E0.01480
G1 X119.129 Y97.161 E0.01470
G1 X119.725 Y97.043 E0.01470
G1 X130.004 Y97.030 E0.24860
G1 X131.030 Y97.215 E0.02520
G1 X131.928 Y97.742 E0.02520
G1 X132.592 Y98.551 E0.02530
G1 X132.933 Y99.535 E0.02520
G1 X132.966 Y110.140 E0.25649
G1 X132.788 Y111.022 E0.02174
G1 X132.352 Y111.813 E0.02185
G1 X131.905 Y112.278 E0.01562
G1 X131.363 Y112.638 E0.01572
G1 X130.756 Y112.872 E0.01572
G1 X130.113 Y112.967 E0.01572
G1 X119.847 Y112.966 E0.24830
G1 X118.970 Y112.785 E0.02164
G1 X118.187 Y112.352 E0.02164
G1 X117.722 Y111.905 E0.01562
G1 X117.362 Y111.363 E0.01572
G1 X117.128 Y110.756 E0.01572
G1 X117.033 Y110.113 E0.01572
G1 X117.034 Y99.847 E0.24830
G1 X117.203 Y99.029 E0.02019
G1 X117.580 Y99.107 F10800.000
G1 F1200
G1 X117.979 Y98.393 E0.01979
G1 X118.348 Y98.016 E0.01275
G1 X118.785 Y97.722 E0.01275
G1 X119.273 Y97.523 E0.01275
G1 X119.791 Y97.427 E0.01275
G1 X130.004 Y97.418 E0.24699
G1 X130.905 Y97.582 E0.02215
G1 X131.693 Y98.051 E0.02215
G1 X132.269 Y98.768 E0.02225
G1 X132.556 Y99.638 E0.02215
G1 X132.579 Y110.115 E0.25340
G1 X132.418 Y110.905 E0.01950
G1 X132.021 Y111.607 E0.01950
G1 X131.628 Y112.004 E0.01351
G1 X131.158 Y112.307 E0.01351
G1 X130.631 Y112.503 E0.01361
G1 X130.078 Y112.581 E0.01351
G1 X119.877 Y112.579 E0.24671
G1 X119.091 Y112.416 E0.01941
G1 X118.393 Y112.021 E0.01941
G1 X117.996 Y111.628 E0.01351
G1 X117.693 Y111.158 E0.01351
G1 X117.497 Y110.631 E0.01361
G1 X117.419 Y110.078 E0.01351
G1 X117.421 Y99.877 E0.24671
G1 X117.568 Y99.166 E0.01756
G1 F8640
G1 X117.979 Y98.393 E-0.20217
G1 X118.348 Y98.016 E-0.12169
G1 X118.785 Y97.722 E-0.12169
G1 X119.273 Y97.523 E-0.12169
G1 X119.791 Y97.427 E-0.12169
G1 X120.099 Y97.426 E-0.07106
G1 E-0.04000 F2100.00000
G1 Z0.750 F10800.000
G1 X118.993 Y98.051
G1 Z0.150
G1 E0.80000 F2100.00000
G1 F1200
G1 X119.851 Y97.811 E0.02153
G1 X130.004 Y97.806 E0.24554
G1 X130.780 Y97.950 E0.01910
G1 X131.453 Y98.356 E0.01901
G1 X131.941 Y98.977 E0.01910
G1 X132.177 Y99.727 E0.01901
G1 X132.192 Y110.091 E0.25066
G1 X132.050 Y110.780 E0.01701
G1 X131.696 Y111.392 E0.01709
G1 X131.360 Y111.722 E0.01139
G1 X130.961 Y111.972 E0.01139
G1 X130.517 Y112.132 E0.01139
G1 X130.050 Y112.193 E0.01139
G1 X119.905 Y112.192 E0.24537
G1 X119.216 Y112.049 E0.01701
G1 X118.608 Y111.696 E0.01701
G1 X118.278 Y111.360 E0.01139
G1 X118.028 Y110.961 E0.01139
G1 X117.868 Y110.517 E0.01139
G1 X117.807 Y110.050 E0.01139
G1 X117.808 Y99.905 E0.24537
G1 X117.951 Y99.216 E0.01701
G1 X118.304 Y98.608 E0.01701
G1 X118.947 Y98.088 E0.01999
G1 F8640
G1 X119.851 Y97.811 E-0.21836
G1 X122.197 Y97.810 E-0.54164
G1 E-0.04000 F2100.00000
G1 Z0.750 F10800.000
G1 X128.018 Y108.017
G1 Z0.150
G1 E0.80000 F2100.00000
G1 F1200
G1 X127.338 Y108.507 E0.02027
G1 X126.981 Y108.715 E0.01000
G1 X126.594 Y108.881 E0.01019
G1 X126.191 Y108.991 E0.01010
G1 X125.789 Y109.056 E0.00984
G1 X125.008 Y109.116 E0.01895
G1 X124.220 Y109.061 E0.01909
G1 X123.816 Y108.998 E0.00989
G1 X123.410 Y108.892 E0.01015
G1 X123.018 Y108.729 E0.01025
G1 X122.656 Y108.524 E0.01008
G1 X121.964 Y108.036 E0.02047
G1 X121.476 Y107.362 E0.02014
G1 X121.269 Y107.008 E0.00992
G1 X121.104 Y106.624 E0.01010
G1 X120.995 Y106.225 E0.01001
G1 X120.930 Y105.827 E0.00975
G1 X120.872 Y105.056 E0.01868
G1 X120.921 Y104.219 E0.02028
G1 X121.035 Y103.644 E0.01418
G1 X121.334 Y102.828 E0.02101
G1 X121.617 Y102.389 E0.01264
G1 X121.935 Y101.997 E0.01221
G1 X122.319 Y101.670 E0.01220
G1 X122.750 Y101.377 E0.01261
G1 X123.527 Y101.069 E0.02021
G1 X123.833 Y100.988 E0.00764
G1 X124.413 Y100.911 E0.01417
G1 X124.919 Y100.886 E0.01225
G1 X125.460 Y100.907 E0.01308
G1 X126.007 Y100.972 E0.01333
G1 X126.544 Y101.112 E0.01341
G1 X127.088 Y101.310 E0.01401
G1 X127.535 Y101.586 E0.01271
G1 X127.929 Y101.896 E0.01210
G1 X128.130 Y102.108 E0.00707
G1 X128.569 Y102.709 E0.01800
G1 X128.819 Y103.270 E0.01485
G1 X129.001 Y103.835 E0.01435
G1 X129.086 Y104.418 E0.01427
G1 X129.116 Y105.003 E0.01415
G1 X129.058 Y105.781 E0.01887
G1 X128.993 Y106.183 E0.00987
G1 X128.883 Y106.588 E0.01013
G1 X128.717 Y106.976 E0.01022
G1 X128.509 Y107.335 E0.01003
G1 X128.053 Y107.968 E0.01887
G1 X127.740 Y107.739 F10800.000
G1 F1200
G1 X127.127 Y108.181 E0.01828
G1 X126.806 Y108.368 E0.00898
G1 X126.465 Y108.514 E0.00897
G1 X126.108 Y108.612 E0.00895
G1 X125.743 Y108.671 E0.00895
G1 X125.006 Y108.727 E0.01787
G1 X124.263 Y108.675 E0.01801
G1 X123.895 Y108.618 E0.00902
G1 X123.534 Y108.523 E0.00902
G1 X123.189 Y108.380 E0.00904
G1 X122.863 Y108.196 E0.00905
G1 X122.240 Y107.757 E0.01844
G1 X121.801 Y107.150 E0.01811
G1 X121.616 Y106.833 E0.00888
G1 X121.471 Y106.496 E0.00888
G1 X121.374 Y106.142 E0.00886
G1 X121.316 Y105.781 E0.00885
G1 X121.261 Y105.053 E0.01765
G1 X121.307 Y104.269 E0.01901
G1 X121.410 Y103.749 E0.01281
G1 X121.683 Y103.002 E0.01923
G1 X121.931 Y102.617 E0.01108
G1 X122.213 Y102.269 E0.01083
G1 X122.554 Y101.979 E0.01083
G1 X122.933 Y101.722 E0.01107
G1 X123.649 Y101.438 E0.01863
G1 X123.908 Y101.369 E0.00649
G1 X124.448 Y101.297 E0.01318
G1 X124.921 Y101.274 E0.01145
G1 X125.429 Y101.294 E0.01230
G1 X125.935 Y101.354 E0.01231
G1 X126.428 Y101.483 E0.01233
G1 X126.918 Y101.661 E0.01261
G1 X127.313 Y101.905 E0.01121
G1 X127.666 Y102.183 E0.01089
G1 X127.831 Y102.357 E0.00579
G1 X128.231 Y102.905 E0.01641
G1 X128.456 Y103.409 E0.01334
G1 X128.622 Y103.923 E0.01306
G1 X128.699 Y104.457 E0.01305
G1 X128.728 Y104.998 E0.01312
G1 X128.672 Y105.735 E0.01787
G1 X128.613 Y106.101 E0.00897
G1 X128.516 Y106.460 E0.00898
G1 X128.369 Y106.802 E0.00900
G1 X128.183 Y107.124 E0.00900
G1 X127.775 Y107.690 E0.01688
G1 X127.827 Y108.130 F10800.000
G1 F8640
G1 X127.127 Y108.181 E-0.18772
G1 X126.806 Y108.368 E-0.08569
G1 X126.465 Y108.514 E-0.08563
G1 X126.108 Y108.612 E-0.08549
G1 X125.743 Y108.671 E-0.08542
G1 X125.006 Y108.727 E-0.17058
G1 X124.750 Y108.709 E-0.05947
G1 E-0.04000 F2100.00000
G1 Z0.750 F10800.000
G1 X121.471 Y101.373
G1 Z0.150
G1 E0.80000 F2100.00000
G1 F1200
G1 X121.373 Y101.458 E0.00311
G1 X121.373 Y101.373 E0.00204
G1 X121.411 Y101.373 E0.00090
G1 F8640
G1 X121.373 Y101.458 E-0.02128
G1 X121.373 Y101.373 E-0.01946
G1 X121.411 Y101.373 E-0.00862
G1 E-0.75064 F2100.00000
G1 Z0.750 F10800.000
G1 X122.568 Y101.033
G1 Z0.150
G1 E0.80000 F2100.00000
G1 F1200
G1 X122.084 Y101.361 E0.01414
G1 X121.656 Y101.725 E0.01358
G1 X121.302 Y102.161 E0.01359
G1 X120.986 Y102.653 E0.01414
G1 X120.986 Y100.986 E0.04032
G1 X122.686 Y100.986 E0.04113
G1 X122.624 Y101.010 E0.00163
G1 F8640
G1 X122.084 Y101.361 E-0.14860
G1 X121.656 Y101.725 E-0.12967
G1 X121.302 Y102.161 E-0.12972
G1 X120.986 Y102.653 E-0.13500
G1 X120.986 Y101.713 E-0.21702
G1 E-0.04000 F2100.00000
G1 Z0.750 F10800.000
G1 X128.502 Y101.373
G1 Z0.150
G1 E0.80000 F2100.00000
G1 F1200
G1 X128.627 Y101.373 E0.00301
G1 X128.627 Y101.505 E0.00318
G1 X128.543 Y101.417 E0.00293
G1 X129.014 Y100.986 F10800.000
G1 F1200
G1 X129.014 Y102.756 E0.04282
G1 X128.906 Y102.514 E0.00642
G1 X128.428 Y101.860 E0.01960
G1 X128.191 Y101.609 E0.00835
G1 X127.758 Y101.268 E0.01332
G1 X127.301 Y100.986 E0.01298
G1 X128.954 Y100.986 E0.03998
G1 F8640
G1 X129.014 Y102.756 E-0.40906
G1 X128.906 Y102.514 E-0.06131
G1 X128.428 Y101.860 E-0.18709
G1 X128.191 Y101.609 E-0.07975
G1 X128.113 Y101.548 E-0.02278
G1 E-0.04000 F2100.00000
G1 Z0.750 F10800.000
G1 X128.627 Y108.499
G1 Z0.150
G1 E0.80000 F2100.00000
G1 F1200
G1 X128.627 Y108.627 E0.00308
G1 X128.499 Y108.627 E0.00310
G1 X128.592 Y108.548 E0.00295
G1 X129.014 Y109.014 F10800.000
G1 F1200
G1 X127.237 Y109.014 E0.04298
G1 X127.550 Y108.833 E0.00875
G1 X128.296 Y108.295 E0.02225
G1 X128.835 Y107.546 E0.02231
G1 X129.014 Y107.236 E0.00867
G1 X129.014 Y108.954 E0.04157
G1 F8640
G1 X127.237 Y109.014 E-0.41060
G1 X127.550 Y108.833 E-0.08350
G1 X128.296 Y108.295 E-0.21243
G1 X128.431 Y108.107 E-0.05346
G1 E-0.04000 F2100.00000
G1 Z0.750 F10800.000
G1 X121.455 Y108.627
G1 Z0.150
G1 E0.80000 F2100.00000
G1 F1200
G1 X121.373 Y108.627 E0.00197
G1 X121.373 Y108.544 E0.00201
G1 X121.407 Y108.590 E0.00140
G1 X120.986 Y109.014 F10800.000
G1 F1200
G1 X120.986 Y107.292 E0.04166
G1 X121.150 Y107.574 E0.00790
G1 X121.688 Y108.316 E0.02216
G1 X122.448 Y108.852 E0.02249
G1 X122.735 Y109.014 E0.00798
G1 X121.046 Y109.014 E0.04086
G1 X120.598 Y109.402 F10800.000
G1 F1200
G1 X120.598 Y100.598 E0.21293
G1 X129.402 Y100.598 E0.21293
G1 X129.402 Y109.402 E0.21293
G1 X120.658 Y109.402 E0.21148
G1 X120.210 Y109.790 F10800.000
G1 F1200
G1 X120.210 Y100.210 E0.23169
G1 X129.790 Y100.210 E0.23169
G1 X129.790 Y109.790 E0.23169
G1 X120.270 Y109.790 E0.23024
G1 X120.314 Y109.404 F10800.000
G1 F8640
G1 X120.249 Y106.499 E-0.76000
G1 E-0.04000 F2100.00000
G1 Z0.750 F10800.000
G1 X124.989 Y105.492
G1 Z0.150
G1 E0.80000 F2100.00000
G1 F1200
G1 X124.956 Y105.324 E0.00413
G1 X124.947 Y105.080 E0.00590
G1 X124.965 Y104.629 E0.01093
G1 X124.993 Y104.497 E0.00324
G1 X125.033 Y104.710 E0.00523
G1 X125.041 Y104.972 E0.00634
G1 X125.009 Y105.435 E0.01124
G1 X124.730 Y105.843 F10800.000
G1 F1200
G1 X124.600 Y105.562 E0.00747
G1 X124.570 Y105.361 E0.00493
G1 X124.559 Y105.080 E0.00680
G1 X124.579 Y104.580 E0.01211
G1 X124.629 Y104.344 E0.00584
G1 X124.736 Y104.116 E0.00607
G1 X124.800 Y104.075 E0.00186
G1 X125.003 Y104.049 E0.00494
G1 X125.091 Y104.058 E0.00215
G1 X125.177 Y104.080 E0.00215
G1 X125.251 Y104.132 E0.00218
G1 X125.388 Y104.450 E0.00838
G1 X125.420 Y104.677 E0.00553
G1 X125.430 Y104.976 E0.00724
G1 X125.404 Y105.462 E0.01178
G1 X125.317 Y105.724 E0.00667
G1 X125.221 Y105.876 E0.00434
G1 X125.114 Y105.922 E0.00284
G1 X125.005 Y105.934 E0.00263
G1 X124.888 Y105.923 E0.00284
G1 X124.777 Y105.880 E0.00289
G1 X124.536 Y106.187 F10800.000
G1 F1200
G1 X124.427 Y106.095 E0.00346
G1 X124.316 Y105.901 E0.00541
G1 X124.224 Y105.663 E0.00616
G1 X124.183 Y105.398 E0.00648
G1 X124.171 Y105.080 E0.00770
G1 X124.192 Y104.531 E0.01328
G1 X124.257 Y104.231 E0.00741
G1 X124.424 Y103.873 E0.00957
G1 X124.663 Y103.705 E0.00707
G1 X124.999 Y103.659 E0.00818
G1 X125.330 Y103.719 E0.00815
G1 X125.559 Y103.886 E0.00685
G1 X125.673 Y104.096 E0.00578
G1 X125.767 Y104.356 E0.00668
G1 X125.807 Y104.644 E0.00703
G1 X125.818 Y104.980 E0.00814
G1 X125.771 Y105.610 E0.01529
G1 X125.672 Y105.884 E0.00703
G1 X125.556 Y106.098 E0.00589
G1 X125.330 Y106.265 E0.00679
G1 X125.187 Y106.304 E0.00358
G1 X125.007 Y106.324 E0.00438
G1 X124.819 Y106.305 E0.00457
G1 X124.667 Y106.265 E0.00381
G1 X124.587 Y106.218 E0.00225
G1 X124.124 Y106.346 F10800.000
G1 F1200
G1 X123.965 Y106.068 E0.00776
G1 X123.847 Y105.764 E0.00789
G1 X123.796 Y105.435 E0.00804
G1 X123.783 Y105.079 E0.00860
G1 X123.806 Y104.482 E0.01446
G1 X123.884 Y104.119 E0.00898
G1 X123.949 Y103.954 E0.00430
G1 X124.112 Y103.629 E0.00878
G1 X124.292 Y103.474 E0.00575
G1 X124.503 Y103.349 E0.00592
G1 X124.597 Y103.319 E0.00241
G1 X124.994 Y103.268 E0.00968
G1 X125.229 Y103.293 E0.00570
G1 X125.483 Y103.358 E0.00634
G1 X125.685 Y103.481 E0.00573
G1 X125.867 Y103.640 E0.00584
G1 X126.027 Y103.937 E0.00817
G1 X126.145 Y104.262 E0.00835
G1 X126.194 Y104.611 E0.00852
G1 X126.206 Y104.984 E0.00904
G1 X126.176 Y105.553 E0.01377
G1 X126.147 Y105.712 E0.00392
G1 X126.026 Y106.043 E0.00851
G1 X125.864 Y106.343 E0.00824
G1 X125.686 Y106.500 E0.00574
G1 X125.488 Y106.623 E0.00565
G1 X125.261 Y106.686 E0.00568
G1 X125.009 Y106.714 E0.00613
G1 X124.750 Y106.688 E0.00629
G1 X124.516 Y106.627 E0.00586
G1 X124.309 Y106.504 E0.00581
G1 X124.169 Y106.385 E0.00444
G1 X124.244 Y106.049 F10800.000
G1 F8640
G1 X123.965 Y106.068 E-0.08722
G1 X123.847 Y105.764 E-0.07532
G1 X123.796 Y105.435 E-0.07679
G1 X123.783 Y105.079 E-0.08215
G1 X123.806 Y104.482 E-0.13803
G1 X123.884 Y104.119 E-0.08574
G1 X123.949 Y103.954 E-0.04101
G1 X124.112 Y103.629 E-0.08384
G1 X124.292 Y103.474 E-0.05485
G1 X124.423 Y103.397 E-0.03505
G1 E-0.04000 F2100.00000
G1 Z0.750 F10800.000
G1 X124.867 Y104.287
G1 Z0.150
G1 E0.80000 F2100.00000
G1 F1200
G1 X125.074 Y104.274 E0.00075
G1 F8640
G1 X124.867 Y104.287 E-0.04778
G1 E-0.75222 F2100.00000
G1 Z0.750 F10800.000
G1 X126.255 Y100.814
G1 Z0.150
G1 E0.80000 F2100.00000
G1 F1200
G1 X126.437 Y100.837 E0.00107
G1 X126.625 Y100.862 E0.00165
G1 X126.787 Y100.890 E0.00186
G1 X126.949 Y100.918 E0.00228
G1 X127.111 Y100.947 E0.00271
G1 F8640
G1 X126.949 Y100.918 E-0.03795
G1 E-0.76205 F2100.00000
G1 Z0.750 F10800.000
G1 X129.060 Y102.945
G1 Z0.150
G1 E0.80000 F2100.00000
G1 F1200
G1 X129.123 Y103.304 E0.00485
G1 X129.187 Y103.711 E0.00235
G1 F8640
G1 X129.123 Y103.304 E-0.09530
G1 E-0.70470 F2100.00000
G1 Z0.750 F10800.000
G1 X129.186 Y106.293
G1 Z0.150
G1 E0.80000 F2100.00000
G1 F1200
G1 X129.161 Y106.482 E0.00116
G1 X129.072 Y107.050 E0.00531
G1 F8640
G1 X129.161 Y106.482 E-0.13288
G1 E-0.66712 F2100.00000
G1 Z0.750 F10800.000
G1 X127.052 Y109.071
G1 Z0.150
G1 E0.80000 F2100.00000
G1 F1200
G1 X126.486 Y109.161 E0.00535
G1 X126.295 Y109.186 E0.00118
G1 F8640
G1 X126.486 Y109.161 E-0.04454
G1 E-0.75546 F2100.00000
G1 Z0.750 F10800.000
G1 X123.682 Y109.186
G1 Z0.150
G1 E0.80000 F2100.00000
G1 F1200
G1 X122.920 Y109.074 E0.00444
G1 F8640
G1 X123.682 Y109.186 E-0.17772
G1 E-0.62228 F2100.00000
G1 Z0.750 F10800.000
G1 X120.926 Y107.107
G1 Z0.150
G1 E0.80000 F2100.00000
G1 F1200
G1 X120.835 Y106.543 E0.00478
G1 X120.814 Y106.380 E0.00093
G1 F8640
G1 X120.835 Y106.543 E-0.03789
G1 E-0.76211 F2100.00000
G1 Z0.750 F10800.000
G1 X120.814 Y103.644
G1 Z0.150
G1 E0.80000 F2100.00000
G1 F1200
G1 X120.821 Y103.582 E0.00023
G1 X120.847 Y103.434 E0.00094
G1 X120.873 Y103.287 E0.00134
G1 X120.899 Y103.139 E0.00174
G1 X120.925 Y102.992 E0.00214
G1 X120.951 Y102.845 E0.00253
G1 F8640
G1 X120.925 Y102.992 E-0.03455
G1 E-0.76545 F2100.00000
G1 Z0.750 F10800.000
G1 X122.877 Y100.949
G1 Z0.150
G1 E0.80000 F2100.00000
G1 F1200
G1 X123.020 Y100.922 E0.00241
G1 X123.306 Y100.867 E0.00328
G1 X123.647 Y100.814 E0.00203
;BEFORE_LAYER_CHANGE
G92 E0.0
;0.25


G1 F8640
G1 X123.306 Y100.867 E-0.07982
G1 E-0.72018 F2100.00000
G1 Z0.750 F10800.000
;AFTER_LAYER_CHANGE
;0.25
G1 X131.030 Y97.215
G1 Z0.250
G1 E0.80000 F2100.00000
G1 F3000
G1 X131.928 Y97.742 E0.01726
