; generated by PrusaSlicer 2.1.0+ on 2020-06-23 at 21:58:48 UTC

; 

; external perimeters extrusion width = 0.45mm
; perimeters extrusion width = 0.45mm
; infill extrusion width = 0.45mm
; solid infill extrusion width = 0.45mm
; top infill extrusion width = 0.40mm
; first layer extrusion width = 0.42mm

M73 P0 R25
M73 Q0 S25
M201 X1000 Y1000 Z1000 E8000 ; sets maximum accelerations, mm/sec^2
M203 X200 Y200 Z12 E120 ; sets maximum feedrates, mm/sec
M204 P1250 R1250 T1250 ; sets acceleration (P, T) and retract acceleration (R), mm/sec^2
M205 X8.00 Y8.00 Z0.40 E1.50 ; sets the jerk limits, mm/sec
M205 S0 T0 ; sets the minimum extruding and travel feed rate, mm/sec
M107
M862.3 P "MK3SMMU2S" ; printer model check
M862.1 P0.4 ; nozzle diameter check
M115 U3.8.1 ; tell printer latest fw version
G90 ; use absolute coordinates
M83 ; extruder relative mode
M104 S200 ; set extruder temp
M140 S60 ; set bed temp
M190 S60 ; wait for bed temp
M109 S200 ; wait for extruder temp
G28 W ; home all without mesh bed level
G80 ; mesh bed leveling
G21 ; set units to millimeters

; Send the filament type to the MMU2.0 unit.
; E stands for extruder number, F stands for filament type (0: default; 1:flex; 2: PVA)
M403 E0 F0
M403 E1 F0
M403 E2 F0
M403 E3 F0
M403 E4 F0


;go outside print area
G1 Y-3.0 F1000.0
G1 Z0.4 F1000.0
; select extruder
T2
; initial load
G1 X55.0 E29.0 F1073.0
M73 Q0 S25
M73 P0 R25
G1 X5.0 E29.0 F1800.0
G1 X55.0 E8.0 F2000.0
G1 Z0.3 F1000.0
G92 E0.0
G1 X240.0 E25.0 F2200.0
G1 Y-2.0 F1000.0
G1 X55.0 E25 F1400.0
G1 Z0.20 F1000.0
G1 X5.0 E4.0 F1000.0
G92 E0.0


M221 S95
G92 E0.0
G21 ; set units to millimeters
G90 ; use absolute coordinates
M83 ; use relative distances for extrusion
T2
M104 S200 ; set temperature
; Filament gcode
;BEFORE_LAYER_CHANGE
G92 E0.0
;0.15


G1 E-0.80000 F2100.00000
G1 Z0.600 F10800.000
;AFTER_LAYER_CHANGE
;0.15
G1 X114.922 Y96.951
G1 Z0.150
G1 E0.80000 F2100.00000
M204 S1000
G1 F1200
G1 X116.131 Y96.730 E0.02972
G1 X133.762 Y96.728 E0.42640
G1 X134.476 Y96.792 E0.01734
G1 X135.168 Y96.983 E0.01737
G1 X135.819 Y97.295 E0.01747
G1 X136.398 Y97.714 E0.01727
G1 X136.899 Y98.234 E0.01747
G1 X137.297 Y98.832 E0.01737
G1 X137.583 Y99.491 E0.01737
G1 X137.745 Y100.177 E0.01706
G1 X137.752 Y109.773 E0.23207
G1 X137.564 Y110.563 E0.01964
G1 X137.191 Y111.351 E0.02109
G1 X136.699 Y111.996 E0.01961
G1 X136.106 Y112.517 E0.01911
G1 X135.080 Y113.048 E0.02794
G1 X133.870 Y113.270 E0.02973
G1 X116.119 Y113.270 E0.42931
G1 X115.176 Y113.128 E0.02306
G1 X114.289 Y112.766 E0.02318
G1 X113.556 Y112.246 E0.02172
G1 X112.941 Y111.552 E0.02244
G1 X112.430 Y110.545 E0.02729
G1 X112.220 Y109.483 E0.02618
G1 X112.221 Y100.510 E0.21702
G1 X112.382 Y99.603 E0.02228
G1 X112.712 Y98.815 E0.02065
G1 X113.257 Y98.052 E0.02269
G1 X113.897 Y97.481 E0.02075
G1 X114.868 Y96.978 E0.02644
G1 X115.043 Y97.323 F10800.000
G1 F1200
G1 X116.155 Y97.117 E0.02733
G1 X133.761 Y97.116 E0.42582
G1 X134.411 Y97.175 E0.01577
G1 X135.040 Y97.349 E0.01579
G1 X135.625 Y97.631 E0.01569
G1 X136.153 Y98.014 E0.01579
G1 X136.604 Y98.486 E0.01579
G1 X136.962 Y99.028 E0.01570
G1 X137.219 Y99.628 E0.01579
G1 X137.365 Y100.260 E0.01569
G1 X137.369 Y109.706 E0.22845
G1 X137.199 Y110.431 E0.01802
G1 X136.853 Y111.159 E0.01949
G1 X136.403 Y111.745 E0.01787
G1 X135.849 Y112.224 E0.01771
G1 X134.936 Y112.687 E0.02477
G1 X133.842 Y112.883 E0.02688
G1 X116.135 Y112.882 E0.42823
G1 X115.274 Y112.753 E0.02106
G1 X114.462 Y112.419 E0.02124
G1 X113.802 Y111.945 E0.01966
G1 X113.235 Y111.296 E0.02084
G1 X112.789 Y110.399 E0.02423
G1 X112.606 Y109.441 E0.02357
G1 X112.608 Y100.535 E0.21539
G1 X112.756 Y99.709 E0.02031
G1 X113.056 Y98.994 E0.01875
G1 X113.556 Y98.299 E0.02069
G1 X114.153 Y97.775 E0.01923
G1 X114.990 Y97.350 E0.02269
G1 X115.290 Y97.647 F10800.000
G1 F1200
G1 X116.177 Y97.504 E0.02174
G1 X133.761 Y97.503 E0.42526
G1 X134.342 Y97.556 E0.01412
G1 X134.904 Y97.712 E0.01411
G1 X135.430 Y97.966 E0.01411
G1 X135.904 Y98.312 E0.01420
G1 X136.304 Y98.732 E0.01402
G1 X136.626 Y99.222 E0.01420
G1 X136.854 Y99.759 E0.01411
G1 X136.984 Y100.335 E0.01428
G1 X136.986 Y109.642 E0.22509
G1 X136.834 Y110.301 E0.01636
G1 X136.519 Y110.963 E0.01773
G1 X136.113 Y111.487 E0.01602
G1 X135.602 Y111.922 E0.01624
G1 X134.715 Y112.352 E0.02383
G1 X133.823 Y112.496 E0.02187
G1 X116.155 Y112.495 E0.42730
G1 X115.376 Y112.379 E0.01904
G1 X114.641 Y112.074 E0.01925
G1 X114.052 Y111.648 E0.01759
G1 X113.535 Y111.048 E0.01915
G1 X113.151 Y110.258 E0.02124
G1 X112.993 Y109.402 E0.02107
G1 X112.995 Y100.564 E0.21375
G1 X113.128 Y99.818 E0.01832
G1 X113.399 Y99.177 E0.01684
G1 X113.854 Y98.549 E0.01876
G1 X114.399 Y98.077 E0.01745
G1 X115.236 Y97.673 E0.02246
G1 F8640
G1 X116.177 Y97.504 E-0.22085
G1 X118.512 Y97.504 E-0.53915
G1 E-0.04000 F2100.00000
G1 Z0.750 F10800.000
G1 X129.855 Y105.411
G1 Z0.150
G1 E0.80000 F2100.00000
G1 F1200
G1 X129.700 Y105.535 E0.00481
G1 X129.446 Y105.614 E0.00643
G1 X129.183 Y105.574 E0.00643
G1 X129.011 Y105.475 E0.00481
G1 X128.846 Y105.267 E0.00643
G1 X128.786 Y105.008 E0.00643
G1 X128.816 Y104.811 E0.00481
G1 X128.945 Y104.588 E0.00623
G1 X129.100 Y104.465 E0.00481
G1 X129.354 Y104.386 E0.00643
G1 X129.617 Y104.426 E0.00643
G1 X129.789 Y104.525 E0.00481
G1 X129.954 Y104.733 E0.00643
G1 X130.014 Y104.992 E0.00643
G1 X129.984 Y105.188 E0.00481
G1 X129.885 Y105.359 E0.00478
G1 X129.919 Y105.600 F10800.000
G1 F8640
G1 X129.700 Y105.535 E-0.05900
G1 X129.446 Y105.614 E-0.06135
G1 X129.183 Y105.574 E-0.06135
G1 X129.011 Y105.475 E-0.04588
G1 X128.846 Y105.267 E-0.06135
G1 X128.786 Y105.008 E-0.06135
G1 X128.816 Y104.811 E-0.04588
G1 X128.945 Y104.588 E-0.05945
G1 X129.100 Y104.465 E-0.04588
G1 X129.354 Y104.386 E-0.06135
G1 X129.617 Y104.426 E-0.06135
G1 X129.789 Y104.525 E-0.04588
G1 X129.954 Y104.733 E-0.06135
G1 X129.982 Y104.854 E-0.02860
G1 E-0.04000 F2100.00000
G1 Z0.750 F10800.000
G1 X126.332 Y102.130
G1 Z0.150
G1 E0.80000 F2100.00000
G1 F1200
G1 X126.054 Y102.408 E0.00951
G1 X125.573 Y102.259 E0.01217
G1 X125.051 Y102.201 E0.01271
G1 X124.689 Y102.218 E0.00877
G1 X124.331 Y102.282 E0.00880
G1 X123.938 Y102.417 E0.01005
G1 X123.671 Y102.127 E0.00954
G1 X125.000 Y100.915 E0.04348
G1 X126.288 Y102.089 E0.04214
G1 F8640
G1 X126.054 Y102.408 E-0.09127
G1 X125.573 Y102.259 E-0.11621
G1 X125.051 Y102.201 E-0.12137
G1 X124.689 Y102.218 E-0.08369
G1 X124.331 Y102.282 E-0.08399
G1 X123.938 Y102.417 E-0.09591
G1 X123.671 Y102.127 E-0.09109
G1 X123.916 Y101.904 E-0.07646
G1 E-0.04000 F2100.00000
G1 Z0.750 F10800.000
G1 X126.066 Y107.588
G1 Z0.150
G1 E0.80000 F2100.00000
G1 F1200
G1 X126.329 Y107.873 E0.00937
G1 X125.000 Y109.084 E0.04348
G1 X123.658 Y107.861 E0.04391
G1 X123.856 Y107.711 E0.00601
G1 X123.930 Y107.580 E0.00364
G1 X124.331 Y107.718 E0.01025
G1 X124.689 Y107.782 E0.00880
G1 X125.053 Y107.799 E0.00880
G1 X125.573 Y107.741 E0.01268
G1 X126.009 Y107.606 E0.01104
G1 F8640
G1 X126.329 Y107.873 E-0.09620
G1 X125.000 Y109.084 E-0.41516
G1 X124.204 Y108.359 E-0.24863
G1 E-0.04000 F2100.00000
G1 Z0.750 F10800.000
G1 X121.184 Y105.188
G1 Z0.150
G1 E0.80000 F2100.00000
G1 F1200
G1 X121.051 Y105.419 E0.00643
G1 X120.832 Y105.568 E0.00643
G1 X120.646 Y105.611 E0.00461
G1 X120.456 Y105.596 E0.00461
G1 X120.216 Y105.481 E0.00643
G1 X120.046 Y105.267 E0.00662
G1 X119.985 Y105.000 E0.00662
G1 X120.044 Y104.741 E0.00643
G1 X120.151 Y104.583 E0.00461
G1 X120.300 Y104.465 E0.00461
G1 X120.554 Y104.386 E0.00643
G1 X120.817 Y104.426 E0.00643
G1 X120.989 Y104.525 E0.00481
G1 X121.154 Y104.733 E0.00643
G1 X121.214 Y104.992 E0.00643
G1 X121.193 Y105.129 E0.00335
G1 X121.359 Y105.388 F10800.000
G1 F8640
G1 X121.051 Y105.419 E-0.07442
G1 X120.832 Y105.568 E-0.06135
G1 X120.646 Y105.611 E-0.04401
G1 X120.456 Y105.596 E-0.04401
G1 X120.216 Y105.481 E-0.06135
G1 X120.046 Y105.267 E-0.06324
G1 X119.985 Y105.000 E-0.06324
G1 X120.044 Y104.741 E-0.06135
G1 X120.151 Y104.583 E-0.04402
G1 X120.300 Y104.465 E-0.04401
G1 X120.554 Y104.386 E-0.06135
G1 X120.817 Y104.426 E-0.06135
G1 X120.989 Y104.525 E-0.04588
G1 X121.071 Y104.628 E-0.03043
G1 E-0.04000 F2100.00000
G1 Z0.750 F10800.000
G1 X118.057 Y100.402
G1 Z0.150
G1 E0.80000 F2100.00000
G1 F1200
G1 X131.943 Y100.402 E0.33583
G1 X128.190 Y103.824 E0.12283
G1 X127.930 Y103.586 E0.00852
G1 X127.653 Y103.903 E0.01016
G1 X127.585 Y103.936 E0.00184
G1 X127.732 Y104.383 E0.01139
G1 X127.798 Y104.905 E0.01272
G1 X127.786 Y105.266 E0.00874
G1 X127.729 Y105.626 E0.00881
G1 X127.583 Y106.071 E0.01133
G1 X127.711 Y106.144 E0.00357
G1 X127.922 Y106.421 E0.00841
G1 X128.190 Y106.176 E0.00878
G1 X131.943 Y109.598 E0.12283
G1 X118.057 Y109.598 E0.33583
G1 X121.810 Y106.176 E0.12283
G1 X122.081 Y106.423 E0.00887
G1 X122.138 Y106.307 E0.00314
G1 X122.413 Y106.066 E0.00885
G1 X122.250 Y105.529 E0.01357
G1 X122.199 Y104.999 E0.01286
G1 X122.250 Y104.470 E0.01285
G1 X122.416 Y103.928 E0.01372
G1 X122.289 Y103.856 E0.00353
G1 X122.078 Y103.579 E0.00841
G1 X121.810 Y103.824 E0.00878
G1 X118.101 Y100.443 E0.12138
G1 F8640
G1 X121.393 Y100.433 E-0.76000
G1 E-0.04000 F2100.00000
G1 Z0.750 F10800.000
G1 X119.058 Y100.790
G1 Z0.150
G1 E0.80000 F2100.00000
G1 F1200
G1 X124.562 Y100.790 E0.13312
G1 X122.875 Y102.328 E0.05520
G1 X122.913 Y102.314 E0.00097
G1 X123.197 Y102.328 E0.00688
G1 X123.453 Y102.452 E0.00688
G1 X123.641 Y102.666 E0.00688
G1 X123.727 Y102.963 E0.00748
G1 X123.998 Y102.807 E0.00757
G1 X124.428 Y102.658 E0.01100
G1 X124.732 Y102.604 E0.00746
G1 X125.039 Y102.590 E0.00743
G1 X125.494 Y102.640 E0.01107
G1 X125.931 Y102.776 E0.01109
G1 X126.279 Y102.962 E0.00953
G1 X126.278 Y102.890 E0.00176
G1 X126.384 Y102.626 E0.00688
G1 X126.586 Y102.424 E0.00688
G1 X126.849 Y102.318 E0.00688
G1 X127.119 Y102.322 E0.00652
G1 X125.438 Y100.790 E0.05501
G1 X130.942 Y100.790 E0.13312
G1 X128.190 Y103.299 E0.09007
G1 X127.646 Y102.803 E0.01781
G1 X127.686 Y102.913 E0.00284
G1 X127.672 Y103.190 E0.00671
G1 X127.596 Y103.379 E0.00494
G1 X127.413 Y103.588 E0.00671
G1 X127.157 Y103.712 E0.00688
G1 X127.033 Y103.718 E0.00300
G1 X127.209 Y104.033 E0.00872
G1 X127.352 Y104.469 E0.01109
G1 X127.409 Y104.923 E0.01108
G1 X127.399 Y105.229 E0.00741
G1 X127.351 Y105.534 E0.00747
G1 X127.209 Y105.967 E0.01100
G1 X127.034 Y106.281 E0.00871
G1 X127.203 Y106.301 E0.00412
G1 X127.450 Y106.442 E0.00688
G1 X127.623 Y106.668 E0.00688
G1 X127.693 Y106.944 E0.00688
G1 X127.656 Y107.187 E0.00595
G1 X128.190 Y106.701 E0.01746
G1 X130.942 Y109.210 E0.09007
G1 X125.438 Y109.210 E0.13312
G1 X127.125 Y107.672 E0.05520
G1 X127.087 Y107.686 E0.00097
G1 X126.803 Y107.672 E0.00688
G1 X126.547 Y107.548 E0.00688
G1 X126.359 Y107.334 E0.00688
G1 X126.272 Y107.041 E0.00738
G1 X125.931 Y107.224 E0.00935
G1 X125.494 Y107.360 E0.01109
G1 X125.040 Y107.410 E0.01103
G1 X124.732 Y107.395 E0.00746
G1 X124.428 Y107.342 E0.00746
G1 X123.998 Y107.193 E0.01100
G1 X123.719 Y107.032 E0.00781
G1 X123.699 Y107.203 E0.00417
G1 X123.558 Y107.450 E0.00688
G1 X123.332 Y107.623 E0.00688
G1 X123.056 Y107.693 E0.00688
G1 X122.867 Y107.665 E0.00462
G1 X124.562 Y109.210 E0.05547
G1 X119.058 Y109.210 E0.13312
G1 X121.810 Y106.701 E0.09007
G1 X122.354 Y107.197 E0.01781
G1 X122.314 Y107.087 E0.00284
G1 X122.328 Y106.803 E0.00688
G1 X122.452 Y106.547 E0.00688
G1 X122.666 Y106.359 E0.00688
G1 X122.956 Y106.272 E0.00731
G1 X122.762 Y105.896 E0.01023
G1 X122.632 Y105.455 E0.01111
G1 X122.589 Y104.999 E0.01107
G1 X122.633 Y104.544 E0.01107
G1 X122.762 Y104.104 E0.01109
G1 X122.961 Y103.718 E0.01050
G1 X122.797 Y103.699 E0.00398
G1 X122.550 Y103.558 E0.00688
G1 X122.377 Y103.332 E0.00688
G1 X122.307 Y103.056 E0.00688
G1 X122.344 Y102.813 E0.00595
G1 X121.810 Y103.299 E0.01746
G1 X119.102 Y100.830 E0.08862
G1 X118.925 Y100.413 F10800.000
G1 F8640
G1 X122.394 Y100.806 E-0.76000
G1 E-0.04000 F2100.00000
G1 Z0.750 F10800.000
G1 X117.953 Y100.832
G1 Z0.150
G1 E0.80000 F2100.00000
G1 F1200
G1 X117.877 Y100.832 E0.00183
G1 X117.880 Y100.766 E0.00159
G1 X117.908 Y100.791 E0.00091
G1 X118.584 Y101.407 F10800.000
G1 F1200
G1 X121.078 Y103.681 E0.08162
G1 X120.586 Y103.607 E0.01204
G1 X120.586 Y103.409 E0.00478
G1 X118.626 Y101.450 E0.06702
G1 F8640
G1 X121.060 Y103.665 E-0.76000
G1 E-0.04000 F2100.00000
G1 Z0.750 F10800.000
G1 X121.827 Y104.333
G1 Z0.150
G1 E0.80000 F2100.00000
G1 F1200
G1 X121.908 Y104.259 E0.00263
G1 X121.865 Y104.380 E0.00309
G1 F8640
G1 X121.908 Y104.259 E-0.02947
G1 X121.865 Y104.380 E-0.02947
G1 E-0.74105 F2100.00000
G1 Z0.750 F10800.000
G1 X121.864 Y105.563
G1 Z0.150
G1 E0.80000 F2100.00000
G1 F1200
G1 X121.908 Y105.741 E0.00443
G1 X121.812 Y105.653 E0.00315
G1 X121.834 Y105.615 E0.00106
G1 F8640
G1 X121.908 Y105.741 E-0.03376
G1 X121.812 Y105.653 E-0.03009
G1 X121.834 Y105.615 E-0.01017
G1 E-0.72597 F2100.00000
G1 Z0.750 F10800.000
G1 X121.094 Y106.304
G1 Z0.150
G1 E0.80000 F2100.00000
G1 F1200
G1 X118.780 Y108.413 E0.07573
G1 X120.586 Y106.608 E0.06174
G1 X120.586 Y106.384 E0.00542
G1 X120.704 Y106.393 E0.00288
G1 X121.036 Y106.317 E0.00822
G1 F8640
G1 X118.780 Y108.413 E-0.71101
G1 X118.930 Y108.263 E-0.04899
G1 E-0.04000 F2100.00000
G1 Z0.750 F10800.000
G1 X117.930 Y109.189
G1 Z0.150
G1 E0.80000 F2100.00000
G1 F1200
G1 X117.898 Y109.212 E0.00096
G1 F8640
G1 X117.898 Y109.212 E0.00000
G1 E-0.80000 F2100.00000
G1 Z0.750 F10800.000
G1 X124.552 Y108.151
G1 Z0.150
G1 E0.80000 F2100.00000
G1 F1200
G1 X125.065 Y108.188 E0.01243
G1 X125.455 Y108.144 E0.00950
G1 X125.000 Y108.560 E0.01490
G1 X124.596 Y108.192 E0.01321
G1 F8640
G1 X125.065 Y108.188 E-0.10817
G1 X125.455 Y108.144 E-0.09074
G1 X125.000 Y108.560 E-0.14229
G1 X124.596 Y108.192 E-0.12611
G1 E-0.33268 F2100.00000
G1 Z0.750 F10800.000
G1 X128.102 Y105.731
G1 Z0.150
G1 E0.80000 F2100.00000
G1 F1200
G1 X128.126 Y105.599 E0.00325
G1 X128.173 Y105.667 E0.00200
G1 X128.147 Y105.691 E0.00085
G1 X128.922 Y106.319 F10800.000
G1 F1200
G1 X129.414 Y106.393 E0.01204
G1 X129.414 Y106.608 E0.00520
G1 X131.220 Y108.413 E0.06174
G1 X128.967 Y106.359 E0.07374
G1 F8640
G1 X129.414 Y106.393 E-0.10370
G1 X129.414 Y106.608 E-0.04964
G1 X131.220 Y108.413 E-0.58949
G1 X131.165 Y108.363 E-0.01717
G1 E-0.04000 F2100.00000
G1 Z0.750 F10800.000
G1 X128.131 Y104.447
G1 Z0.150
G1 E0.80000 F2100.00000
G1 F1200
G1 X128.102 Y104.269 E0.00437
G1 X128.188 Y104.347 E0.00282
G1 X128.161 Y104.395 E0.00134
G1 X128.878 Y103.722 F10800.000
G1 F1200
G1 X131.416 Y101.407 E0.08308
G1 X129.414 Y103.409 E0.06847
G1 X129.414 Y103.611 E0.00488
G1 X129.295 Y103.593 E0.00293
G1 X128.935 Y103.704 E0.00910
G1 F8640
G1 X131.351 Y101.468 E-0.76000
G1 E-0.04000 F2100.00000
G1 Z0.750 F10800.000
G1 X132.047 Y100.832
G1 Z0.150
G1 E0.80000 F2100.00000
G1 F1200
G1 X132.107 Y100.777 E0.00196
G1 X132.107 Y100.832 E0.00132
G1 F8640
G1 X132.107 Y100.777 E-0.01260
G1 X132.107 Y100.832 E-0.01260
G1 E-0.77480 F2100.00000
G1 Z0.750 F10800.000
G1 X125.455 Y101.856
G1 Z0.150
G1 E0.80000 F2100.00000
G1 F1200
G1 X125.063 Y101.812 E0.00955
G1 X124.552 Y101.849 E0.01239
G1 X125.000 Y101.440 E0.01466
G1 X125.411 Y101.815 E0.01345
G1 F8640
G1 X125.063 Y101.812 E-0.08038
G1 X124.552 Y101.849 E-0.11828
G1 X125.000 Y101.440 E-0.13997
G1 X125.411 Y101.815 E-0.12846
G1 E-0.33291 F2100.00000
G1 Z0.750 F10800.000
G1 X132.067 Y109.186
G1 Z0.150
G1 E0.80000 F2100.00000
G1 F1200
G1 X132.112 Y109.186 E0.00109
G1 X132.108 Y109.218 E0.00079
G1 X132.152 Y108.798 F10800.000
G1 F1200
G1 X132.585 Y108.798 E0.01047
G1 X132.529 Y108.952 E0.00396
G1 X132.495 Y109.243 E0.00709
G1 X132.529 Y109.534 E0.00709
G1 X132.592 Y109.705 E0.00441
G1 X117.417 Y109.705 E0.36701
G1 X117.510 Y109.243 E0.01140
G1 X117.421 Y108.796 E0.01101
G1 X117.845 Y108.800 E0.01026
G1 X120.198 Y106.448 E0.08046
G1 X120.198 Y105.903 E0.01318
G1 X120.354 Y105.978 E0.00418
G1 X120.675 Y106.002 E0.00780
G1 X120.989 Y105.930 E0.00780
G1 X121.343 Y105.689 E0.01034
G1 X121.557 Y105.319 E0.01034
G1 X121.608 Y104.977 E0.00836
G1 X121.513 Y104.560 E0.01034
G1 X121.246 Y104.226 E0.01034
G1 X120.947 Y104.053 E0.00835
G1 X120.524 Y103.990 E0.01034
G1 X120.198 Y104.090 E0.00826
G1 X120.198 Y103.570 E0.01259
G1 X117.848 Y101.220 E0.08038
G1 X117.408 Y101.220 E0.01063
