;FLAVOR:Marlin
;TIME:41384
;Filament used: 26.7883m
;Layer height: 0.2
;MINX:36.8
;MINY:36.8
;MINZ:0.3
;MAXX:163.2
;MAXY:163.2
;MAXZ:25.9
;Generated with Cura_SteamEngine 4.4.1
M140 S45
M105
M190 S45
M104 S200
M105
M109 S200
M82 ;absolute extrusion mode
G21 ;metric values
 G90 ;absolute positioning
 M82 ;set extruder to absolute mode
 M107 ;start with the fan off
 G28 X0 Y0 ;move X/Y to min endstops
 G28 Z0 ;move Z to min endstops
 G1 Z15.0 F120 ;move the platform down 15mm
 G92 E0 ;zero the extruded length
 G1 F200 E6 ;extrude 6 mm of feed stock
 G92 E0 ;zero the extruded length again
 G1 F120 
 ;Put printing message on LCD screen
 M117 Printing...
G92 E0
G92 E0
G1 F1500 E-6.5
;LAYER_COUNT:129
;LAYER:0
M107
G0 F3600 X37.789 Y37.704 Z0.3
;TYPE:SKIRT
G1 F1500 E0
G1 F900 X38.18 Y37.383 E0.02524
G1 X38.617 Y37.128 E0.05048
G1 X39.088 Y36.944 E0.07571
G1 X39.582 Y36.838 E0.10092
G1 X39.919 Y36.81 E0.11779
G1 X40.24 Y36.801 E0.13381
G1 X40.33 Y36.8 E0.1383
G1 X159.339 Y36.8 E6.07568
G1 X160.037 Y36.81 E6.11051
G1 X160.54 Y36.857 E6.13571
G1 X161.03 Y36.983 E6.16095
G1 X161.494 Y37.185 E6.1862
G1 X161.92 Y37.457 E6.21142
G1 X162.298 Y37.792 E6.23662
G1 X162.618 Y38.183 E6.26182
G1 X162.873 Y38.62 E6.28707
G1 X163.056 Y39.091 E6.31228
G1 X163.163 Y39.585 E6.33749
G1 X163.19 Y39.92 E6.35426
G1 X163.199 Y40.24 E6.37023
G1 X163.2 Y40.33 E6.37472
G1 X163.2 Y159.304 E12.31036
G1 X163.191 Y160.031 E12.34663
G1 X163.145 Y160.534 E12.37183
G1 X163.02 Y161.024 E12.39706
G1 X162.819 Y161.488 E12.42229
G1 X162.548 Y161.915 E12.44752
G1 X162.213 Y162.294 E12.47276
G1 X161.823 Y162.615 E12.49796
G1 X161.387 Y162.871 E12.52318
G1 X160.916 Y163.054 E12.54839
G1 X160.422 Y163.162 E12.57362
G1 X160.081 Y163.19 E12.59069
G1 X159.76 Y163.199 E12.60671
G1 X159.67 Y163.2 E12.6112
G1 X40.666 Y163.2 E18.54833
G1 X39.968 Y163.191 E18.58316
G1 X39.464 Y163.144 E18.60841
G1 X38.974 Y163.019 E18.63364
G1 X38.51 Y162.818 E18.65887
G1 X38.084 Y162.547 E18.68406
G1 X37.705 Y162.212 E18.70929
G1 X37.384 Y161.821 E18.73453
G1 X37.129 Y161.385 E18.75973
G1 X36.945 Y160.914 E18.78496
G1 X36.838 Y160.42 E18.81018
G1 X36.81 Y160.077 E18.82735
G1 X36.801 Y159.744 E18.84397
G1 X36.8 Y159.658 E18.84826
G1 X36.8 Y40.631 E24.78654
G1 X36.809 Y39.966 E24.81972
G1 X36.856 Y39.462 E24.84497
G1 X36.982 Y38.973 E24.87017
G1 X37.183 Y38.509 E24.89539
G1 X37.454 Y38.082 E24.92062
G1 X37.789 Y37.704 E24.94582
G1 F1500 E18.44582
;MESH:ConsoleBase.stl
G0 F3600 X40.614 Y39.335
G0 X40.614 Y40.614
G0 X40.67 Y159.33
G0 X40.6 Y159.4
;TYPE:WALL-INNER
G1 F1500 E24.94582
G1 F900 X40.6 Y40.6 E30.87278
G1 X159.4 Y40.6 E36.79974
G1 X159.4 Y159.4 E42.72669
G1 X40.6 Y159.4 E48.65365
G0 F3600 X40.2 Y159.8
;TYPE:WALL-OUTER
G1 F900 X40.2 Y40.2 E54.62052
G1 X159.8 Y40.2 E60.58738
G1 X159.8 Y159.8 E66.55425
G1 X40.2 Y159.8 E72.52112
G0 F3600 X40.2 Y159.6
G0 X40.99 Y159.01
;TYPE:SKIN
G1 F900 X40.99 Y40.99 E78.40916
G1 X159.01 Y40.99 E84.2972
G1 X159.01 Y159.01 E90.18525
G1 X40.99 Y159.01 E96.07329
G0 F3600 X41.732 Y158.829
G1 F900 X41.169 Y158.266 E96.11301
G0 F3600 X41.169 Y157.701
G1 F900 X42.298 Y158.829 E96.19263
G0 F3600 X42.864 Y158.829
G1 F900 X41.169 Y157.135 E96.31219
G0 F3600 X41.169 Y156.569
G1 F900 X43.429 Y158.829 E96.47164
G0 F3600 X43.995 Y158.829
G1 F900 X41.169 Y156.004 E96.671
G0 F3600 X41.169 Y155.438
G1 F900 X44.561 Y158.829 E96.91029
G0 F3600 X45.126 Y158.829
G1 F900 X41.169 Y154.872 E97.18947
G0 F3600 X41.169 Y154.306
G1 F900 X45.692 Y158.829 E97.5086
G0 F3600 X46.258 Y158.829
G1 F900 X41.169 Y153.741 E97.86762
G0 F3600 X41.169 Y153.175
G1 F900 X46.823 Y158.829 E98.26654
G0 F3600 X47.389 Y158.829
G1 F900 X41.169 Y152.609 E98.70539
G0 F3600 X41.169 Y152.044
G1 F900 X47.955 Y158.829 E99.18415
G0 F3600 X48.52 Y158.829
G1 F900 X41.169 Y151.478 E99.7028
G0 F3600 X41.169 Y150.912
G1 F900 X49.086 Y158.829 E100.26139
G0 F3600 X49.652 Y158.829
G1 F900 X41.169 Y150.347 E100.85987
G0 F3600 X41.169 Y149.781
G1 F900 X50.218 Y158.829 E101.49829
G0 F3600 X50.783 Y158.829
G1 F900 X41.169 Y149.215 E102.17661
G0 F3600 X41.169 Y148.65
G1 F900 X51.349 Y158.829 E102.89483
G0 F3600 X51.915 Y158.829
G1 F900 X41.169 Y148.084 E103.65298
G0 F3600 X41.169 Y147.518
G1 F900 X52.48 Y158.829 E104.45104
G0 F3600 X53.046 Y158.829
G1 F900 X41.169 Y146.953 E105.28899
G0 F3600 X41.169 Y146.387
G1 F900 X53.612 Y158.829 E106.16687
G0 F3600 X54.177 Y158.829
G1 F900 X41.169 Y145.821 E107.08466
G0 F3600 X41.169 Y145.255
G1 F900 X54.743 Y158.829 E108.04238
G0 F3600 X55.309 Y158.829
G1 F900 X41.169 Y144.69 E109.03999
G0 F3600 X41.169 Y144.124
G1 F900 X55.874 Y158.829 E110.07751
G0 F3600 X56.44 Y158.829
G1 F900 X41.169 Y143.558 E111.15496
G0 F3600 X41.169 Y142.993
G1 F900 X57.006 Y158.829 E112.27231
G0 F3600 X57.571 Y158.829
G1 F900 X41.169 Y142.427 E113.42956
G0 F3600 X41.169 Y141.861
G1 F900 X58.137 Y158.829 E114.62675
G0 F3600 X58.703 Y158.829
G1 F900 X41.169 Y141.296 E115.86383
G0 F3600 X41.169 Y140.73
G1 F900 X59.268 Y158.829 E117.14081
G0 F3600 X59.834 Y158.829
G1 F900 X41.169 Y140.164 E118.45773
G0 F3600 X41.169 Y139.599
G1 F900 X60.4 Y158.829 E119.81454
G0 F3600 X60.966 Y158.829
G1 F900 X41.169 Y139.033 E121.21129
G0 F3600 X41.169 Y138.467
G1 F900 X61.531 Y158.829 E122.64794
G0 F3600 X62.097 Y158.829
G1 F900 X41.169 Y137.902 E124.12449
G0 F3600 X41.169 Y137.336
G1 F900 X62.663 Y158.829 E125.64097
G0 F3600 X63.228 Y158.829
G1 F900 X41.169 Y136.77 E127.19736
G0 F3600 X41.169 Y136.205
G1 F900 X63.794 Y158.829 E128.79364
G0 F3600 X64.36 Y158.829
G1 F900 X41.169 Y135.639 E130.42985
G0 F3600 X41.169 Y135.073
G1 F900 X64.925 Y158.829 E132.10597
G0 F3600 X65.491 Y158.829
G1 F900 X41.169 Y134.507 E133.82201
G0 F3600 X41.169 Y133.942
G1 F900 X66.057 Y158.829 E135.57796
G0 F3600 X66.622 Y158.829
G1 F900 X41.169 Y133.376 E137.37381
G0 F3600 X41.169 Y132.81
G1 F900 X67.188 Y158.829 E139.20959
G0 F3600 X67.754 Y158.829
G1 F900 X41.169 Y132.245 E141.08527
G0 F3600 X41.169 Y131.679
G1 F900 X68.319 Y158.829 E143.00085
G0 F3600 X68.885 Y158.829
G1 F900 X41.169 Y131.113 E144.95636
G0 F3600 X41.169 Y130.548
G1 F900 X69.451 Y158.829 E146.95177
G0 F3600 X70.017 Y158.829
G1 F900 X41.169 Y129.982 E148.98712
G0 F3600 X41.169 Y129.416
G1 F900 X70.582 Y158.829 E151.06237
G0 F3600 X71.148 Y158.829
G1 F900 X41.169 Y128.851 E153.17751
G0 F3600 X41.169 Y128.285
G1 F900 X71.714 Y158.829 E155.33259
G0 F3600 X72.279 Y158.829
G1 F900 X41.169 Y127.719 E157.52757
G0 F3600 X41.169 Y127.154
G1 F900 X72.845 Y158.829 E159.76245
G0 F3600 X73.411 Y158.829
G1 F900 X41.169 Y126.588 E162.03726
G0 F3600 X41.169 Y126.022
G1 F900 X73.976 Y158.829 E164.35197
G0 F3600 X74.542 Y158.829
G1 F900 X41.169 Y125.457 E166.70658
G0 F3600 X41.169 Y124.891
G1 F900 X75.108 Y158.829 E169.10113
G0 F3600 X75.673 Y158.829
G1 F900 X41.169 Y124.325 E171.53557
G0 F3600 X41.169 Y123.759
G1 F900 X76.239 Y158.829 E174.00995
G0 F3600 X76.805 Y158.829
G1 F900 X41.169 Y123.194 E176.52422
G0 F3600 X41.169 Y122.628
G1 F900 X77.37 Y158.829 E179.0784
G0 F3600 X77.936 Y158.829
G1 F900 X41.169 Y122.062 E181.67251
G0 F3600 X41.169 Y121.497
G1 F900 X78.502 Y158.829 E184.30652
G0 F3600 X79.067 Y158.829
G1 F900 X41.169 Y120.931 E186.98043
G0 F3600 X41.169 Y120.365
G1 F900 X79.633 Y158.829 E189.69427
G0 F3600 X80.199 Y158.829
G1 F900 X41.169 Y119.8 E192.44801
G0 F3600 X41.169 Y119.234
G1 F900 X80.765 Y158.829 E195.24169
G0 F3600 X81.33 Y158.829
G1 F900 X41.169 Y118.668 E198.07527
G0 F3600 X41.169 Y118.103
G1 F900 X81.896 Y158.829 E200.94874
G0 F3600 X82.462 Y158.829
G1 F900 X41.169 Y117.537 E203.86215
G0 F3600 X41.169 Y116.971
G1 F900 X83.027 Y158.829 E206.81546
G0 F3600 X83.593 Y158.829
G1 F900 X41.169 Y116.406 E209.80866
G0 F3600 X41.169 Y115.84
G1 F900 X84.159 Y158.829 E212.84181
G0 F3600 X84.724 Y158.829
G1 F900 X41.169 Y115.274 E215.91485
G0 F3600 X41.169 Y114.708
G1 F900 X85.29 Y158.829 E219.02782
G0 F3600 X85.856 Y158.829
G1 F900 X41.169 Y114.143 E222.18069
G0 F3600 X41.169 Y113.577
G1 F900 X86.421 Y158.829 E225.37347
G0 F3600 X86.987 Y158.829
G1 F900 X41.169 Y113.011 E228.60618
G0 F3600 X41.169 Y112.446
G1 F900 X87.553 Y158.829 E231.87878
G0 F3600 X88.118 Y158.829
G1 F900 X41.169 Y111.88 E235.19129
G0 F3600 X41.169 Y111.314
G1 F900 X88.684 Y158.829 E238.54373
G0 F3600 X89.25 Y158.829
G1 F900 X41.169 Y110.749 E241.93607
G0 F3600 X41.169 Y110.183
G1 F900 X89.815 Y158.829 E245.3683
G0 F3600 X90.381 Y158.829
G1 F900 X41.169 Y109.617 E248.84048
G0 F3600 X41.169 Y109.052
G1 F900 X90.947 Y158.829 E252.35255
G0 F3600 X91.513 Y158.829
G1 F900 X41.169 Y108.486 E255.90455
G0 F3600 X41.169 Y107.92
G1 F900 X92.078 Y158.829 E259.49646
G0 F3600 X92.644 Y158.829
G1 F900 X41.169 Y107.355 E263.12826
G0 F3600 X41.169 Y106.789
G1 F900 X93.21 Y158.829 E266.8
G0 F3600 X93.775 Y158.829
G1 F900 X41.169 Y106.223 E270.51164
G0 F3600 X41.169 Y105.658
G1 F900 X94.341 Y158.829 E274.26317
G0 F3600 X94.907 Y158.829
G1 F900 X41.169 Y105.092 E278.05465
G0 F3600 X41.169 Y104.526
G1 F900 X95.472 Y158.829 E281.88602
G0 F3600 X96.038 Y158.829
G1 F900 X41.169 Y103.96 E285.75732
G0 F3600 X41.169 Y103.395
G1 F900 X96.604 Y158.829 E289.66852
G0 F3600 X97.169 Y158.829
G1 F900 X41.169 Y102.829 E293.61963
G0 F3600 X41.169 Y102.263
G1 F900 X97.735 Y158.829 E297.61066
G0 F3600 X98.301 Y158.829
G1 F900 X41.169 Y101.698 E301.6416
G0 F3600 X41.169 Y101.132
G1 F900 X98.866 Y158.829 E305.71243
G0 F3600 X99.432 Y158.829
G1 F900 X41.169 Y100.566 E309.8232
G0 F3600 X41.169 Y100.001
G1 F900 X99.998 Y158.829 E313.97387
G0 F3600 X100.564 Y158.829
G1 F900 X41.169 Y99.435 E318.16447
G0 F3600 X41.169 Y98.869
G1 F900 X101.129 Y158.829 E322.39498
G0 F3600 X101.695 Y158.829
G1 F900 X41.169 Y98.304 E326.66538
G0 F3600 X41.169 Y97.738
G1 F900 X102.261 Y158.829 E330.97571
G0 F3600 X102.826 Y158.829
G1 F900 X41.169 Y97.172 E335.32595
G0 F3600 X41.169 Y96.607
G1 F900 X103.392 Y158.829 E339.71608
G0 F3600 X103.958 Y158.829
G1 F900 X41.169 Y96.041 E344.14615
G0 F3600 X41.169 Y95.475
G1 F900 X104.523 Y158.829 E348.61611
G0 F3600 X105.089 Y158.829
G1 F900 X41.169 Y94.909 E353.12602
G0 F3600 X41.169 Y94.344
G1 F900 X105.655 Y158.829 E357.67582
G0 F3600 X106.22 Y158.829
G1 F900 X41.169 Y93.778 E362.26552
G0 F3600 X41.169 Y93.212
G1 F900 X106.786 Y158.829 E366.89515
G0 F3600 X107.352 Y158.829
G1 F900 X41.169 Y92.647 E371.56468
G0 F3600 X41.169 Y92.081
G1 F900 X107.917 Y158.829 E376.27411
G0 F3600 X108.483 Y158.829
G1 F900 X41.169 Y91.515 E381.02348
G0 F3600 X41.169 Y90.95
G1 F900 X109.049 Y158.829 E385.81275
G0 F3600 X109.614 Y158.829
G1 F900 X41.169 Y90.384 E390.64191
G0 F3600 X41.169 Y89.818
G1 F900 X110.18 Y158.829 E395.51101
G0 F3600 X110.746 Y158.829
G1 F900 X41.169 Y89.253 E400.42001
G0 F3600 X41.169 Y88.687
G1 F900 X111.312 Y158.829 E405.36894
G0 F3600 X111.877 Y158.829
G1 F900 X41.169 Y88.121 E410.35777
G0 F3600 X41.169 Y87.556
G1 F900 X112.443 Y158.829 E415.3865
G0 F3600 X113.009 Y158.829
G1 F900 X41.169 Y86.99 E420.45517
G0 F3600 X41.169 Y86.424
G1 F900 X113.574 Y158.829 E425.56373
G0 F3600 X114.14 Y158.829
G1 F900 X41.169 Y85.859 E430.71219
G0 F3600 X41.169 Y85.293
G1 F900 X114.706 Y158.829 E435.90059
G0 F3600 X115.271 Y158.829
G1 F900 X41.169 Y84.727 E441.12889
G0 F3600 X41.169 Y84.161
G1 F900 X115.837 Y158.829 E446.39712
G0 F3600 X116.403 Y158.829
G1 F900 X41.169 Y83.596 E451.70525
G0 F3600 X41.169 Y83.03
G1 F900 X116.968 Y158.829 E457.05328
G0 F3600 X117.534 Y158.829
G1 F900 X41.169 Y82.464 E462.44124
G0 F3600 X41.169 Y81.899
G1 F900 X118.1 Y158.829 E467.8691
G0 F3600 X118.665 Y158.829
G1 F900 X41.169 Y81.333 E473.33686
G0 F3600 X41.169 Y80.767
G1 F900 X119.231 Y158.829 E478.84456
G0 F3600 X119.797 Y158.829
G1 F900 X41.169 Y80.202 E484.39215
G0 F3600 X41.169 Y79.636
G1 F900 X120.363 Y158.829 E489.97968
G0 F3600 X120.928 Y158.829
G1 F900 X41.169 Y79.07 E495.60711
G0 F3600 X41.169 Y78.505
G1 F900 X121.494 Y158.829 E501.27444
G0 F3600 X122.06 Y158.829
G1 F900 X41.169 Y77.939 E506.9817
G0 F3600 X41.169 Y77.373
G1 F900 X122.625 Y158.829 E512.72886
G0 F3600 X123.191 Y158.829
G1 F900 X41.169 Y76.808 E518.51592
G0 F3600 X41.169 Y76.242
G1 F900 X123.757 Y158.829 E524.34291
G0 F3600 X124.322 Y158.829
G1 F900 X41.169 Y75.676 E530.20981
G0 F3600 X41.169 Y75.111
G1 F900 X124.888 Y158.829 E536.1166
G0 F3600 X125.454 Y158.829
G1 F900 X41.169 Y74.545 E542.06333
G0 F3600 X41.169 Y73.979
G1 F900 X126.019 Y158.829 E548.04995
G0 F3600 X126.585 Y158.829
G1 F900 X41.169 Y73.413 E554.07651
G0 F3600 X41.169 Y72.848
G1 F900 X127.151 Y158.829 E560.14297
G0 F3600 X127.716 Y158.829
G1 F900 X41.169 Y72.282 E566.24933
G0 F3600 X41.169 Y71.716
G1 F900 X128.282 Y158.829 E572.39562
G0 F3600 X128.848 Y158.829
G1 F900 X41.169 Y71.151 E578.58181
G0 F3600 X41.169 Y70.585
G1 F900 X129.413 Y158.829 E584.8079
G0 F3600 X129.979 Y158.829
G1 F900 X41.169 Y70.019 E591.07393
G0 F3600 X41.169 Y69.454
G1 F900 X130.545 Y158.829 E597.37985
G0 F3600 X131.111 Y158.829
G1 F900 X41.169 Y68.888 E603.72571
G0 F3600 X41.169 Y68.322
G1 F900 X131.676 Y158.829 E610.11147
G0 F3600 X132.242 Y158.829
G1 F900 X41.169 Y67.757 E616.53713
G0 F3600 X41.169 Y67.191
G1 F900 X132.808 Y158.829 E623.00272
G0 F3600 X133.373 Y158.829
G1 F900 X41.169 Y66.625 E629.50821
G0 F3600 X41.169 Y66.06
G1 F900 X133.939 Y158.829 E636.0536
G0 F3600 X134.505 Y158.829
G1 F900 X41.169 Y65.494 E642.63892
G0 F3600 X41.169 Y64.928
G1 F900 X135.07 Y158.829 E649.26414
G0 F3600 X135.636 Y158.829
G1 F900 X41.169 Y64.362 E655.9293
G0 F3600 X41.169 Y63.797
G1 F900 X136.202 Y158.829 E662.63436
G0 F3600 X136.767 Y158.829
G1 F900 X41.169 Y63.231 E669.37931
G0 F3600 X41.169 Y62.665
G1 F900 X137.333 Y158.829 E676.1642
G0 F3600 X137.899 Y158.829
G1 F900 X41.169 Y62.1 E682.98899
G0 F3600 X41.169 Y61.534
G1 F900 X138.464 Y158.829 E689.85368
G0 F3600 X139.03 Y158.829
G1 F900 X41.169 Y60.968 E696.7583
G0 F3600 X41.169 Y60.403
G1 F900 X139.596 Y158.829 E703.70282
G0 F3600 X140.161 Y158.829
G1 F900 X41.169 Y59.837 E710.68724
G0 F3600 X41.169 Y59.271
G1 F900 X140.727 Y158.829 E717.7116
G0 F3600 X141.293 Y158.829
G1 F900 X41.169 Y58.706 E724.77585
G0 F3600 X41.169 Y58.14
G1 F900 X141.859 Y158.829 E731.88004
G0 F3600 X142.424 Y158.829
G1 F900 X41.169 Y57.574 E739.02413
G0 F3600 X41.169 Y57.009
G1 F900 X142.99 Y158.829 E746.20811
G0 F3600 X143.556 Y158.829
G1 F900 X41.169 Y56.443 E753.43203
G0 F3600 X41.169 Y55.877
G1 F900 X144.121 Y158.829 E760.69585
G0 F3600 X144.687 Y158.829
G1 F900 X41.169 Y55.312 E767.99957
G0 F3600 X41.169 Y54.746
G1 F900 X145.253 Y158.829 E775.34322
G0 F3600 X145.818 Y158.829
G1 F900 X41.169 Y54.18 E782.72678
G0 F3600 X41.169 Y53.614
G1 F900 X146.384 Y158.829 E790.15026
G0 F3600 X146.95 Y158.829
G1 F900 X41.169 Y53.049 E797.61365
G0 F3600 X41.169 Y52.483
G1 F900 X147.515 Y158.829 E805.11693
G0 F3600 X148.081 Y158.829
G1 F900 X41.169 Y51.917 E812.66015
G0 F3600 X41.169 Y51.352
G1 F900 X148.647 Y158.829 E820.24327
G0 F3600 X149.212 Y158.829
G1 F900 X41.169 Y50.786 E827.86629
G0 F3600 X41.169 Y50.22
G1 F900 X149.778 Y158.829 E835.52924
G0 F3600 X150.344 Y158.829
G1 F900 X41.169 Y49.655 E843.23209
G0 F3600 X41.169 Y49.089
G1 F900 X150.91 Y158.829 E850.97487
G0 F3600 X151.475 Y158.829
G1 F900 X41.169 Y48.523 E858.75756
G0 F3600 X41.169 Y47.958
G1 F900 X152.041 Y158.829 E866.58014
G0 F3600 X152.607 Y158.829
G1 F900 X41.169 Y47.392 E874.44266
G0 F3600 X41.169 Y46.826
G1 F900 X153.172 Y158.829 E882.34508
G0 F3600 X153.738 Y158.829
G1 F900 X41.169 Y46.261 E890.28739
G0 F3600 X41.169 Y45.695
G1 F900 X154.304 Y158.829 E898.26964
G0 F3600 X154.869 Y158.829
G1 F900 X41.169 Y45.129 E906.29179
G0 F3600 X41.169 Y44.563
G1 F900 X155.435 Y158.829 E914.35387
G0 F3600 X156.001 Y158.829
G1 F900 X41.169 Y43.998 E922.45586
G0 F3600 X41.169 Y43.432
G1 F900 X156.566 Y158.829 E930.59774
G0 F3600 X157.132 Y158.829
G1 F900 X41.169 Y42.866 E938.77955
G0 F3600 X41.169 Y42.301
G1 F900 X157.698 Y158.829 E947.00127
G0 F3600 X158.263 Y158.829
G1 F900 X41.169 Y41.735 E955.26288
G0 F3600 X41.169 Y41.169
G1 F900 X158.829 Y158.829 E963.56443
G0 F3600 X158.829 Y158.263
G1 F900 X41.735 Y41.169 E971.82605
G0 F3600 X42.301 Y41.169
G1 F900 X158.829 Y157.698 E980.04776
G0 F3600 X158.829 Y157.132
G1 F900 X42.866 Y41.169 E988.22958
