;FLAVOR:Marlin
;TIME:25409
;Filament used: 15.1602m
;Layer height: 0.2
;MINX:36.8
;MINY:36.8
;MINZ:0.3
;MAXX:163.2
;MAXY:163.2
;MAXZ:21.9
;Generated with Cura_SteamEngine 4.5.0
M140 S45
M105
M190 S45
M104 S200
M105
M109 S200
M82 ;absolute extrusion mode
G21 ;metric values
 G90 ;absolute positioning
 M82 ;set extruder to absolute mode
 M107 ;start with the fan off
 G28 X0 Y0 ;move X/Y to min endstops
 G28 Z0 ;move Z to min endstops
 G1 Z15.0 F120 ;move the platform down 15mm
 G92 E0 ;zero the extruded length
 G1 F200 E6 ;extrude 6 mm of feed stock
 G92 E0 ;zero the extruded length again
 G1 F120 
 ;Put printing message on LCD screen
 M117 Printing...
G92 E0
G92 E0
G1 F1500 E-6.5
;LAYER_COUNT:109
;LAYER:0
M107
G0 F3600 X37.789 Y37.704 Z0.3
;TYPE:SKIRT
G1 F1500 E0
G1 F900 X38.18 Y37.383 E0.02524
G1 X38.617 Y37.128 E0.05048
G1 X39.088 Y36.944 E0.07571
G1 X39.582 Y36.838 E0.10092
G1 X40.24 Y36.801 E0.1338
G1 X159.339 Y36.8 E6.07567
G1 X160.037 Y36.81 E6.1105
G1 X160.54 Y36.857 E6.1357
G1 X161.03 Y36.983 E6.16094
G1 X161.494 Y37.185 E6.18619
G1 X161.92 Y37.457 E6.2114
G1 X162.298 Y37.792 E6.2366
G1 X162.618 Y38.183 E6.26181
G1 X162.873 Y38.62 E6.28705
G1 X163.056 Y39.091 E6.31226
G1 X163.163 Y39.585 E6.33748
G1 X163.199 Y40.24 E6.37021
G1 X163.2 Y159.304 E12.31033
G1 X163.191 Y160.031 E12.34661
G1 X163.145 Y160.534 E12.37181
G1 X163.02 Y161.024 E12.39704
G1 X162.819 Y161.488 E12.42226
G1 X162.548 Y161.915 E12.44749
G1 X162.213 Y162.294 E12.47273
G1 X161.823 Y162.615 E12.49793
G1 X161.387 Y162.871 E12.52316
G1 X160.916 Y163.054 E12.54837
G1 X160.422 Y163.162 E12.57359
G1 X159.76 Y163.199 E12.60667
G1 X40.666 Y163.2 E18.5483
G1 X39.968 Y163.191 E18.58312
G1 X39.464 Y163.144 E18.60838
G1 X38.974 Y163.019 E18.6336
G1 X38.51 Y162.818 E18.65883
G1 X38.084 Y162.547 E18.68402
G1 X37.705 Y162.212 E18.70926
G1 X37.384 Y161.821 E18.7345
G1 X37.129 Y161.385 E18.7597
G1 X36.945 Y160.914 E18.78492
G1 X36.838 Y160.42 E18.81014
G1 X36.801 Y159.744 E18.84392
G1 X36.8 Y40.631 E24.78649
G1 X36.809 Y39.966 E24.81967
G1 X36.856 Y39.462 E24.84492
G1 X36.982 Y38.973 E24.87012
G1 X37.183 Y38.509 E24.89534
G1 X37.454 Y38.082 E24.92058
G1 X37.789 Y37.704 E24.94577
G0 F3600 X41.9 Y41.9
;TYPE:SUPPORT
G1 F900 X70.1 Y41.9 E26.35268
G1 X70.1 Y44.1 E26.46244
G1 X44.744 Y44.1 E27.72745
G1 X44.1 Y44.744 E27.77289
G1 X44.1 Y70.1 E29.03791
G1 X41.9 Y70.1 E29.14766
G1 X41.9 Y41.9 E30.55457
G0 F3600 X42.672 Y42.06
G1 F900 X42.672 Y69.94 E31.94551
G0 F3600 X42.059 Y69.342
G1 F900 X43.939 Y69.342 E32.0393
G0 F3600 X43.939 Y66.675
G1 F900 X42.059 Y66.675 E32.13309
G0 F3600 X42.059 Y64.008
G1 F900 X43.939 Y64.008 E32.22689
G0 F3600 X43.939 Y61.341
G1 F900 X42.059 Y61.341 E32.32068
G0 F3600 X42.06 Y58.674
G1 F900 X43.94 Y58.674 E32.41447
G0 F3600 X43.94 Y56.007
G1 F900 X42.06 Y56.007 E32.50827
G0 F3600 X42.06 Y53.34
G1 F900 X43.94 Y53.34 E32.60206
G0 F3600 X43.94 Y50.673
G1 F900 X42.06 Y50.673 E32.69586
G0 F3600 X42.06 Y48.006
G1 F900 X43.94 Y48.006 E32.78965
G0 F3600 X43.94 Y45.339
G1 F900 X42.06 Y45.339 E32.88344
G0 F3600 X42.06 Y42.672
G1 F900 X69.94 Y42.672 E34.27438
G0 F3600 X69.342 Y42.06
G1 F900 X69.342 Y43.94 E34.36817
G0 F3600 X66.675 Y43.94
G1 F900 X66.675 Y42.06 E34.46197
G0 F3600 X64.008 Y42.06
G1 F900 X64.008 Y43.94 E34.55576
G0 F3600 X61.341 Y43.94
G1 F900 X61.341 Y42.06 E34.64956
G0 F3600 X58.674 Y42.06
G1 F900 X58.674 Y43.94 E34.74335
G0 F3600 X56.007 Y43.94
G1 F900 X56.007 Y42.06 E34.83714
G0 F3600 X53.34 Y42.06
G1 F900 X53.34 Y43.94 E34.93094
G0 F3600 X50.673 Y43.94
G1 F900 X50.673 Y42.06 E35.02473
G0 F3600 X48.006 Y42.06
G1 F900 X48.006 Y43.94 E35.11852
G0 F3600 X45.339 Y43.94
G1 F900 X45.339 Y42.06 E35.21232
G0 F3600 X44.1 Y131.9
G1 F900 X44.1 Y155.256 E36.37755
G1 X44.744 Y155.9 E36.42299
G1 X70.1 Y155.9 E37.68801
G1 X70.1 Y158.1 E37.79776
G1 X41.9 Y158.1 E39.20467
G1 X41.9 Y131.9 E40.51179
G1 X44.1 Y131.9 E40.62155
G0 F3600 X42.672 Y132.06
G1 F900 X42.672 Y157.94 E41.91271
G0 F3600 X42.059 Y157.353
G1 F900 X69.939 Y157.353 E43.30365
G0 F3600 X69.342 Y157.94
G1 F900 X69.342 Y156.06 E43.39744
G0 F3600 X66.675 Y156.06
G1 F900 X66.675 Y157.94 E43.49123
G0 F3600 X64.008 Y157.94
G1 F900 X64.008 Y156.06 E43.58503
G0 F3600 X61.341 Y156.06
G1 F900 X61.341 Y157.94 E43.67882
G0 F3600 X58.674 Y157.94
G1 F900 X58.674 Y156.06 E43.77262
G0 F3600 X56.007 Y156.06
G1 F900 X56.007 Y157.94 E43.86641
G0 F3600 X53.34 Y157.94
G1 F900 X53.34 Y156.06 E43.9602
G0 F3600 X50.673 Y156.06
G1 F900 X50.673 Y157.94 E44.054
G0 F3600 X48.006 Y157.94
G1 F900 X48.006 Y156.06 E44.14779
G0 F3600 X45.339 Y156.06
G1 F900 X45.339 Y157.94 E44.24158
G0 F3600 X43.939 Y154.686
G1 F900 X42.059 Y154.686 E44.33538
G0 F3600 X42.059 Y152.019
G1 F900 X43.939 Y152.019 E44.42917
G0 F3600 X43.939 Y149.352
G1 F900 X42.059 Y149.352 E44.52296
G0 F3600 X42.059 Y146.685
G1 F900 X43.939 Y146.685 E44.61676
G0 F3600 X43.939 Y144.018
G1 F900 X42.059 Y144.018 E44.71055
G0 F3600 X42.059 Y141.351
G1 F900 X43.939 Y141.351 E44.80434
G0 F3600 X43.939 Y138.684
G1 F900 X42.059 Y138.684 E44.89814
G0 F3600 X42.059 Y136.017
G1 F900 X43.939 Y136.017 E44.99193
G0 F3600 X43.939 Y133.35
G1 F900 X42.059 Y133.35 E45.08573
G1 F1500 E38.58573
G0 F3600 X46.585 Y134.485
G0 X46.653 Y153.347
G0 X64.347 Y153.347
G0 X64.413 Y138.96
G0 X68.585 Y140.007
G0 X68.653 Y145.347
G0 X73.157 Y145.339
G0 X73.653 Y150.347
G0 X109.929 Y150.384
G0 X131.9 Y155.9
G1 F1500 E45.08573
G1 F900 X155.256 Y155.9 E46.25096
G1 X155.9 Y155.256 E46.2964
G1 X155.9 Y131.9 E47.46163
G1 X158.1 Y131.9 E47.57139
G1 X158.1 Y158.1 E48.87852
G1 X131.9 Y158.1 E50.18564
G1 X131.9 Y155.9 E50.2954
G0 F3600 X133.35 Y156.06
G1 F900 X133.35 Y157.94 E50.38919
G0 F3600 X132.06 Y157.353
G1 F900 X157.94 Y157.353 E51.68035
G0 F3600 X157.353 Y157.94
G1 F900 X157.353 Y132.06 E52.97151
G0 F3600 X157.94 Y133.35
G1 F900 X156.06 Y133.35 E53.0653
G0 F3600 X156.06 Y136.017
G1 F900 X157.94 Y136.017 E53.1591
G0 F3600 X157.94 Y138.684
G1 F900 X156.06 Y138.684 E53.25289
G0 F3600 X156.06 Y141.351
G1 F900 X157.94 Y141.351 E53.34668
G0 F3600 X157.94 Y144.018
G1 F900 X156.06 Y144.018 E53.44048
G0 F3600 X156.06 Y146.685
G1 F900 X157.94 Y146.685 E53.53427
G0 F3600 X157.94 Y149.352
G1 F900 X156.06 Y149.352 E53.62806
G0 F3600 X156.06 Y152.019
G1 F900 X157.94 Y152.019 E53.72186
G0 F3600 X157.94 Y154.686
G1 F900 X156.06 Y154.686 E53.81565
G1 F1500 E47.31565
G0 F3600 X154.686 Y156.06
G1 F1500 E53.81565
G1 F900 X154.686 Y157.94 E53.90944
G0 F3600 X152.019 Y157.94
G1 F900 X152.019 Y156.06 E54.00324
G0 F3600 X149.352 Y156.06
G1 F900 X149.352 Y157.94 E54.09703
G0 F3600 X146.685 Y157.94
G1 F900 X146.685 Y156.06 E54.19082
G0 F3600 X144.018 Y156.06
G1 F900 X144.018 Y157.94 E54.28462
G0 F3600 X141.351 Y157.94
G1 F900 X141.351 Y156.06 E54.37841
G0 F3600 X138.684 Y156.06
G1 F900 X138.684 Y157.94 E54.47221
G0 F3600 X136.017 Y157.94
G1 F900 X136.017 Y156.06 E54.566
G1 F1500 E48.066
G0 F3600 X136.629 Y153.413
G0 X153.347 Y153.347
G0 X153.347 Y101.653
G0 X148.617 Y101.584
G0 X155.9 Y70.1
G1 F1500 E54.566
G1 F900 X155.9 Y44.744 E55.83102
G1 X155.256 Y44.1 E55.87645
G1 X131.9 Y44.1 E57.04169
G1 X131.9 Y41.9 E57.15145
G1 X158.1 Y41.9 E58.45857
G1 X158.1 Y70.1 E59.86547
G1 X155.9 Y70.1 E59.97523
G0 F3600 X156.06 Y69.342
G1 F900 X157.94 Y69.342 E60.06903
G0 F3600 X157.353 Y69.94
G1 F900 X157.353 Y42.06 E61.45996
G0 F3600 X157.94 Y42.672
G1 F900 X132.06 Y42.672 E62.75112
G0 F3600 X133.35 Y42.06
G1 F900 X133.35 Y43.94 E62.84492
G0 F3600 X136.017 Y43.94
G1 F900 X136.017 Y42.06 E62.93871
G0 F3600 X138.684 Y42.06
G1 F900 X138.684 Y43.94 E63.0325
G0 F3600 X141.351 Y43.94
G1 F900 X141.351 Y42.06 E63.1263
G0 F3600 X144.018 Y42.06
G1 F900 X144.018 Y43.94 E63.22009
G0 F3600 X146.685 Y43.94
G1 F900 X146.685 Y42.06 E63.31388
G0 F3600 X149.352 Y42.06
G1 F900 X149.352 Y43.94 E63.40768
G0 F3600 X152.019 Y43.94
G1 F900 X152.019 Y42.06 E63.50147
G0 F3600 X154.686 Y42.06
G1 F900 X154.686 Y43.94 E63.59527
G1 F1500 E57.09527
G0 F3600 X156.06 Y45.339
G1 F1500 E63.59527
G1 F900 X157.94 Y45.339 E63.68906
G0 F3600 X157.94 Y48.006
G1 F900 X156.06 Y48.006 E63.78285
G0 F3600 X156.06 Y50.673
G1 F900 X157.94 Y50.673 E63.87665
G0 F3600 X157.94 Y53.34
G1 F900 X156.06 Y53.34 E63.97044
G0 F3600 X156.06 Y56.007
G1 F900 X157.94 Y56.007 E64.06423
G0 F3600 X157.94 Y58.674
G1 F900 X156.06 Y58.674 E64.15803
G0 F3600 X156.06 Y61.341
G1 F900 X157.94 Y61.341 E64.25182
G0 F3600 X157.94 Y64.008
G1 F900 X156.06 Y64.008 E64.34561
G0 F3600 X156.06 Y66.675
G1 F900 X157.94 Y66.675 E64.43941
G1 F1500 E57.93941
;MESH:SamMid2.stl
G0 F3600 X157.94 Y70.335
G0 X157.94 Y71.4
G0 X154.6 Y100.4
;TYPE:WALL-INNER
G1 F1500 E64.43941
G1 F900 X109.4 Y100.4 E66.69444
G1 X109.4 Y119.6 E67.65234
G1 X134.4 Y119.6 E68.89959
G1 X134.4 Y154.4 E70.63577
G1 X130.4 Y154.4 E70.83533
G1 X130.4 Y159.4 E71.08478
G1 X71.6 Y159.4 E74.01833
G1 X71.6 Y154.4 E74.26778
G1 X65.6 Y154.4 E74.56712
G1 X65.6 Y119.6 E76.3033
G1 X90.6 Y119.6 E77.55055
G1 X90.6 Y100.4 E78.50844
G1 X45.4 Y100.4 E80.76348
G1 X45.4 Y130.4 E82.26019
G1 X40.6 Y130.4 E82.49966
G1 X40.6 Y71.6 E85.4332
G1 X45.6 Y71.6 E85.68266
G1 X45.6 Y61.6 E86.18156
G1 X154.4 Y61.6 E91.60961
G1 X154.4 Y71.6 E92.10851
G1 X159.4 Y71.6 E92.35796
G1 X159.4 Y130.4 E95.29151
G1 X154.6 Y130.4 E95.53098
G1 X154.6 Y100.4 E97.02769
G0 F3600 X109.572 Y100.572
G0 X109.561 Y113.828
G0 X83.536 Y121.587
G0 X72.572 Y121.572
G0 X67.4 Y126.4
G1 F900 X67.4 Y146.6 E98.03547
G1 X72.4 Y146.6 E98.28492
G1 X72.4 Y151.6 E98.53437
G1 X127.6 Y151.6 E101.28831
G1 X127.6 Y146.6 E101.53776
G1 X132.6 Y146.6 E101.78721
G1 X132.6 Y126.4 E102.795
G1 X127.6 Y126.4 E103.04445
G1 X127.6 Y121.4 E103.2939
G1 X72.4 Y121.4 E106.04784
G1 X72.4 Y126.4 E106.29729
G1 X67.4 Y126.4 E106.54674
G0 F3600 X65.428 Y119.428
G0 X90.428 Y119.428
G0 X90.428 Y100.572
G0 X50.4 Y96.6
G1 F900 X149.6 Y96.6 E111.49585
G1 X149.6 Y65.4 E113.05242
G1 X50.4 Y65.4 E118.00153
G1 X50.4 Y96.6 E119.5581
G0 F3600 X45.772 Y61.428
G0 X45.772 Y45.772
G0 X71.6 Y45.4
G1 F900 X71.6 Y40.6 E119.79758
G1 X130.4 Y40.6 E122.73112
G1 X130.4 Y45.4 E122.97059
G1 X71.6 Y45.4 E125.90414
G0 F3600 X45.772 Y45.772
G0 X45.7 Y61.2
G0 X45.8 Y61.2
;TYPE:WALL-OUTER
G1 F900 X154.2 Y61.2 E131.31224
G1 X154.2 Y45.8 E132.08054
G1 X45.8 Y45.8 E137.48864
G1 X45.8 Y61.2 E138.25695
G0 F3600 X46 Y61.2
G0 X45.7 Y61.2
G0 X45.428 Y71.428
G0 X40.772 Y71.428
G0 X40.8 Y71.2
G1 F900 X45.2 Y71.2 E138.47647
G1 X45.2 Y45.2 E139.77361
G1 X71.2 Y45.2 E141.07076
G1 X71.2 Y40.8 E141.29028
G1 X40.8 Y40.8 E142.80694
G1 X40.8 Y71.2 E144.3236
G0 F3600 X41 Y71.2
G0 X40.7 Y71.2
G0 X50.5 Y96.2
G0 X50.8 Y96.2
G1 F900 X149.2 Y96.2 E149.2328
G1 X149.2 Y65.8 E150.74946
G1 X50.8 Y65.8 E155.65865
G1 X50.8 Y96.2 E157.17532
G0 F3600 X51 Y96.2
G0 X51 Y96.5
G0 X90.428 Y100.572
G0 X90.428 Y119.428
G0 X70.171 Y121.712
G0 X67.8 Y126.5
G0 X67.8 Y126.8
G1 F900 X67.8 Y146.2 E158.14319
G1 X72.8 Y146.2 E158.39264
G1 X72.8 Y151.2 E158.64209
G1 X127.2 Y151.2 E161.35612
G1 X127.2 Y146.2 E161.60557
G1 X132.2 Y146.2 E161.85502
G1 X132.2 Y126.8 E162.82289
G1 X127.2 Y126.8 E163.07234
G1 X127.2 Y121.8 E163.32179
G1 X72.8 Y121.8 E166.03582
G1 X72.8 Y126.8 E166.28527
G1 X67.8 Y126.8 E166.53472
G0 F3600 X67.8 Y127
G0 X67.5 Y127
G0 X65.428 Y154.228
G0 X45.73 Y154.27
G0 X45.8 Y154.2
G1 F900 X65.2 Y154.2 E167.50259
G1 X65.2 Y119.2 E169.24875
G1 X90.2 Y119.2 E170.496
G1 X90.2 Y100.8 E171.41398
G1 X45.8 Y100.8 E173.6291
G1 X45.8 Y154.2 E176.29324
G0 F3600 X46 Y154.2
G0 X46 Y154.3
G0 X45.228 Y154.772
G0 X45.228 Y130.572
G0 X40.772 Y130.572
G0 X40.73 Y159.27
G0 X40.8 Y159.2
G1 F900 X71.2 Y159.2 E177.8099
G1 X71.2 Y154.8 E178.02942
G1 X45.2 Y154.8 E179.32657
G1 X45.2 Y130.8 E180.52393
G1 X40.8 Y130.8 E180.74345
G1 X40.8 Y159.2 E182.16033
G0 F3600 X41 Y159.2
G0 X40.2 Y159.8
G1 F900 X40.2 Y40.2 E188.1272
G1 X159.8 Y40.2 E194.09407
G1 X159.8 Y159.8 E200.06093
G1 X40.2 Y159.8 E206.0278
G0 F3600 X40.2 Y159.6
G0 X40.3 Y159.6
G0 X71.428 Y159.228
G0 X71.428 Y154.572
G0 X65.434 Y144.925
G0 X67.572 Y126.572
G0 X72.572 Y121.572
G0 X109.5 Y119.2
G0 X109.8 Y119.2
G1 F900 X134.8 Y119.2 E207.27506
G1 X134.8 Y154.2 E209.02121
G1 X154.2 Y154.2 E209.98908
G1 X154.2 Y100.8 E212.65322
G1 X109.8 Y100.8 E214.86835
G1 X109.8 Y119.2 E215.78633
G0 F3600 X110 Y119.2
G0 X110 Y119.5
G0 X127.428 Y121.572
G0 X132.428 Y126.572
G0 X132.428 Y146.428
G0 X130.8 Y154.5
G0 X130.8 Y154.8
G1 F900 X130.8 Y159.2 E216.00584
G1 X159.2 Y159.2 E217.42272
G1 X159.2 Y130.8 E218.83961
G1 X154.8 Y130.8 E219.05912
G1 X154.8 Y154.8 E220.25649
G1 X130.8 Y154.8 E221.45385
G0 F3600 X130.8 Y155
G0 X130.5 Y155
G0 X132.428 Y146.428
G0 X132.428 Y126.572
G0 X130.596 Y119.439
G0 X109.572 Y119.428
G0 X109.572 Y100.572
G0 X149.428 Y96.428
G0 X154.228 Y61.428
G0 X154.228 Y45.772
G0 X130.8 Y45.3
G0 X130.8 Y45.2
G1 F900 X154.8 Y45.2 E222.65122
G1 X154.8 Y71.2 E223.94836
G1 X159.2 Y71.2 E224.16788
G1 X159.2 Y40.8 E225.68454
G1 X130.8 Y40.8 E227.10142
G1 X130.8 Y45.2 E227.32094
G0 F3600 X131 Y45.2
G0 X131 Y45.3
G0 X130.01 Y45.01
;TYPE:SKIN
G1 F900 X71.99 Y45.01 E230.21557
G1 X71.99 Y40.99 E230.41613
G1 X130.01 Y40.99 E233.31076
G1 X130.01 Y45.01 E233.51132
G0 F3600 X129.829 Y41.582
G1 F900 X129.416 Y41.169 E233.54046
G0 F3600 X128.851 Y41.169
G1 F900 X129.829 Y42.148 E233.6095
G0 F3600 X129.829 Y42.714
G1 F900 X128.285 Y41.169 E233.71847
G0 F3600 X127.719 Y41.169
G1 F900 X129.829 Y43.279 E233.86734
G0 F3600 X129.829 Y43.845
G1 F900 X127.154 Y41.169 E234.05611
G0 F3600 X126.588 Y41.169
G1 F900 X129.829 Y44.411 E234.28482
G0 F3600 X129.682 Y44.829
G1 F900 X126.022 Y41.169 E234.54305
G0 F3600 X125.457 Y41.169
G1 F900 X129.116 Y44.829 E234.80125
G0 F3600 X128.551 Y44.829
G1 F900 X124.891 Y41.169 E235.05948
G0 F3600 X124.325 Y41.169
G1 F900 X127.985 Y44.829 E235.31771
G0 F3600 X127.419 Y44.829
G1 F900 X123.759 Y41.169 E235.57594
G0 F3600 X123.194 Y41.169
G1 F900 X126.854 Y44.829 E235.83418
G0 F3600 X126.288 Y44.829
G1 F900 X122.628 Y41.169 E236.09241
G0 F3600 X122.062 Y41.169
G1 F900 X125.722 Y44.829 E236.35064
G0 F3600 X125.157 Y44.829
G1 F900 X121.497 Y41.169 E236.60888
G0 F3600 X120.931 Y41.169
G1 F900 X124.591 Y44.829 E236.86711
G0 F3600 X124.025 Y44.829
G1 F900 X120.365 Y41.169 E237.12534
G0 F3600 X119.8 Y41.169
G1 F900 X123.46 Y44.829 E237.38357
G0 F3600 X122.894 Y44.829
G1 F900 X119.234 Y41.169 E237.64181
G0 F3600 X118.668 Y41.169
G1 F900 X122.328 Y44.829 E237.90004
G0 F3600 X121.763 Y44.829
G1 F900 X118.103 Y41.169 E238.15827
G0 F3600 X117.537 Y41.169
G1 F900 X121.197 Y44.829 E238.41651
G0 F3600 X120.631 Y44.829
G1 F900 X116.971 Y41.169 E238.67474
G0 F3600 X116.406 Y41.169
G1 F900 X120.066 Y44.829 E238.93297
G0 F3600 X119.5 Y44.829
G1 F900 X115.84 Y41.169 E239.1912
G0 F3600 X115.274 Y41.169
G1 F900 X118.934 Y44.829 E239.44944
G0 F3600 X118.368 Y44.829
G1 F900 X114.708 Y41.169 E239.70767
G0 F3600 X114.143 Y41.169
G1 F900 X117.803 Y44.829 E239.9659
G0 F3600 X117.237 Y44.829
G1 F900 X113.577 Y41.169 E240.22413
G0 F3600 X113.011 Y41.169
G1 F900 X116.671 Y44.829 E240.48237
G0 F3600 X116.106 Y44.829
G1 F900 X112.446 Y41.169 E240.7406
G0 F3600 X111.88 Y41.169
G1 F900 X115.54 Y44.829 E240.99883
G0 F3600 X114.974 Y44.829
G1 F900 X111.314 Y41.169 E241.25707
G0 F3600 X110.749 Y41.169
G1 F900 X114.409 Y44.829 E241.5153
G0 F3600 X113.843 Y44.829
G1 F900 X110.183 Y41.169 E241.77353
G0 F3600 X109.617 Y41.169
G1 F900 X113.277 Y44.829 E242.03176
G0 F3600 X112.712 Y44.829
G1 F900 X109.052 Y41.169 E242.29
G0 F3600 X108.486 Y41.169
G1 F900 X112.146 Y44.829 E242.54823
G0 F3600 X111.58 Y44.829
G1 F900 X107.92 Y41.169 E242.80646
G0 F3600 X107.355 Y41.169
G1 F900 X111.015 Y44.829 E243.0647
G0 F3600 X110.449 Y44.829
G1 F900 X106.789 Y41.169 E243.32293
G0 F3600 X106.223 Y41.169
G1 F900 X109.883 Y44.829 E243.58116
G0 F3600 X109.318 Y44.829
G1 F900 X105.658 Y41.169 E243.83939
G0 F3600 X105.092 Y41.169
G1 F900 X108.752 Y44.829 E244.09763
G0 F3600 X108.186 Y44.829
G1 F900 X104.526 Y41.169 E244.35586
G0 F3600 X103.96 Y41.169
G1 F900 X107.62 Y44.829 E244.61409
G0 F3600 X107.055 Y44.829
G1 F900 X103.395 Y41.169 E244.87232
G0 F3600 X102.829 Y41.169
G1 F900 X106.489 Y44.829 E245.13056
G0 F3600 X105.923 Y44.829
G1 F900 X102.263 Y41.169 E245.38879
G0 F3600 X101.698 Y41.169
