;FLAVOR:Marlin
;TIME:27736
;Filament used: 17.3619m
;Layer height: 0.2
;MINX:36.8
;MINY:36.8
;MINZ:0.3
;MAXX:163.2
;MAXY:163.2
;MAXZ:21.9
;Generated with Cura_SteamEngine 4.4.1
M140 S45
M105
M190 S45
M104 S200
M105
M109 S200
M82 ;absolute extrusion mode
G21 ;metric values
 G90 ;absolute positioning
 M82 ;set extruder to absolute mode
 M107 ;start with the fan off
 G28 X0 Y0 ;move X/Y to min endstops
 G28 Z0 ;move Z to min endstops
 G1 Z15.0 F120 ;move the platform down 15mm
 G92 E0 ;zero the extruded length
 G1 F200 E6 ;extrude 6 mm of feed stock
 G92 E0 ;zero the extruded length again
 G1 F120 
 ;Put printing message on LCD screen
 M117 Printing...
G92 E0
G92 E0
G1 F1500 E-6.5
;LAYER_COUNT:109
;LAYER:0
M107
G0 F3600 X37.789 Y37.704 Z0.3
;TYPE:SKIRT
G1 F1500 E0
G1 F900 X38.18 Y37.383 E0.02524
G1 X38.617 Y37.128 E0.05048
G1 X39.088 Y36.944 E0.07571
G1 X39.582 Y36.838 E0.10092
G1 X39.919 Y36.81 E0.11779
G1 X40.24 Y36.801 E0.13381
G1 X40.33 Y36.8 E0.1383
G1 X159.339 Y36.8 E6.07568
G1 X160.037 Y36.81 E6.11051
G1 X160.54 Y36.857 E6.13571
G1 X161.03 Y36.983 E6.16095
G1 X161.494 Y37.185 E6.1862
G1 X161.92 Y37.457 E6.21142
G1 X162.298 Y37.792 E6.23662
G1 X162.618 Y38.183 E6.26182
G1 X162.873 Y38.62 E6.28707
G1 X163.056 Y39.091 E6.31228
G1 X163.163 Y39.585 E6.33749
G1 X163.19 Y39.92 E6.35426
G1 X163.199 Y40.24 E6.37023
G1 X163.2 Y40.33 E6.37472
G1 X163.2 Y159.304 E12.31036
G1 X163.191 Y160.031 E12.34663
G1 X163.145 Y160.534 E12.37183
G1 X163.02 Y161.024 E12.39706
G1 X162.819 Y161.488 E12.42229
G1 X162.548 Y161.915 E12.44752
G1 X162.213 Y162.294 E12.47276
G1 X161.823 Y162.615 E12.49796
G1 X161.387 Y162.871 E12.52318
G1 X160.916 Y163.054 E12.54839
G1 X160.422 Y163.162 E12.57362
G1 X160.081 Y163.19 E12.59069
G1 X159.76 Y163.199 E12.60671
G1 X159.67 Y163.2 E12.6112
G1 X40.666 Y163.2 E18.54833
G1 X39.968 Y163.191 E18.58316
G1 X39.464 Y163.144 E18.60841
G1 X38.974 Y163.019 E18.63364
G1 X38.51 Y162.818 E18.65887
G1 X38.084 Y162.547 E18.68406
G1 X37.705 Y162.212 E18.70929
G1 X37.384 Y161.821 E18.73453
G1 X37.129 Y161.385 E18.75973
G1 X36.945 Y160.914 E18.78496
G1 X36.838 Y160.42 E18.81018
G1 X36.81 Y160.077 E18.82735
G1 X36.801 Y159.744 E18.84397
G1 X36.8 Y159.658 E18.84826
G1 X36.8 Y40.631 E24.78654
G1 X36.809 Y39.966 E24.81972
G1 X36.856 Y39.462 E24.84497
G1 X36.982 Y38.973 E24.87017
G1 X37.183 Y38.509 E24.89539
G1 X37.454 Y38.082 E24.92062
G1 X37.789 Y37.704 E24.94582
G0 F3600 X42.9 Y42.9
;TYPE:SUPPORT
G1 F900 X71.1 Y42.9 E26.35273
G1 X71.1 Y43.1 E26.3627
G1 X43.744 Y43.1 E27.7275
G1 X43.1 Y43.744 E27.77294
G1 X43.1 Y71.1 E29.13774
G1 X42.9 Y71.1 E29.14771
G1 X42.9 Y42.9 E30.55462
G0 F3600 X42.9 Y132.9
G1 F900 X43.1 Y132.9 E30.56459
G1 X43.1 Y156.256 E31.72983
G1 X43.744 Y156.9 E31.77527
G1 X71.1 Y156.9 E33.14006
G1 X71.1 Y157.1 E33.15004
G1 X42.9 Y157.1 E34.55695
G1 X42.9 Y132.9 E35.76429
G1 F1500 E29.26429
G0 F3600 X46.585 Y133.881
G0 X46.653 Y153.347
G0 X64.347 Y153.347
G0 X64.413 Y138.636
G0 X68.585 Y139.748
G0 X68.653 Y145.347
G0 X73.157 Y145.339
G0 X73.653 Y150.347
G0 X108.471 Y150.384
G0 X132.9 Y156.9
G1 F1500 E35.76429
G1 F900 X156.256 Y156.9 E36.92952
G1 X156.9 Y156.256 E36.97496
G1 X156.9 Y132.9 E38.1402
G1 X157.1 Y132.9 E38.15018
G1 X157.1 Y157.1 E39.35752
G1 X132.9 Y157.1 E40.56486
G1 X132.9 Y156.9 E40.57484
G1 F1500 E34.07484
G0 F3600 X135.614 Y147.193
G0 X135.653 Y153.347
G0 X153.347 Y101.653
G0 X148.371 Y101.585
G0 X156.9 Y71.1
G1 F1500 E40.57484
G1 F900 X156.9 Y43.744 E41.93964
G1 X156.256 Y43.1 E41.98507
G1 X132.9 Y43.1 E43.15031
G1 X132.9 Y42.9 E43.16029
G1 X157.1 Y42.9 E44.36763
G1 X157.1 Y71.1 E45.77453
G1 X156.9 Y71.1 E45.78451
G1 F1500 E39.28451
;MESH:ConsoleMid.stl
G0 F3600 X155.4 Y71.1
G0 X150.626 Y65.859
G0 X154.628 Y61.628
G0 X154.628 Y45.372
G0 X131.33 Y44.67
G0 X131.4 Y44.6
;TYPE:WALL-INNER
G1 F1500 E45.78451
G1 F900 X155.4 Y44.6 E46.98188
G1 X155.4 Y72.6 E48.3788
G1 X158.6 Y72.6 E48.53845
G1 X158.6 Y41.4 E50.09503
G1 X131.4 Y41.4 E51.45204
G1 X131.4 Y44.6 E51.61169
G0 F3600 X131.33 Y44.67
G0 X154.628 Y45.372
G0 X154.628 Y61.628
G0 X150.628 Y97.628
G0 X109.372 Y100.372
G0 X109.33 Y119.67
G0 X109.4 Y119.6
G1 F900 X134.4 Y119.6 E52.85894
G1 X134.4 Y154.6 E54.6051
G1 X154.6 Y154.6 E55.61288
G1 X154.6 Y100.4 E58.31693
G1 X109.4 Y100.4 E60.57197
G1 X109.4 Y119.6 E61.52986
G0 F3600 X109.33 Y119.67
G0 X127.628 Y121.372
G0 X132.628 Y126.372
G0 X132.628 Y146.628
G0 X131.33 Y155.33
G0 X131.4 Y155.4
G1 F900 X131.4 Y158.6 E61.68951
G1 X158.6 Y158.6 E63.04652
G1 X158.6 Y131.4 E64.40354
G1 X155.4 Y131.4 E64.56318
G1 X155.4 Y155.4 E65.76055
G1 X131.4 Y155.4 E66.95791
G0 F3600 X131.33 Y155.33
G0 X72.372 Y151.628
G0 X67.372 Y146.628
G0 X67.33 Y126.33
G0 X67.4 Y126.4
G1 F900 X67.4 Y146.6 E67.9657
G1 X72.4 Y146.6 E68.21515
G1 X72.4 Y151.6 E68.4646
G1 X127.6 Y151.6 E71.21854
G1 X127.6 Y146.6 E71.46799
G1 X132.6 Y146.6 E71.71744
G1 X132.6 Y126.4 E72.72522
G1 X127.6 Y126.4 E72.97467
G1 X127.6 Y121.4 E73.22412
G1 X72.4 Y121.4 E75.97806
G1 X72.4 Y126.4 E76.22751
G1 X67.4 Y126.4 E76.47696
G0 F3600 X67.33 Y126.33
G0 X65.628 Y119.628
G0 X90.628 Y119.628
G0 X90.628 Y100.372
G0 X49.33 Y97.67
G0 X49.4 Y97.6
G1 F900 X150.6 Y97.6 E81.52585
G1 X150.6 Y64.4 E83.18221
G1 X49.4 Y64.4 E88.2311
G1 X49.4 Y97.6 E89.88745
G0 F3600 X49.33 Y97.67
G0 X41.33 Y72.67
G0 X41.4 Y72.6
G1 F900 X44.6 Y72.6 E90.0471
G1 X44.6 Y44.6 E91.44403
G1 X72.6 Y44.6 E92.84095
G1 X72.6 Y41.4 E93.0006
G1 X41.4 Y41.4 E94.55717
G1 X41.4 Y72.6 E96.11375
G0 F3600 X41.33 Y72.67
G0 X44.628 Y72.628
G0 X45.33 Y61.67
G0 X45.4 Y61.6
G1 F900 X154.6 Y61.6 E101.56176
G1 X154.6 Y45.4 E102.36998
G1 X45.4 Y45.4 E107.81799
G1 X45.4 Y61.6 E108.62621
G0 F3600 X45.33 Y61.67
G0 X45.33 Y154.67
G0 X45.4 Y154.6
G1 F900 X65.6 Y154.6 E109.63399
G1 X65.6 Y119.6 E111.38015
G1 X90.6 Y119.6 E112.62741
G1 X90.6 Y100.4 E113.5853
G1 X45.4 Y100.4 E115.84033
G1 X45.4 Y154.6 E118.54438
G0 F3600 X45.33 Y154.67
G0 X44.628 Y131.372
G0 X41.372 Y131.372
G0 X41.33 Y158.67
G0 X41.4 Y158.6
G1 F900 X72.6 Y158.6 E120.10096
G1 X72.6 Y155.4 E120.26061
G1 X44.6 Y155.4 E121.65753
G1 X44.6 Y131.4 E122.8549
G1 X41.4 Y131.4 E123.01455
G1 X41.4 Y158.6 E124.37156
G0 F3600 X41.33 Y158.67
G0 X40.67 Y159.33
G0 X40.6 Y159.4
G1 F900 X40.6 Y40.6 E130.29852
G1 X159.4 Y40.6 E136.22547
G1 X159.4 Y159.4 E142.15243
G1 X40.6 Y159.4 E148.07938
G0 F3600 X40.2 Y159.8
;TYPE:WALL-OUTER
G1 F900 X40.2 Y40.2 E154.04625
G1 X159.8 Y40.2 E160.01312
G1 X159.8 Y159.8 E165.97999
G1 X40.2 Y159.8 E171.94686
G0 F3600 X40.2 Y159.6
G0 X40.67 Y159.33
G0 X41.3 Y158.2
G0 X41.8 Y158.2
G1 F900 X72.2 Y158.2 E173.46352
G1 X72.2 Y155.8 E173.58326
G1 X44.2 Y155.8 E174.98018
G1 X44.2 Y131.8 E176.17755
G1 X41.8 Y131.8 E176.29728
G1 X41.8 Y158.2 E177.61438
G0 F3600 X42 Y158.2
G0 X42 Y158.7
G0 X41.372 Y131.372
G0 X44.628 Y131.372
G0 X45.3 Y154.2
G0 X45.8 Y154.2
G1 F900 X65.2 Y154.2 E178.58225
G1 X65.2 Y119.2 E180.32841
G1 X90.2 Y119.2 E181.57567
G1 X90.2 Y100.8 E182.49365
G1 X45.8 Y100.8 E184.70877
G1 X45.8 Y154.2 E187.37291
G0 F3600 X46 Y154.2
G0 X46 Y154.7
G0 X65.628 Y154.628
G0 X67.372 Y126.372
G0 X67.8 Y126.8
G1 F900 X67.8 Y146.2 E188.34078
G1 X72.8 Y146.2 E188.59023
G1 X72.8 Y151.2 E188.83968
G1 X127.2 Y151.2 E191.55371
G1 X127.2 Y146.2 E191.80316
G1 X132.2 Y146.2 E192.05261
G1 X132.2 Y126.8 E193.02048
G1 X127.2 Y126.8 E193.26993
G1 X127.2 Y121.8 E193.51938
G1 X72.8 Y121.8 E196.23341
G1 X72.8 Y126.8 E196.48286
G1 X67.8 Y126.8 E196.73231
G0 F3600 X67.8 Y127
G0 X67.3 Y127
G0 X65.628 Y119.628
G0 X90.628 Y119.628
G0 X90.628 Y100.372
G0 X49.372 Y97.628
G0 X49.8 Y97.2
G1 F900 X150.2 Y97.2 E201.74129
G1 X150.2 Y64.8 E203.35773
G1 X49.8 Y64.8 E208.3667
G1 X49.8 Y97.2 E209.98315
G0 F3600 X50 Y97.2
G0 X50 Y97.7
G0 X41.372 Y72.628
G0 X41.8 Y72.2
G1 F900 X44.2 Y72.2 E210.10288
G1 X44.2 Y44.2 E211.49981
G1 X72.2 Y44.2 E212.89673
G1 X72.2 Y41.8 E213.01647
G1 X41.8 Y41.8 E214.53313
G1 X41.8 Y72.2 E216.0498
G0 F3600 X42 Y72.2
G0 X42 Y72.7
G0 X44.628 Y72.628
G0 X45.3 Y61.2
G0 X45.8 Y61.2
G1 F900 X154.2 Y61.2 E221.45789
G1 X154.2 Y45.8 E222.2262
G1 X45.8 Y45.8 E227.6343
G1 X45.8 Y61.2 E228.40261
G0 F3600 X46 Y61.2
G0 X46 Y61.7
G0 X49.372 Y97.628
G0 X90.628 Y100.372
G0 X109.3 Y119.2
G0 X109.8 Y119.2
G1 F900 X134.8 Y119.2 E229.64986
G1 X134.8 Y154.2 E231.39602
G1 X154.2 Y154.2 E232.36389
G1 X154.2 Y100.8 E235.02803
G1 X109.8 Y100.8 E237.24315
G1 X109.8 Y119.2 E238.16113
G0 F3600 X110 Y119.2
G0 X110 Y119.7
G0 X127.628 Y121.372
G0 X132.628 Y126.372
G0 X132.628 Y146.628
G0 X131.8 Y155.3
G0 X131.8 Y155.8
G1 F900 X131.8 Y158.2 E238.28087
G1 X158.2 Y158.2 E239.59797
G1 X158.2 Y131.8 E240.91507
G1 X155.8 Y131.8 E241.03481
G1 X155.8 Y155.8 E242.23217
G1 X131.8 Y155.8 E243.42954
G0 F3600 X131.8 Y156
G0 X131.3 Y156
G0 X132.628 Y146.628
G0 X132.628 Y126.372
G0 X131.3 Y119.64
G0 X109.372 Y119.628
G0 X109.372 Y100.372
G0 X150.628 Y97.628
G0 X154.628 Y61.628
G0 X154.628 Y45.372
G0 X131.3 Y45.36
G0 X131.3 Y44.2
G0 X131.8 Y44.2
G1 F900 X155.8 Y44.2 E244.6269
G1 X155.8 Y72.2 E246.02383
G1 X158.2 Y72.2 E246.14357
G1 X158.2 Y41.8 E247.66023
G1 X131.8 Y41.8 E248.97733
G1 X131.8 Y44.2 E249.09707
G0 F3600 X132 Y44.2
G0 X132 Y44.7
G0 X131.01 Y44.99
;TYPE:SKIN
G1 F900 X155.01 Y44.99 E250.29443
G1 X155.01 Y72.99 E251.69136
G1 X158.99 Y72.99 E251.88992
G1 X158.99 Y41.01 E253.48541
G1 X131.01 Y41.01 E254.88134
G1 X131.01 Y44.99 E255.0799
G0 F3600 X154.99 Y45.01
G1 F900 X45.01 Y45.01 E260.56682
G1 X45.01 Y61.99 E261.41396
G1 X154.99 Y61.99 E266.90088
G1 X154.99 Y45.01 E267.74802
G0 F3600 X131.372 Y44.628
G0 X131.372 Y41.372
G0 X159.01 Y40.99
G1 F900 X159.01 Y159.01 E273.63606
G1 X40.99 Y159.01 E279.5241
G1 X40.99 Y40.99 E285.41214
G1 X159.01 Y40.99 E291.30019
G0 F3600 X158.628 Y72.628
G0 X155.372 Y72.628
G0 X150.99 Y64.01
G1 F900 X49.01 Y64.01 E296.38799
G1 X49.01 Y97.99 E298.08326
G1 X150.99 Y97.99 E303.17106
G1 X150.99 Y64.01 E304.86633
G0 F3600 X154.99 Y100.01
G1 F900 X109.01 Y100.01 E307.16028
G1 X109.01 Y119.99 E308.15709
G1 X134.01 Y119.99 E309.40434
G1 X134.01 Y154.99 E311.1505
G1 X154.99 Y154.99 E312.1972
G1 X154.99 Y100.01 E314.94016
G0 F3600 X155.01 Y131.01
G1 F900 X155.01 Y155.01 E316.13752
G1 X131.01 Y155.01 E317.33489
G1 X131.01 Y158.99 E317.53345
G1 X158.99 Y158.99 E318.92938
G1 X158.99 Y131.01 E320.32531
G1 X155.01 Y131.01 E320.52387
G0 F3600 X154.628 Y154.628
G0 X134.372 Y154.628
G0 X134.363 Y126.494
G0 X127.99 Y121.01
G1 F900 X72.01 Y121.01 E323.31672
G1 X72.01 Y126.01 E323.56618
G1 X67.01 Y126.01 E323.81563
G1 X67.01 Y146.99 E324.86232
G1 X72.01 Y146.99 E325.11177
G1 X72.01 Y151.99 E325.36123
G1 X127.99 Y151.99 E328.15408
G1 X127.99 Y146.99 E328.40353
G1 X132.99 Y146.99 E328.65298
G1 X132.99 Y126.01 E329.69968
G1 X127.99 Y126.01 E329.94913
G1 X127.99 Y121.01 E330.19858
G0 F3600 X109.372 Y119.628
G0 X90.99 Y100.01
G1 F900 X45.01 Y100.01 E332.49253
G1 X45.01 Y154.99 E335.23549
G1 X65.99 Y154.99 E336.28219
G1 X65.99 Y119.99 E338.02835
G1 X90.99 Y119.99 E339.2756
G1 X90.99 Y100.01 E340.27241
G0 F3600 X45.372 Y100.372
G0 X44.99 Y131.01
G1 F900 X41.01 Y131.01 E340.47097
G1 X41.01 Y158.99 E341.8669
G1 X72.99 Y158.99 E343.46239
G1 X72.99 Y155.01 E343.66095
G1 X44.99 Y155.01 E345.05788
G1 X44.99 Y131.01 E346.25524
G0 F3600 X45.372 Y45.372
G0 X72.99 Y44.99
G1 F900 X72.99 Y41.01 E346.4538
G1 X41.01 Y41.01 E348.04929
G1 X41.01 Y72.99 E349.64478
G1 X44.99 Y72.99 E349.84335
G1 X44.99 Y44.99 E351.24027
G1 X72.99 Y44.99 E352.6372
G0 F3600 X154.628 Y45.372
G0 X154.829 Y62.622
G1 F900 X154.376 Y62.17 E352.66912
G0 F3600 X153.811 Y62.17
G1 F900 X154.829 Y63.188 E352.74095
G0 F3600 X154.829 Y63.754
G1 F900 X153.245 Y62.17 E352.85271
G0 F3600 X152.679 Y62.17
G1 F900 X154.829 Y64.319 E353.00437
G0 F3600 X154.829 Y64.885
G1 F900 X152.114 Y62.17 E353.19592
G0 F3600 X151.548 Y62.17
G1 F900 X154.829 Y65.451 E353.42742
G0 F3600 X154.829 Y66.016
G1 F900 X150.982 Y62.17 E353.69881
G0 F3600 X150.417 Y62.17
G1 F900 X154.829 Y66.582 E354.0101
G0 F3600 X154.829 Y67.148
G1 F900 X149.851 Y62.17 E354.36132
G0 F3600 X149.285 Y62.17
G1 F900 X150.944 Y63.829 E354.47838
G0 F3600 X151.168 Y64.053
G1 F900 X154.829 Y67.713 E354.73664
G0 F3600 X154.829 Y68.279
G1 F900 X151.168 Y64.618 E354.99495
G0 F3600 X151.168 Y65.184
G1 F900 X154.829 Y68.845 E355.25325
G0 F3600 X154.829 Y69.411
G1 F900 X151.168 Y65.75 E355.51155
G0 F3600 X151.168 Y66.316
G1 F900 X154.829 Y69.976 E355.76982
G0 F3600 X154.829 Y70.542
G1 F900 X151.168 Y66.881 E356.02812
G0 F3600 X151.168 Y67.447
G1 F900 X154.829 Y71.108 E356.28643
G0 F3600 X154.829 Y71.673
G1 F900 X151.168 Y68.013 E356.5447
G0 F3600 X151.168 Y68.578
G1 F900 X154.829 Y72.239 E356.803
G0 F3600 X154.829 Y72.805
G1 F900 X151.168 Y69.144 E357.0613
G0 F3600 X151.168 Y69.71
G1 F900 X158.828 Y77.37 E357.60176
G0 F3600 X158.828 Y77.935
G1 F900 X151.168 Y70.275 E358.14221
G0 F3600 X151.168 Y70.841
G1 F900 X158.828 Y78.501 E358.68267
G0 F3600 X158.828 Y79.067
G1 F900 X151.168 Y71.407 E359.22312
G0 F3600 X151.168 Y71.972
G1 F900 X158.828 Y79.632 E359.76357
G0 F3600 X158.828 Y80.198
G1 F900 X151.168 Y72.538 E360.30403
G0 F3600 X151.168 Y73.104
G1 F900 X158.828 Y80.764 E360.84448
G0 F3600 X158.828 Y81.33
G1 F900 X151.168 Y73.669 E361.38497
G0 F3600 X151.168 Y74.235
G1 F900 X158.828 Y81.895 E361.92543
G0 F3600 X158.828 Y82.461
G1 F900 X151.168 Y74.801 E362.46588
G0 F3600 X151.168 Y75.366
G1 F900 X158.828 Y83.027 E363.00637
G0 F3600 X158.828 Y83.592
G1 F900 X151.168 Y75.932 E363.54683
G0 F3600 X151.168 Y76.498
G1 F900 X158.828 Y84.158 E364.08728
G0 F3600 X158.828 Y84.724
G1 F900 X151.168 Y77.064 E364.62773
G0 F3600 X151.168 Y77.629
G1 F900 X158.828 Y85.289 E365.16819
G0 F3600 X158.828 Y85.855
G1 F900 X151.168 Y78.195 E365.70864
G0 F3600 X151.168 Y78.761
G1 F900 X158.828 Y86.421 E366.2491
G0 F3600 X158.828 Y86.986
G1 F900 X151.168 Y79.326 E366.78955
G0 F3600 X151.168 Y79.892
G1 F900 X158.828 Y87.552 E367.33001
G0 F3600 X158.828 Y88.118
G1 F900 X151.168 Y80.458 E367.87046
G0 F3600 X151.168 Y81.023
G1 F900 X158.828 Y88.683 E368.41091
G0 F3600 X158.828 Y89.249
G1 F900 X151.168 Y81.589 E368.95137
G0 F3600 X151.168 Y82.155
G1 F900 X158.828 Y89.815 E369.49182
G0 F3600 X158.828 Y90.38
G1 F900 X151.168 Y82.72 E370.03228
G0 F3600 X151.168 Y83.286
G1 F900 X158.828 Y90.946 E370.57273
G0 F3600 X158.828 Y91.512
G1 F900 X151.168 Y83.852 E371.11319
G0 F3600 X151.168 Y84.417
G1 F900 X158.828 Y92.078 E371.65368
G0 F3600 X158.828 Y92.643
G1 F900 X151.168 Y84.983 E372.19413
G0 F3600 X151.168 Y85.549
G1 F900 X158.828 Y93.209 E372.73459
G0 F3600 X158.828 Y93.775
G1 F900 X151.168 Y86.114 E373.27507
G0 F3600 X151.168 Y86.68
G1 F900 X158.828 Y94.34 E373.81553
G0 F3600 X158.828 Y94.906
G1 F900 X151.168 Y87.246 E374.35598
G0 F3600 X151.168 Y87.812
G1 F900 X158.828 Y95.472 E374.89644
G0 F3600 X158.828 Y96.037
G1 F900 X151.168 Y88.377 E375.43689
G0 F3600 X151.168 Y88.943
G1 F900 X158.828 Y96.603 E375.97735
G0 F3600 X158.828 Y97.169
G1 F900 X151.168 Y89.509 E376.5178
G0 F3600 X151.168 Y90.074
G1 F900 X158.828 Y97.734 E377.05826
G0 F3600 X158.828 Y98.3
G1 F900 X151.168 Y90.64 E377.59871
G0 F3600 X151.168 Y91.206
G1 F900 X158.828 Y98.866 E378.13916
G0 F3600 X158.828 Y99.431
G1 F900 X151.168 Y91.771 E378.67962
G0 F3600 X151.168 Y92.337
G1 F900 X158.828 Y99.997 E379.22007
G0 F3600 X158.828 Y100.563
G1 F900 X151.168 Y92.903 E379.76053
G0 F3600 X151.168 Y93.468
G1 F900 X158.828 Y101.128 E380.30098
G0 F3600 X158.828 Y101.694
G1 F900 X151.168 Y94.034 E380.84144
G0 F3600 X151.168 Y94.6
G1 F900 X158.828 Y102.26 E381.38189
G0 F3600 X158.828 Y102.826
G1 F900 X151.168 Y95.165 E381.92238
G0 F3600 X151.168 Y95.731
G1 F900 X158.828 Y103.391 E382.46283
G0 F3600 X158.828 Y103.957
G1 F900 X155.168 Y100.297 E382.72107
G0 F3600 X155.168 Y100.863
G1 F900 X158.828 Y104.523 E382.9793
G0 F3600 X158.828 Y105.088
G1 F900 X155.168 Y101.428 E383.23753
G0 F3600 X155.168 Y101.994
G1 F900 X158.828 Y105.654 E383.49577
G0 F3600 X158.828 Y106.22
G1 F900 X155.168 Y102.56 E383.754
G0 F3600 X155.168 Y103.125
G1 F900 X158.828 Y106.785 E384.01223
G0 F3600 X158.828 Y107.351
G1 F900 X155.168 Y103.691 E384.27046
G0 F3600 X155.168 Y104.257
G1 F900 X158.828 Y107.917 E384.5287
G0 F3600 X158.828 Y108.482
G1 F900 X155.168 Y104.822 E384.78693
