; generated by PrusaSlicer 2.1.0+ on 2020-06-15 at 00:10:15 UTC

; 

; external perimeters extrusion width = 0.45mm
; perimeters extrusion width = 0.45mm
; infill extrusion width = 0.45mm
; solid infill extrusion width = 0.45mm
; top infill extrusion width = 0.40mm
; first layer extrusion width = 0.42mm

M73 P0 R5
M73 Q0 S5
M201 X1000 Y1000 Z1000 E8000 ; sets maximum accelerations, mm/sec^2
M203 X200 Y200 Z12 E120 ; sets maximum feedrates, mm/sec
M204 P1250 R1250 T1250 ; sets acceleration (P, T) and retract acceleration (R), mm/sec^2
M205 X8.00 Y8.00 Z0.40 E1.50 ; sets the jerk limits, mm/sec
M205 S0 T0 ; sets the minimum extruding and travel feed rate, mm/sec
M107
M862.3 P "MK3SMMU2S" ; printer model check
M862.1 P0.4 ; nozzle diameter check
M115 U3.8.1 ; tell printer latest fw version
G90 ; use absolute coordinates
M83 ; extruder relative mode
M104 S215 ; set extruder temp
M140 S60 ; set bed temp
M190 S60 ; wait for bed temp
M109 S215 ; wait for extruder temp
G28 W ; home all without mesh bed level
G80 ; mesh bed leveling
G21 ; set units to millimeters

; Send the filament type to the MMU2.0 unit.
; E stands for extruder number, F stands for filament type (0: default; 1:flex; 2: PVA)
M403 E0 F0
M403 E1 F0
M403 E2 F0
M403 E3 F0
M403 E4 F0


;go outside print area
G1 Y-3.0 F1000.0
G1 Z0.4 F1000.0
; select extruder
T2
; initial load
G1 X55.0 E29.0 F1073.0
M73 Q10 S4
M73 P10 R4
G1 X5.0 E29.0 F1800.0
G1 X55.0 E8.0 F2000.0
G1 Z0.3 F1000.0
G92 E0.0
G1 X240.0 E25.0 F2200.0
G1 Y-2.0 F1000.0
G1 X55.0 E25 F1400.0
G1 Z0.20 F1000.0
G1 X5.0 E4.0 F1000.0
G92 E0.0


M221 S95
G92 E0.0
G21 ; set units to millimeters
G90 ; use absolute coordinates
M83 ; use relative distances for extrusion
T2
M104 S215 ; set temperature
M900 K30 ; Filament gcode
;BEFORE_LAYER_CHANGE
G92 E0.0
;0.2


G1 E-0.80000 F2100.00000
G1 Z0.600 F10800.000
;AFTER_LAYER_CHANGE
;0.2
G1 X120.553 Y100.312
G1 Z0.200
G1 E0.80000 F2100.00000
M204 S1000
G1 F900
G1 X121.156 Y99.897 E0.02296
G1 X121.832 Y99.627 E0.02282
G1 X122.649 Y99.506 E0.02590
G1 X127.283 Y99.505 E0.14529
G1 X127.865 Y99.557 E0.01832
G1 X128.433 Y99.713 E0.01846
G1 X128.965 Y99.966 E0.01846
G1 X129.440 Y100.306 E0.01832
G1 X130.406 Y101.446 E0.04684
G1 X131.068 Y102.755 E0.04600
G1 X131.415 Y104.157 E0.04530
G1 X131.442 Y105.597 E0.04516
G1 X131.150 Y107.008 E0.04516
G1 X130.556 Y108.315 E0.04502
G1 X129.987 Y109.122 E0.03098
G1 X129.336 Y109.780 E0.02900
G1 X128.642 Y110.202 E0.02548
G1 X127.866 Y110.442 E0.02548
G1 X122.519 Y110.489 E0.16764
G1 X121.746 Y110.348 E0.02464
G1 X121.023 Y110.028 E0.02478
G1 X120.321 Y109.468 E0.02814
G1 X119.548 Y108.482 E0.03929
G1 X119.006 Y107.436 E0.03695
G1 X118.654 Y106.259 E0.03850
G1 X118.531 Y105.105 E0.03639
G1 X118.622 Y103.912 E0.03751
G1 X118.930 Y102.761 E0.03737
G1 X119.444 Y101.685 E0.03737
G1 X119.982 Y100.916 E0.02943
G1 X120.511 Y100.355 E0.02418
G1 X120.861 Y100.545 F10800.000
G1 F900
G1 X121.404 Y100.194 E0.02029
G1 X122.015 Y99.968 E0.02042
G1 X122.673 Y99.883 E0.02082
G1 X127.283 Y99.882 E0.14453
G1 X128.343 Y100.082 E0.03382
G1 X128.831 Y100.325 E0.01712
G1 X129.263 Y100.652 E0.01698
G1 X130.134 Y101.720 E0.04319
G1 X130.780 Y103.075 E0.04707
G1 X131.065 Y104.422 E0.04319
G1 X131.044 Y105.770 E0.04226
G1 X130.722 Y107.092 E0.04266
G1 X130.136 Y108.277 E0.04147
G1 X129.574 Y109.025 E0.02931
G1 X129.043 Y109.530 E0.02300
G1 X128.419 Y109.888 E0.02253
G1 X127.728 Y110.083 E0.02253
G1 X122.535 Y110.112 E0.16281
G1 X121.821 Y109.976 E0.02280
G1 X121.161 Y109.670 E0.02280
G1 X120.453 Y109.056 E0.02939
G1 X119.765 Y108.116 E0.03652
G1 X119.280 Y107.099 E0.03533
G1 X118.990 Y105.997 E0.03572
G1 X118.908 Y104.886 E0.03493
G1 X119.033 Y103.771 E0.03520
G1 X119.361 Y102.693 E0.03533
G1 X119.864 Y101.723 E0.03427
G1 X120.320 Y101.099 E0.02421
G1 X120.819 Y100.588 E0.02239
G1 X121.107 Y100.836 F10800.000
G1 F900
G1 X121.602 Y100.519 E0.01843
G1 X122.146 Y100.329 E0.01808
G1 X122.684 Y100.265 E0.01697
G1 X127.283 Y100.259 E0.14423
G1 X128.230 Y100.442 E0.03022
G1 X129.042 Y100.961 E0.03022
G1 X129.891 Y102.042 E0.04309
G1 X130.439 Y103.242 E0.04137
G1 X130.692 Y104.477 E0.03952
G1 X130.666 Y105.749 E0.03989
G1 X130.362 Y106.981 E0.03977
G1 X129.784 Y108.127 E0.04026
G1 X129.281 Y108.787 E0.02601
G1 X128.802 Y109.239 E0.02064
G1 X128.248 Y109.550 E0.01992
G1 X127.635 Y109.716 E0.01992
G1 X122.559 Y109.735 E0.15914
G1 X121.909 Y109.608 E0.02079
G1 X121.309 Y109.317 E0.02091
G1 X120.607 Y108.656 E0.03023
G1 X119.997 Y107.764 E0.03388
G1 X119.571 Y106.788 E0.03339
G1 X119.338 Y105.781 E0.03240
G1 X119.291 Y104.729 E0.03302
G1 X119.413 Y103.797 E0.02947
G1 X119.719 Y102.814 E0.03228
G1 X120.216 Y101.873 E0.03339
G1 X121.067 Y100.881 E0.04098
G1 X121.403 Y101.080 F10800.000
G1 F900
G1 X121.828 Y100.830 E0.01544
G1 X122.298 Y100.682 E0.01544
G1 X127.283 Y100.636 E0.15633
G1 X128.130 Y100.809 E0.02709
G1 X128.842 Y101.293 E0.02698
G1 X129.600 Y102.291 E0.03929
G1 X130.135 Y103.541 E0.04264
G1 X130.330 Y104.706 E0.03703
G1 X130.264 Y105.889 E0.03715
G1 X129.937 Y107.031 E0.03726
G1 X129.370 Y108.067 E0.03703
G1 X128.530 Y108.971 E0.03869
G1 X128.052 Y109.222 E0.01692
G1 X127.528 Y109.349 E0.01692
G1 X122.586 Y109.359 E0.15494
G1 X122.001 Y109.241 E0.01873
G1 X121.469 Y108.969 E0.01873
G1 X120.871 Y108.384 E0.02624
G1 X120.308 Y107.546 E0.03164
G1 X119.923 Y106.649 E0.03061
G1 X119.703 Y105.668 E0.03153
G1 X119.670 Y104.696 E0.03050
G1 X119.817 Y103.719 E0.03096
G1 X120.142 Y102.787 E0.03096
G1 X120.630 Y101.933 E0.03084
G1 X121.363 Y101.124 E0.03422
G1 F8640
G1 X121.828 Y100.830 E-0.12697
G1 X122.298 Y100.682 E-0.11369
G1 X124.547 Y100.662 E-0.51934
G1 E-0.04000 F2100.00000
G1 Z0.800 F10800.000
G1 X122.884 Y103.290
G1 Z0.200
G1 E0.80000 F2100.00000
G1 F900
G1 X127.116 Y103.290 E0.13270
G1 X127.408 Y103.754 E0.01719
G1 X127.580 Y104.170 E0.01410
G1 X127.682 Y104.607 E0.01410
G1 X127.710 Y105.056 E0.01410
G1 X127.664 Y105.503 E0.01410
G1 X127.544 Y105.937 E0.01410
G1 X127.357 Y106.338 E0.01386
G1 X127.113 Y106.710 E0.01395
G1 X122.884 Y106.710 E0.13262
G1 X122.592 Y106.246 E0.01719
G1 X122.420 Y105.830 E0.01410
G1 X122.318 Y105.393 E0.01410
G1 X122.290 Y104.946 E0.01403
G1 X122.318 Y104.605 E0.01071
G1 X122.420 Y104.170 E0.01403
G1 X122.592 Y103.754 E0.01410
G1 X122.852 Y103.341 E0.01531
G1 X122.948 Y102.895 F10800.000
G1 X122.818 Y103.035
G1 F900
G1 X127.184 Y103.037 E0.13687
G1 X127.339 Y103.219 E0.00752
G1 X127.523 Y103.491 E0.01028
G1 X127.676 Y103.783 E0.01034
G1 X127.855 Y104.298 E0.01711
G1 X127.935 Y104.838 E0.01711
G1 X127.915 Y105.383 E0.01711
G1 X127.794 Y105.915 E0.01711
G1 X127.629 Y106.316 E0.01357
G1 X127.465 Y106.602 E0.01034
G1 X127.270 Y106.868 E0.01034
G1 X127.184 Y106.965 E0.00407
G1 X122.816 Y106.965 E0.13696
G1 X122.535 Y106.602 E0.01440
G1 X122.281 Y106.119 E0.01711
G1 X122.121 Y105.595 E0.01717
G1 X122.061 Y105.055 E0.01705
G1 X122.101 Y104.511 E0.01711
G1 X122.242 Y103.982 E0.01717
G1 X122.477 Y103.491 E0.01705
G1 X122.661 Y103.220 E0.01028
G1 X122.779 Y103.081 E0.00572
G1 X123.114 Y103.304 F10800.000
M106 S255
;BEFORE_LAYER_CHANGE
G92 E0.0
;0.3


G1 F8640
G1 X126.071 Y103.048 E-0.76000
G1 E-0.04000 F2100.00000
G1 Z0.800 F10800.000
;AFTER_LAYER_CHANGE
;0.3
M104 S205 ; set temperature
G1 X127.866 Y110.442
G1 Z0.300
G1 E0.80000 F2100.00000
G1 F900
G1 X122.519 Y110.489 E0.08859
G1 X121.746 Y110.348 E0.01302
G1 X121.023 Y110.028 E0.01310
G1 X120.321 Y109.468 E0.01487
G1 X119.548 Y108.482 E0.02076
G1 X119.006 Y107.436 E0.01953
G1 X118.654 Y106.259 E0.02034
G1 X118.531 Y105.105 E0.01923
G1 X118.622 Y103.912 E0.01982
G1 X118.930 Y102.761 E0.01975
G1 X119.444 Y101.685 E0.01975
G1 X119.982 Y100.916 E0.01555
G1 X120.553 Y100.312 E0.01377
G1 X121.156 Y99.897 E0.01213
G1 X121.832 Y99.627 E0.01206
G1 X122.649 Y99.506 E0.01369
G1 X127.283 Y99.505 E0.07678
G1 X127.865 Y99.557 E0.00968
G1 X128.433 Y99.713 E0.00976
G1 X128.965 Y99.966 E0.00976
G1 X129.440 Y100.306 E0.00968
G1 X130.406 Y101.446 E0.02475
G1 X131.068 Y102.755 E0.02431
G1 X131.415 Y104.157 E0.02394
G1 X131.442 Y105.597 E0.02386
G1 X131.150 Y107.008 E0.02386
G1 X130.556 Y108.315 E0.02379
G1 X129.987 Y109.122 E0.01637
G1 X129.336 Y109.780 E0.01533
G1 X128.642 Y110.202 E0.01347
G1 X127.923 Y110.425 E0.01247
G1 F8640
G1 X124.632 Y110.464 E-0.76000
G1 E-0.04000 F2100.00000
G1 Z0.900 F10800.000
G1 X127.124 Y106.725
G1 Z0.300
G1 E0.80000 F2100.00000
M204 S800
G1 F900
G1 X122.876 Y106.725 E0.07570
G1 X122.579 Y106.253 E0.00994
G1 X122.405 Y105.835 E0.00806
G1 X122.303 Y105.395 E0.00806
G1 X122.275 Y104.944 E0.00805
G1 X122.319 Y104.509 E0.00778
G1 X122.406 Y104.163 E0.00636
G1 X122.579 Y103.747 E0.00802
G1 X122.876 Y103.275 E0.00994
G1 X127.124 Y103.275 E0.07570
G1 X127.421 Y103.747 E0.00994
G1 X127.595 Y104.165 E0.00806
G1 X127.697 Y104.605 E0.00806
G1 X127.725 Y105.057 E0.00806
G1 X127.678 Y105.506 E0.00806
G1 X127.558 Y105.940 E0.00801
G1 X127.420 Y106.254 E0.00613
G1 X127.156 Y106.674 E0.00883
M204 S1000
G1 X127.057 Y107.119 F10800.000
G1 X127.258 Y106.858
M204 S800
G1 F900
G1 X127.177 Y106.950 E0.00218
G1 X122.823 Y106.950 E0.07758
G1 X122.548 Y106.594 E0.00802
G1 X122.295 Y106.113 E0.00967
G1 X122.136 Y105.592 E0.00971
G1 X122.076 Y105.054 E0.00964
G1 X122.116 Y104.515 E0.00964
G1 X122.189 Y104.193 E0.00588
G1 X122.260 Y103.977 E0.00406
G1 X122.385 Y103.689 E0.00559
G1 X122.548 Y103.406 E0.00581
G1 X122.742 Y103.142 E0.00585
G1 X122.823 Y103.050 E0.00218
G1 X127.180 Y103.055 E0.07763
G1 X127.327 Y103.229 E0.00406
G1 X127.510 Y103.499 E0.00581
G1 X127.662 Y103.789 E0.00585
G1 X127.840 Y104.302 E0.00967
G1 X127.920 Y104.839 E0.00967
G1 X127.900 Y105.382 E0.00967
G1 X127.779 Y105.911 E0.00967
G1 X127.616 Y106.309 E0.00767
G1 X127.452 Y106.594 E0.00585
G1 X127.294 Y106.810 E0.00478
M204 S1000
G1 X127.137 Y106.840 F10800.000
;BEFORE_LAYER_CHANGE
G92 E0.0
;0.4


G1 F8640
G1 X127.177 Y106.950 E-0.04208
G1 X124.068 Y106.950 E-0.71792
G1 E-0.04000 F2100.00000
G1 Z0.900 F10800.000
;AFTER_LAYER_CHANGE
;0.4
G1 X127.866 Y110.442
G1 Z0.400
G1 E0.80000 F2100.00000
G1 F900
G1 X122.519 Y110.489 E0.08859
G1 X121.746 Y110.348 E0.01302
G1 X121.023 Y110.028 E0.01310
G1 X120.321 Y109.468 E0.01487
G1 X119.548 Y108.482 E0.02076
G1 X119.006 Y107.436 E0.01953
G1 X118.654 Y106.259 E0.02034
G1 X118.531 Y105.105 E0.01923
G1 X118.622 Y103.912 E0.01982
G1 X118.930 Y102.761 E0.01975
G1 X119.444 Y101.685 E0.01975
G1 X119.982 Y100.916 E0.01555
G1 X120.553 Y100.312 E0.01377
G1 X121.156 Y99.897 E0.01213
G1 X121.832 Y99.627 E0.01206
G1 X122.649 Y99.506 E0.01369
G1 X127.283 Y99.505 E0.07678
G1 X127.865 Y99.557 E0.00968
G1 X128.433 Y99.713 E0.00976
G1 X128.965 Y99.966 E0.00976
G1 X129.440 Y100.306 E0.00968
G1 X130.406 Y101.446 E0.02475
G1 X131.068 Y102.755 E0.02431
G1 X131.415 Y104.157 E0.02394
G1 X131.442 Y105.597 E0.02386
G1 X131.150 Y107.008 E0.02386
G1 X130.556 Y108.315 E0.02379
G1 X129.987 Y109.122 E0.01637
G1 X129.336 Y109.780 E0.01533
G1 X128.642 Y110.202 E0.01347
G1 X127.923 Y110.425 E0.01247
G1 F8640
G1 X124.632 Y110.464 E-0.76000
G1 E-0.04000 F2100.00000
G1 Z1.000 F10800.000
G1 X127.122 Y106.725
G1 Z0.400
G1 E0.80000 F2100.00000
M204 S800
G1 F900
G1 X122.876 Y106.725 E0.07566
G1 X122.579 Y106.253 E0.00994
G1 X122.405 Y105.835 E0.00806
G1 X122.303 Y105.395 E0.00806
G1 X122.275 Y104.944 E0.00805
G1 X122.318 Y104.515 E0.00768
G1 X122.406 Y104.163 E0.00646
G1 X122.579 Y103.747 E0.00802
G1 X122.876 Y103.275 E0.00994
G1 X127.124 Y103.275 E0.07570
G1 X127.421 Y103.747 E0.00994
G1 X127.595 Y104.165 E0.00806
G1 X127.697 Y104.605 E0.00806
G1 X127.725 Y105.057 E0.00806
G1 X127.678 Y105.506 E0.00806
G1 X127.558 Y105.942 E0.00805
G1 X127.377 Y106.333 E0.00768
G1 X127.155 Y106.675 E0.00726
M204 S1000
G1 X127.055 Y107.119 F10800.000
G1 X127.258 Y106.858
M204 S800
G1 F900
G1 X127.177 Y106.950 E0.00218
G1 X122.823 Y106.950 E0.07758
G1 X122.548 Y106.594 E0.00802
G1 X122.295 Y106.113 E0.00966
G1 X122.136 Y105.593 E0.00971
G1 X122.076 Y105.055 E0.00964
G1 X122.116 Y104.515 E0.00964
G1 X122.189 Y104.193 E0.00587
G1 X122.262 Y103.972 E0.00416
G1 X122.385 Y103.689 E0.00549
G1 X122.548 Y103.406 E0.00581
G1 X122.742 Y103.142 E0.00585
G1 X122.823 Y103.050 E0.00218
G1 X127.176 Y103.050 E0.07755
G1 X127.327 Y103.228 E0.00417
G1 X127.510 Y103.499 E0.00581
G1 X127.662 Y103.789 E0.00585
G1 X127.840 Y104.302 E0.00967
G1 X127.920 Y104.839 E0.00967
G1 X127.900 Y105.382 E0.00967
G1 X127.779 Y105.911 E0.00967
G1 X127.616 Y106.309 E0.00767
G1 X127.452 Y106.594 E0.00585
G1 X127.294 Y106.810 E0.00478
M204 S1000
G1 X127.137 Y106.840 F10800.000
;BEFORE_LAYER_CHANGE
G92 E0.0
;0.5


G1 F8640
G1 X127.177 Y106.950 E-0.04208
G1 X124.068 Y106.950 E-0.71792
G1 E-0.04000 F2100.00000
G1 Z1.000 F10800.000
;AFTER_LAYER_CHANGE
;0.5
G1 X122.876 Y103.275
G1 Z0.500
G1 E0.80000 F2100.00000
M204 S800
G1 F900
G1 X127.124 Y103.275 E0.07570
G1 X127.421 Y103.747 E0.00994
G1 X127.595 Y104.165 E0.00806
G1 X127.697 Y104.605 E0.00806
G1 X127.725 Y105.057 E0.00806
G1 X127.678 Y105.506 E0.00806
G1 X127.558 Y105.940 E0.00801
G1 X127.420 Y106.254 E0.00613
G1 X127.124 Y106.725 E0.00990
G1 X122.876 Y106.725 E0.07570
G1 X122.579 Y106.253 E0.00994
G1 X122.405 Y105.835 E0.00806
G1 X122.303 Y105.395 E0.00806
G1 X122.275 Y104.946 E0.00801
G1 X122.303 Y104.603 E0.00613
G1 X122.405 Y104.165 E0.00801
G1 X122.579 Y103.747 E0.00806
G1 X122.844 Y103.326 E0.00887
M204 S1000
G1 X122.940 Y102.880 F10800.000
G1 X122.742 Y103.142
M204 S800
G1 F900
G1 X122.823 Y103.050 E0.00218
G1 X127.183 Y103.059 E0.07769
G1 X127.327 Y103.228 E0.00395
G1 X127.510 Y103.499 E0.00581
G1 X127.662 Y103.789 E0.00585
G1 X127.840 Y104.302 E0.00967
G1 X127.920 Y104.839 E0.00967
G1 X127.900 Y105.382 E0.00967
G1 X127.779 Y105.911 E0.00967
G1 X127.616 Y106.309 E0.00767
G1 X127.452 Y106.594 E0.00585
G1 X127.258 Y106.858 E0.00585
G1 X127.177 Y106.950 E0.00218
G1 X122.823 Y106.950 E0.07758
G1 X122.548 Y106.594 E0.00802
G1 X122.295 Y106.114 E0.00966
G1 X122.136 Y105.592 E0.00972
G1 X122.076 Y105.054 E0.00964
G1 X122.116 Y104.515 E0.00964
G1 X122.189 Y104.194 E0.00587
G1 X122.264 Y103.967 E0.00426
G1 X122.385 Y103.690 E0.00539
G1 X122.548 Y103.406 E0.00581
G1 X122.706 Y103.190 E0.00478
M204 S1000
G1 X122.862 Y103.160 F10800.000
;BEFORE_LAYER_CHANGE
G92 E0.0
;0.6


G1 F8640
G1 X122.823 Y103.050 E-0.04202
G1 X125.932 Y103.057 E-0.71798
G1 E-0.04000 F2100.00000
G1 Z1.100 F10800.000
;AFTER_LAYER_CHANGE
;0.6
G1 X122.876 Y103.275
G1 Z0.600
G1 E0.80000 F2100.00000
M204 S800
G1 F900
G1 X127.124 Y103.275 E0.07570
G1 X127.421 Y103.747 E0.00994
G1 X127.595 Y104.165 E0.00806
G1 X127.697 Y104.605 E0.00806
G1 X127.725 Y105.057 E0.00806
G1 X127.678 Y105.506 E0.00806
G1 X127.558 Y105.942 E0.00805
G1 X127.382 Y106.324 E0.00749
G1 X127.122 Y106.725 E0.00852
G1 X122.876 Y106.725 E0.07566
G1 X122.579 Y106.253 E0.00994
G1 X122.405 Y105.835 E0.00806
G1 X122.303 Y105.395 E0.00806
G1 X122.275 Y104.946 E0.00801
G1 X122.303 Y104.603 E0.00613
G1 X122.405 Y104.165 E0.00801
G1 X122.579 Y103.747 E0.00806
G1 X122.844 Y103.326 E0.00887
M204 S1000
G1 X122.940 Y102.880 F10800.000
G1 X122.742 Y103.142
M204 S800
G1 F900
G1 X122.822 Y103.050 E0.00218
G1 X127.185 Y103.062 E0.07773
G1 X127.327 Y103.228 E0.00390
G1 X127.510 Y103.499 E0.00581
G1 X127.662 Y103.789 E0.00585
G1 X127.840 Y104.302 E0.00967
G1 X127.920 Y104.839 E0.00967
G1 X127.900 Y105.382 E0.00967
G1 X127.779 Y105.911 E0.00967
G1 X127.616 Y106.309 E0.00767
G1 X127.452 Y106.594 E0.00585
G1 X127.258 Y106.858 E0.00585
G1 X127.177 Y106.950 E0.00218
G1 X122.823 Y106.950 E0.07758
G1 X122.548 Y106.594 E0.00802
G1 X122.296 Y106.114 E0.00966
G1 X122.136 Y105.592 E0.00972
G1 X122.076 Y105.054 E0.00964
G1 X122.116 Y104.515 E0.00964
G1 X122.189 Y104.194 E0.00587
G1 X122.266 Y103.961 E0.00436
G1 X122.385 Y103.690 E0.00529
G1 X122.548 Y103.406 E0.00582
G1 X122.706 Y103.190 E0.00478
M204 S1000
G1 X122.862 Y103.160 F10800.000
;BEFORE_LAYER_CHANGE
G92 E0.0
;0.7


G1 F8640
G1 X122.822 Y103.050 E-0.04200
G1 X125.932 Y103.058 E-0.71800
G1 E-0.04000 F2100.00000
G1 Z1.200 F10800.000
;AFTER_LAYER_CHANGE
;0.7
G1 X122.876 Y103.275
G1 Z0.700
G1 E0.80000 F2100.00000
M204 S800
G1 F900
G1 X127.124 Y103.275 E0.07570
