;FLAVOR:Marlin
;TIME:1512
;Filament used: 0.895646m
;Layer height: 0.2
;MINX:71.25
;MINY:86.4
;MINZ:0.3
;MAXX:128.75
;MAXY:113.6
;MAXZ:5.7
;Generated with Cura_SteamEngine 4.4.1
M140 S45
M105
M190 S45
M104 S200
M105
M109 S200
M82 ;absolute extrusion mode
G21 ;metric values
 G90 ;absolute positioning
 M82 ;set extruder to absolute mode
 M107 ;start with the fan off
 G28 X0 Y0 ;move X/Y to min endstops
 G28 Z0 ;move Z to min endstops
 G1 Z15.0 F120 ;move the platform down 15mm
 G92 E0 ;zero the extruded length
 G1 F200 E6 ;extrude 6 mm of feed stock
 G92 E0 ;zero the extruded length again
 G1 F120 
 ;Put printing message on LCD screen
 M117 Printing...
G92 E0
G92 E0
G1 F1500 E-6.5
;LAYER_COUNT:28
;LAYER:0
M107
G0 F3600 X72.644 Y87.171 Z0.3
;TYPE:SKIRT
G1 F1500 E0
G1 F900 X73.091 Y86.873 E0.0268
G1 X73.576 Y86.645 E0.05354
G1 X74.09 Y86.492 E0.08029
G1 X74.758 Y86.41 E0.11387
G1 X75.079 Y86.401 E0.12989
G1 X75.18 Y86.4 E0.13493
G1 X124.495 Y86.4 E2.59527
G1 X125.193 Y86.41 E2.63009
G1 X125.727 Y86.458 E2.65684
G1 X126.248 Y86.584 E2.68359
G1 X126.745 Y86.787 E2.71037
G1 X127.206 Y87.061 E2.73712
G1 X127.621 Y87.4 E2.76386
G1 X127.981 Y87.798 E2.79063
G1 X128.278 Y88.244 E2.81737
G1 X128.506 Y88.73 E2.84415
G1 X128.658 Y89.244 E2.87089
G1 X128.74 Y89.909 E2.90432
G1 X128.749 Y90.229 E2.92029
G1 X128.75 Y90.33 E2.92533
G1 X128.75 Y109.309 E3.87219
G1 X128.741 Y110.036 E3.90847
G1 X128.694 Y110.57 E3.93521
G1 X128.569 Y111.091 E3.96194
G1 X128.367 Y111.588 E3.98871
G1 X128.094 Y112.05 E4.01548
G1 X127.756 Y112.466 E4.04222
G1 X127.359 Y112.827 E4.06899
G1 X126.913 Y113.125 E4.09575
G1 X126.428 Y113.353 E4.12249
G1 X125.914 Y113.507 E4.14926
G1 X125.242 Y113.59 E4.18304
G1 X124.921 Y113.599 E4.19906
G1 X124.82 Y113.6 E4.2041
G1 X75.511 Y113.6 E6.66414
G1 X74.813 Y113.591 E6.69896
G1 X74.278 Y113.544 E6.72576
G1 X73.757 Y113.418 E6.7525
G1 X73.26 Y113.216 E6.77926
G1 X72.799 Y112.943 E6.80599
G1 X72.383 Y112.604 E6.83277
G1 X72.022 Y112.208 E6.8595
G1 X71.724 Y111.762 E6.88626
G1 X71.496 Y111.276 E6.91304
G1 X71.343 Y110.762 E6.9398
G1 X71.26 Y110.088 E6.97368
G1 X71.251 Y109.755 E6.9903
G1 X71.25 Y109.658 E6.99514
G1 X71.25 Y90.625 E7.9447
G1 X71.259 Y89.96 E7.97788
G1 X71.307 Y89.426 E8.00463
G1 X71.433 Y88.905 E8.03137
G1 X71.635 Y88.408 E8.05813
G1 X71.908 Y87.947 E8.08486
G1 X72.247 Y87.531 E8.11164
G1 X72.644 Y87.171 E8.13837
G0 F3600 X73.03 Y87.383
G1 F900 X73.467 Y87.128 E8.16362
G1 X73.938 Y86.944 E8.18884
G1 X74.432 Y86.838 E8.21405
G1 X74.769 Y86.81 E8.23092
G1 X75.09 Y86.801 E8.24694
G1 X75.18 Y86.8 E8.25143
G1 X124.489 Y86.8 E10.71147
G1 X125.187 Y86.81 E10.7463
G1 X125.69 Y86.857 E10.7715
G1 X126.18 Y86.983 E10.79674
G1 X126.644 Y87.185 E10.82199
G1 X127.07 Y87.457 E10.84721
G1 X127.448 Y87.792 E10.8724
G1 X127.768 Y88.183 E10.89761
G1 X128.023 Y88.62 E10.92285
G1 X128.206 Y89.091 E10.94806
G1 X128.313 Y89.585 E10.97328
G1 X128.34 Y89.92 E10.99005
G1 X128.349 Y90.24 E11.00602
G1 X128.35 Y90.33 E11.01051
G1 X128.35 Y109.304 E11.95713
G1 X128.341 Y110.031 E11.9934
G1 X128.295 Y110.534 E12.0186
G1 X128.17 Y111.024 E12.04383
G1 X127.969 Y111.488 E12.06906
G1 X127.698 Y111.915 E12.09429
G1 X127.363 Y112.294 E12.11952
G1 X126.973 Y112.615 E12.14472
G1 X126.537 Y112.871 E12.16995
G1 X126.066 Y113.054 E12.19516
G1 X125.572 Y113.162 E12.22039
G1 X125.231 Y113.19 E12.23746
G1 X124.91 Y113.199 E12.25348
G1 X124.82 Y113.2 E12.25797
G1 X75.516 Y113.2 E14.71775
G1 X74.818 Y113.191 E14.75258
G1 X74.314 Y113.144 E14.77783
G1 X73.824 Y113.019 E14.80306
G1 X73.36 Y112.818 E14.82829
G1 X72.934 Y112.547 E14.85348
G1 X72.555 Y112.212 E14.87872
G1 X72.234 Y111.821 E14.90395
G1 X71.979 Y111.385 E14.92915
G1 X71.795 Y110.914 E14.95438
G1 X71.688 Y110.42 E14.9796
G1 X71.66 Y110.077 E14.99677
G1 X71.651 Y109.744 E15.01339
G1 X71.65 Y109.658 E15.01768
G1 X71.65 Y90.631 E15.96694
G1 X71.659 Y89.966 E16.00012
G1 X71.706 Y89.462 E16.02537
G1 X71.832 Y88.973 E16.05057
G1 X72.033 Y88.509 E16.07579
G1 X72.304 Y88.082 E16.10102
G1 X72.639 Y87.704 E16.12622
G1 X73.03 Y87.383 E16.15146
G1 F1500 E9.65146
;MESH:MotherBoardPedestal.stl
G0 F3600 X75.464 Y89.335
G0 X75.464 Y90.614
G0 X75.52 Y109.33
G0 X75.45 Y109.4
;TYPE:WALL-INNER
G1 F1500 E16.15146
G1 F900 X75.45 Y90.6 E17.0894
G1 X124.55 Y90.6 E19.53901
G1 X124.55 Y109.4 E20.47694
G1 X75.45 Y109.4 E22.92655
G0 F3600 X75.05 Y109.8
;TYPE:WALL-OUTER
G1 F900 X75.05 Y90.2 E23.9044
G1 X124.95 Y90.2 E26.39392
G1 X124.95 Y109.8 E27.37177
G1 X75.05 Y109.8 E29.86129
G0 F3600 X75.05 Y109.6
G0 X75.84 Y109.01
;TYPE:SKIN
G1 F900 X75.84 Y90.99 E30.76031
G1 X124.16 Y90.99 E33.17101
G1 X124.16 Y109.01 E34.07003
G1 X75.84 Y109.01 E36.48072
G0 F3600 X76.585 Y108.829
G1 F900 X76.019 Y108.263 E36.52066
G0 F3600 X76.019 Y107.698
G1 F900 X77.151 Y108.829 E36.60049
G0 F3600 X77.716 Y108.829
G1 F900 X76.019 Y107.132 E36.72022
G0 F3600 X76.019 Y106.566
G1 F900 X78.282 Y108.829 E36.87989
G0 F3600 X78.848 Y108.829
G1 F900 X76.019 Y106 E37.07949
G0 F3600 X76.019 Y105.435
G1 F900 X79.413 Y108.829 E37.31896
G0 F3600 X79.979 Y108.829
G1 F900 X76.019 Y104.869 E37.59836
G0 F3600 X76.019 Y104.303
G1 F900 X80.545 Y108.829 E37.91769
G0 F3600 X81.11 Y108.829
G1 F900 X76.019 Y103.738 E38.27689
G0 F3600 X76.019 Y103.172
G1 F900 X81.676 Y108.829 E38.67602
G0 F3600 X82.242 Y108.829
G1 F900 X76.019 Y102.606 E39.11508
G0 F3600 X76.019 Y102.041
G1 F900 X82.807 Y108.829 E39.59401
G0 F3600 X83.373 Y108.829
G1 F900 X76.019 Y101.475 E40.11288
G0 F3600 X76.019 Y100.909
G1 F900 X83.939 Y108.829 E40.67168
G0 F3600 X84.504 Y108.829
G1 F900 X76.019 Y100.344 E41.27034
G0 F3600 X76.019 Y99.778
G1 F900 X85.07 Y108.829 E41.90894
G0 F3600 X85.636 Y108.829
G1 F900 X76.019 Y99.212 E42.58747
G0 F3600 X76.019 Y98.647
G1 F900 X86.201 Y108.829 E43.30586
G0 F3600 X86.767 Y108.829
G1 F900 X76.019 Y98.081 E44.06419
G0 F3600 X76.019 Y97.515
G1 F900 X87.333 Y108.829 E44.86246
G0 F3600 X87.899 Y108.829
G1 F900 X76.019 Y96.949 E45.70066
G0 F3600 X76.019 Y96.384
G1 F900 X88.464 Y108.829 E46.57872
G0 F3600 X89.03 Y108.829
G1 F900 X76.019 Y95.818 E47.49671
G0 F3600 X76.019 Y95.252
G1 F900 X89.596 Y108.829 E48.45464
G0 F3600 X90.161 Y108.829
G1 F900 X76.019 Y94.687 E49.45244
G0 F3600 X76.019 Y94.121
G1 F900 X90.727 Y108.829 E50.49017
G0 F3600 X91.293 Y108.829
G1 F900 X76.019 Y93.555 E51.56783
G0 F3600 X76.019 Y92.99
G1 F900 X91.858 Y108.829 E52.68536
G0 F3600 X92.424 Y108.829
G1 F900 X76.019 Y92.424 E53.84282
G0 F3600 X76.019 Y91.858
G1 F900 X92.99 Y108.829 E55.04021
G0 F3600 X93.555 Y108.829
G1 F900 X76.019 Y91.293 E56.27747
G0 F3600 X76.462 Y91.17
G1 F900 X94.121 Y108.829 E57.52341
G0 F3600 X94.687 Y108.829
G1 F900 X77.027 Y91.17 E58.76939
G0 F3600 X77.593 Y91.17
G1 F900 X95.252 Y108.829 E60.01532
G0 F3600 X95.818 Y108.829
G1 F900 X78.159 Y91.17 E61.26126
G0 F3600 X78.725 Y91.17
G1 F900 X96.384 Y108.829 E62.5072
G0 F3600 X96.949 Y108.829
G1 F900 X79.29 Y91.17 E63.75314
G0 F3600 X79.856 Y91.17
G1 F900 X97.515 Y108.829 E64.99907
G0 F3600 X98.081 Y108.829
G1 F900 X80.422 Y91.17 E66.24501
G0 F3600 X80.987 Y91.17
G1 F900 X98.647 Y108.829 E67.49099
G0 F3600 X99.212 Y108.829
G1 F900 X81.553 Y91.17 E68.73692
G0 F3600 X82.119 Y91.17
G1 F900 X99.778 Y108.829 E69.98286
G0 F3600 X100.344 Y108.829
G1 F900 X82.684 Y91.17 E71.22883
G0 F3600 X83.25 Y91.17
G1 F900 X100.909 Y108.829 E72.47477
G0 F3600 X101.475 Y108.829
G1 F900 X83.816 Y91.17 E73.72071
G0 F3600 X84.381 Y91.17
G1 F900 X102.041 Y108.829 E74.96668
G0 F3600 X102.606 Y108.829
G1 F900 X84.947 Y91.17 E76.21262
G0 F3600 X85.513 Y91.17
G1 F900 X103.172 Y108.829 E77.45856
G0 F3600 X103.738 Y108.829
G1 F900 X86.078 Y91.17 E78.70453
G0 F3600 X86.644 Y91.17
G1 F900 X104.303 Y108.829 E79.95047
G0 F3600 X104.869 Y108.829
G1 F900 X87.21 Y91.17 E81.19641
G0 F3600 X87.775 Y91.17
G1 F900 X105.435 Y108.829 E82.44238
G0 F3600 X106 Y108.829
G1 F900 X88.341 Y91.17 E83.68832
G0 F3600 X88.907 Y91.17
G1 F900 X106.566 Y108.829 E84.93426
G0 F3600 X107.132 Y108.829
G1 F900 X89.473 Y91.17 E86.18019
G0 F3600 X90.038 Y91.17
G1 F900 X107.698 Y108.829 E87.42617
G0 F3600 X108.263 Y108.829
G1 F900 X90.604 Y91.17 E88.6721
G0 F3600 X91.17 Y91.17
G1 F900 X108.829 Y108.829 E89.91804
G0 F3600 X109.395 Y108.829
G1 F900 X91.735 Y91.17 E91.16402
G0 F3600 X92.301 Y91.17
G1 F900 X109.96 Y108.829 E92.40995
G0 F3600 X110.526 Y108.829
G1 F900 X92.867 Y91.17 E93.65589
G0 F3600 X93.432 Y91.17
G1 F900 X111.092 Y108.829 E94.90186
G0 F3600 X111.657 Y108.829
G1 F900 X93.998 Y91.17 E96.1478
G0 F3600 X94.564 Y91.17
G1 F900 X112.223 Y108.829 E97.39374
G0 F3600 X112.789 Y108.829
G1 F900 X95.129 Y91.17 E98.63971
G0 F3600 X95.695 Y91.17
G1 F900 X113.354 Y108.829 E99.88565
G0 F3600 X113.92 Y108.829
G1 F900 X96.261 Y91.17 E101.13159
G0 F3600 X96.826 Y91.17
G1 F900 X114.486 Y108.829 E102.37756
G0 F3600 X115.051 Y108.829
G1 F900 X97.392 Y91.17 E103.6235
G0 F3600 X97.958 Y91.17
G1 F900 X115.617 Y108.829 E104.86944
G0 F3600 X116.183 Y108.829
G1 F900 X98.524 Y91.17 E106.11538
G0 F3600 X99.089 Y91.17
G1 F900 X116.748 Y108.829 E107.36131
G0 F3600 X117.314 Y108.829
G1 F900 X99.655 Y91.17 E108.60725
G0 F3600 X100.221 Y91.17
G1 F900 X117.88 Y108.829 E109.85319
G0 F3600 X118.446 Y108.829
G1 F900 X100.786 Y91.17 E111.09916
G0 F3600 X101.352 Y91.17
G1 F900 X119.011 Y108.829 E112.3451
G0 F3600 X119.577 Y108.829
G1 F900 X101.918 Y91.17 E113.59104
G0 F3600 X102.483 Y91.17
G1 F900 X120.143 Y108.829 E114.83701
G0 F3600 X120.708 Y108.829
G1 F900 X103.049 Y91.17 E116.08295
G0 F3600 X103.615 Y91.17
G1 F900 X121.274 Y108.829 E117.32889
G0 F3600 X121.84 Y108.829
G1 F900 X104.18 Y91.17 E118.57486
G0 F3600 X104.746 Y91.17
G1 F900 X122.405 Y108.829 E119.8208
G0 F3600 X122.971 Y108.829
G1 F900 X105.312 Y91.17 E121.06674
G0 F3600 X105.877 Y91.17
G1 F900 X123.537 Y108.829 E122.31271
G0 F3600 X123.979 Y108.706
G1 F900 X106.443 Y91.17 E123.54997
G0 F3600 X107.009 Y91.17
G1 F900 X123.979 Y108.14 E124.74729
G0 F3600 X123.979 Y107.574
G1 F900 X107.574 Y91.17 E125.90472
G0 F3600 X108.14 Y91.17
G1 F900 X123.979 Y107.009 E127.02225
G0 F3600 X123.979 Y106.443
G1 F900 X108.706 Y91.17 E128.09984
G0 F3600 X109.272 Y91.17
G1 F900 X123.979 Y105.877 E129.1375
G0 F3600 X123.979 Y105.312
G1 F900 X109.837 Y91.17 E130.13529
G0 F3600 X110.403 Y91.17
G1 F900 X123.979 Y104.746 E131.09315
G0 F3600 X123.979 Y104.18
G1 F900 X110.969 Y91.17 E132.01108
G0 F3600 X111.534 Y91.17
G1 F900 X123.979 Y103.615 E132.88914
G0 F3600 X123.979 Y103.049
G1 F900 X112.1 Y91.17 E133.72727
G0 F3600 X112.666 Y91.17
G1 F900 X123.979 Y102.483 E134.52546
G0 F3600 X123.979 Y101.918
G1 F900 X113.231 Y91.17 E135.28379
G0 F3600 X113.797 Y91.17
G1 F900 X123.979 Y101.352 E136.00218
G0 F3600 X123.979 Y100.786
G1 F900 X114.363 Y91.17 E136.68065
G0 F3600 X114.928 Y91.17
G1 F900 X123.979 Y100.221 E137.31924
G0 F3600 X123.979 Y99.655
G1 F900 X115.494 Y91.17 E137.9179
G0 F3600 X116.06 Y91.17
G1 F900 X123.979 Y99.089 E138.47663
G0 F3600 X123.979 Y98.524
G1 F900 X116.625 Y91.17 E138.9955
G0 F3600 X117.191 Y91.17
G1 F900 X123.979 Y97.958 E139.47443
G0 F3600 X123.979 Y97.392
G1 F900 X117.757 Y91.17 E139.91342
G0 F3600 X118.323 Y91.17
G1 F900 X123.979 Y96.826 E140.31248
G0 F3600 X123.979 Y96.261
G1 F900 X118.888 Y91.17 E140.67168
G0 F3600 X119.454 Y91.17
G1 F900 X123.979 Y95.695 E140.99095
G0 F3600 X123.979 Y95.129
G1 F900 X120.02 Y91.17 E141.27027
G0 F3600 X120.585 Y91.17
G1 F900 X123.979 Y94.564 E141.50974
G0 F3600 X123.979 Y93.998
G1 F900 X121.151 Y91.17 E141.70927
G0 F3600 X121.717 Y91.17
G1 F900 X123.979 Y93.432 E141.86887
G0 F3600 X123.979 Y92.867
G1 F900 X122.282 Y91.17 E141.9886
G0 F3600 X122.848 Y91.17
G1 F900 X123.979 Y92.301 E142.0684
G0 F3600 X123.979 Y91.735
G1 F900 X123.414 Y91.17 E142.10826
;MESH:NONMESH
G0 F600 X123.414 Y91.17 Z0.5
G0 F3600 X75.52 Y109.33
G0 X75.45 Y109.4
;TIME_ELAPSED:197.654822
;LAYER:1
M140 S45
M106 S255
;TYPE:WALL-INNER
;MESH:MotherBoardPedestal.stl
G1 F1350 X75.45 Y90.6 E142.73355
G1 X124.55 Y90.6 E144.36662
G1 X124.55 Y109.4 E144.99191
G1 X75.45 Y109.4 E146.62499
G0 F5400 X75.05 Y109.8
;TYPE:WALL-OUTER
G1 F900 X75.05 Y90.2 E147.27689
G1 X124.95 Y90.2 E148.93657
G1 X124.95 Y109.8 E149.58847
G1 X75.05 Y109.8 E151.24815
G0 F5400 X75.05 Y109.6
G0 X75.84 Y109.01
;TYPE:SKIN
G1 F900 X75.84 Y90.99 E151.84749
G1 X124.16 Y90.99 E153.45462
G1 X124.16 Y109.01 E154.05397
G1 X75.84 Y109.01 E155.6611
G0 F5400 X76.02 Y91.422
G1 F900 X76.273 Y91.169 E155.673
G0 F5400 X76.839 Y91.169
G1 F900 X76.02 Y91.988 E155.71152
G0 F5400 X76.02 Y92.553
G1 F900 X77.404 Y91.169 E155.77662
G0 F5400 X77.97 Y91.169
G1 F900 X76.02 Y93.119 E155.86835
G0 F5400 X76.02 Y93.685
G1 F900 X78.536 Y91.169 E155.98669
G0 F5400 X79.101 Y91.169
G1 F900 X76.02 Y94.25 E156.13161
G0 F5400 X76.02 Y94.816
G1 F900 X79.667 Y91.169 E156.30315
G0 F5400 X80.233 Y91.169
G1 F900 X76.02 Y95.382 E156.50132
G0 F5400 X76.02 Y95.948
G1 F900 X80.798 Y91.169 E156.72609
G0 F5400 X81.364 Y91.169
G1 F900 X76.02 Y96.513 E156.97745
G0 F5400 X76.02 Y97.079
G1 F900 X81.93 Y91.169 E157.25544
G0 F5400 X82.496 Y91.169
G1 F900 X76.02 Y97.645 E157.56005
G0 F5400 X76.02 Y98.21
G1 F900 X83.061 Y91.169 E157.89124
G0 F5400 X83.627 Y91.169
G1 F900 X76.02 Y98.776 E158.24905
G0 F5400 X76.02 Y99.342
G1 F900 X84.193 Y91.169 E158.63348
G0 F5400 X84.758 Y91.169
G1 F900 X76.02 Y99.907 E159.04449
G0 F5400 X76.02 Y100.473
G1 F900 X85.324 Y91.169 E159.48212
G0 F5400 X85.89 Y91.169
G1 F900 X76.02 Y101.039 E159.94638
G0 F5400 X76.02 Y101.604
G1 F900 X86.455 Y91.169 E160.43721
G0 F5400 X87.021 Y91.169
G1 F900 X76.02 Y102.17 E160.95466
G0 F5400 X76.02 Y102.736
G1 F900 X87.587 Y91.169 E161.49874
G0 F5400 X88.152 Y91.169
G1 F900 X76.02 Y103.301 E162.06939
G0 F5400 X76.02 Y103.867
G1 F900 X88.718 Y91.169 E162.66666
G0 F5400 X89.284 Y91.169
G1 F900 X76.02 Y104.433 E163.29056
G0 F5400 X76.02 Y104.998
G1 F900 X89.849 Y91.169 E163.94104
G0 F5400 X90.415 Y91.169
G1 F900 X76.02 Y105.564 E164.61813
G0 F5400 X76.02 Y106.13
G1 F900 X90.981 Y91.169 E165.32185
G0 F5400 X91.546 Y91.169
G1 F900 X76.02 Y106.696 E166.05217
G0 F5400 X76.02 Y107.261
G1 F900 X92.112 Y91.169 E166.80909
G0 F5400 X92.678 Y91.169
G1 F900 X76.02 Y107.827 E167.59263
G0 F5400 X76.02 Y108.393
G1 F900 X93.244 Y91.169 E168.40279
G0 F5400 X93.809 Y91.169
G1 F900 X76.149 Y108.83 E169.23349
G0 F5400 X76.714 Y108.83
G1 F900 X94.375 Y91.169 E170.06421
G0 F5400 X94.941 Y91.169
G1 F900 X77.28 Y108.83 E170.89493
G0 F5400 X77.846 Y108.83
G1 F900 X95.506 Y91.169 E171.72562
G0 F5400 X96.072 Y91.169
G1 F900 X78.411 Y108.83 E172.55634
G0 F5400 X78.977 Y108.83
G1 F900 X96.638 Y91.169 E173.38706
G0 F5400 X97.203 Y91.169
G1 F900 X79.543 Y108.83 E174.21776
G0 F5400 X80.108 Y108.83
G1 F900 X97.769 Y91.169 E175.04848
G0 F5400 X98.335 Y91.169
G1 F900 X80.674 Y108.83 E175.8792
G0 F5400 X81.24 Y108.83
G1 F900 X98.9 Y91.169 E176.70989
G0 F5400 X99.466 Y91.169
G1 F900 X81.805 Y108.83 E177.54061
G0 F5400 X82.371 Y108.83
G1 F900 X100.032 Y91.169 E178.37133
G0 F5400 X100.597 Y91.169
G1 F900 X82.937 Y108.83 E179.20203
G0 F5400 X83.502 Y108.83
G1 F900 X101.163 Y91.169 E180.03275
G0 F5400 X101.729 Y91.169
G1 F900 X84.068 Y108.83 E180.86347
G0 F5400 X84.634 Y108.83
G1 F900 X102.295 Y91.169 E181.69419
G0 F5400 X102.86 Y91.169
G1 F900 X85.2 Y108.83 E182.52488
G0 F5400 X85.765 Y108.83
G1 F900 X103.426 Y91.169 E183.3556
G0 F5400 X103.992 Y91.169
G1 F900 X86.331 Y108.83 E184.18632
G0 F5400 X86.897 Y108.83
G1 F900 X104.557 Y91.169 E185.01702
G0 F5400 X105.123 Y91.169
G1 F900 X87.462 Y108.83 E185.84774
G0 F5400 X88.028 Y108.83
G1 F900 X105.689 Y91.169 E186.67845
G0 F5400 X106.254 Y91.169
G1 F900 X88.594 Y108.83 E187.50915
G0 F5400 X89.159 Y108.83
G1 F900 X106.82 Y91.169 E188.33987
G0 F5400 X107.386 Y91.169
G1 F900 X89.725 Y108.83 E189.17059
G0 F5400 X90.291 Y108.83
G1 F900 X107.951 Y91.169 E190.00128
G0 F5400 X108.517 Y91.169
G1 F900 X90.856 Y108.83 E190.832
G0 F5400 X91.422 Y108.83
G1 F900 X109.083 Y91.169 E191.66272
G0 F5400 X109.648 Y91.169
G1 F900 X91.988 Y108.83 E192.49342
G0 F5400 X92.553 Y108.83
G1 F900 X110.214 Y91.169 E193.32414
G0 F5400 X110.78 Y91.169
G1 F900 X93.119 Y108.83 E194.15486
G0 F5400 X93.685 Y108.83
G1 F900 X111.345 Y91.169 E194.98555
G0 F5400 X111.911 Y91.169
