;FLAVOR:Marlin
;TIME:26959
;Filament used: 16.9414m
;Layer height: 0.2
;MINX:41.8
;MINY:65.8
;MINZ:0.3
;MAXX:158.2
;MAXY:134.2
;MAXZ:34.9
;Generated with Cura_SteamEngine 4.4.1
M140 S45
M105
M190 S45
M104 S200
M105
M109 S200
M82 ;absolute extrusion mode
G21 ;metric values
 G90 ;absolute positioning
 M82 ;set extruder to absolute mode
 M107 ;start with the fan off
 G28 X0 Y0 ;move X/Y to min endstops
 G28 Z0 ;move Z to min endstops
 G1 Z15.0 F120 ;move the platform down 15mm
 G92 E0 ;zero the extruded length
 G1 F200 E6 ;extrude 6 mm of feed stock
 G92 E0 ;zero the extruded length again
 G1 F120 
 ;Put printing message on LCD screen
 M117 Printing...
G92 E0
G92 E0
G1 F1500 E-6.5
;LAYER_COUNT:174
;LAYER:0
M107
G0 F3600 X43.18 Y66.383 Z0.3
;TYPE:SKIRT
G1 F1500 E0
G1 F900 X43.617 Y66.128 E0.02524
G1 X44.088 Y65.944 E0.05047
G1 X44.582 Y65.838 E0.07568
G1 X44.919 Y65.81 E0.09255
G1 X45.24 Y65.801 E0.10857
G1 X45.33 Y65.8 E0.11306
G1 X154.339 Y65.8 E5.55154
G1 X155.037 Y65.81 E5.58637
G1 X155.54 Y65.857 E5.61157
G1 X156.03 Y65.983 E5.63681
G1 X156.494 Y66.185 E5.66206
G1 X156.92 Y66.457 E5.68728
G1 X157.298 Y66.792 E5.71248
G1 X157.618 Y67.183 E5.73768
G1 X157.873 Y67.62 E5.76292
G1 X158.056 Y68.091 E5.78813
G1 X158.163 Y68.585 E5.81335
G1 X158.19 Y68.92 E5.83012
G1 X158.199 Y69.24 E5.84609
G1 X158.2 Y69.33 E5.85058
G1 X158.2 Y130.304 E8.89259
G1 X158.191 Y131.031 E8.92886
G1 X158.145 Y131.534 E8.95406
G1 X158.02 Y132.024 E8.97929
G1 X157.819 Y132.488 E9.00452
G1 X157.548 Y132.915 E9.02975
G1 X157.213 Y133.294 E9.05498
G1 X156.823 Y133.615 E9.08018
G1 X156.387 Y133.871 E9.10541
G1 X155.916 Y134.054 E9.13062
G1 X155.422 Y134.162 E9.15584
G1 X155.081 Y134.19 E9.17291
G1 X154.76 Y134.199 E9.18894
G1 X154.67 Y134.2 E9.19343
G1 X45.666 Y134.2 E14.63166
G1 X44.968 Y134.191 E14.66648
G1 X44.464 Y134.144 E14.69174
G1 X43.974 Y134.019 E14.71697
G1 X43.51 Y133.818 E14.74219
G1 X43.084 Y133.547 E14.76738
G1 X42.705 Y133.212 E14.79262
G1 X42.384 Y132.821 E14.81786
G1 X42.129 Y132.385 E14.84306
G1 X41.945 Y131.914 E14.86829
G1 X41.838 Y131.42 E14.8935
G1 X41.81 Y131.077 E14.91067
G1 X41.801 Y130.744 E14.92729
G1 X41.8 Y130.658 E14.93158
G1 X41.8 Y69.631 E17.97623
G1 X41.809 Y68.966 E18.00941
G1 X41.856 Y68.462 E18.03467
G1 X41.982 Y67.973 E18.05986
G1 X42.183 Y67.509 E18.08509
G1 X42.454 Y67.082 E18.11032
G1 X42.789 Y66.704 E18.13552
G1 X43.18 Y66.383 E18.16076
G1 F1500 E11.66076
;MESH:MBbox.stl
G0 F3600 X45.614 Y68.335
G0 X45.614 Y69.614
G0 X48.33 Y129.67
G0 X48.4 Y129.6
;TYPE:WALL-INNER
G1 F1500 E18.16076
G1 F900 X151.6 Y129.6 E23.30942
G1 X151.6 Y126.4 E23.46907
G1 X48.4 Y126.4 E28.61774
G1 X48.4 Y129.6 E28.77739
G0 F3600 X48.33 Y129.67
G0 X45.67 Y130.33
G0 X45.6 Y130.4
G1 F900 X45.6 Y69.6 E31.81071
G1 X154.4 Y69.6 E37.23877
G1 X154.4 Y130.4 E40.27209
G1 X45.6 Y130.4 E45.70015
G0 F3600 X45.67 Y130.33
G0 X48.372 Y126.372
G0 X142.33 Y116.67
G0 X142.4 Y116.6
G1 F900 X149.6 Y116.6 E46.05936
G1 X149.6 Y83.4 E47.71571
G1 X142.4 Y83.4 E48.07492
G1 X142.4 Y116.6 E49.73128
G0 F3600 X142.33 Y116.67
G0 X142.372 Y83.372
G0 X151.67 Y73.67
G0 X151.6 Y73.6
G1 F900 X151.6 Y70.4 E49.89092
G1 X48.4 Y70.4 E55.03959
G1 X48.4 Y73.576 E55.19804
G1 X50.005 Y73.6 E55.27813
G1 X151.6 Y73.6 E60.34672
G0 F3600 X151.2 Y73.2
;TYPE:WALL-OUTER
G1 F900 X151.2 Y70.8 E60.46646
G1 X48.8 Y70.8 E65.57522
G1 X48.8 Y73.182 E65.69405
G1 X50.008 Y73.2 E65.75433
G1 X151.2 Y73.2 E70.80282
G0 F3600 X151.2 Y73
G0 X151.7 Y73
G0 X142.372 Y83.372
G0 X142.3 Y116.2
G0 X142.8 Y116.2
G1 F900 X149.2 Y116.2 E71.12211
G1 X149.2 Y83.8 E72.73856
G1 X142.8 Y83.8 E73.05785
G1 X142.8 Y116.2 E74.6743
G0 F3600 X143 Y116.2
G0 X143 Y116.7
G0 X48.372 Y126.372
G0 X48.3 Y129.2
G0 X48.8 Y129.2
G1 F900 X151.2 Y129.2 E79.78305
G1 X151.2 Y126.8 E79.90279
G1 X48.8 Y126.8 E85.01155
G1 X48.8 Y129.2 E85.13128
G0 F3600 X49 Y129.2
G0 X49 Y129.7
G0 X45.67 Y130.33
G0 X45.2 Y130.8
G1 F900 X45.2 Y69.2 E88.20452
G1 X154.8 Y69.2 E93.67249
G1 X154.8 Y130.8 E96.74572
G1 X45.2 Y130.8 E102.21369
G0 F3600 X45.2 Y130.6
G0 X45.99 Y130.01
;TYPE:SKIN
G1 F900 X45.99 Y69.99 E105.2081
G1 X154.01 Y69.99 E110.59724
G1 X154.01 Y130.01 E113.59165
G1 X45.99 Y130.01 E118.98079
G0 F3600 X48.01 Y129.99
G1 F900 X151.99 Y129.99 E124.16837
G1 X151.99 Y126.01 E124.36693
G1 X48.01 Y126.01 E129.55452
G1 X48.01 Y129.99 E129.75308
G0 F3600 X48.01 Y73.96
G1 F900 X50.003 Y73.99 E129.85252
G1 X151.99 Y73.99 E134.94068
G1 X151.99 Y70.01 E135.13924
G1 X48.01 Y70.01 E140.32682
G1 X48.01 Y73.96 E140.52389
G0 F3600 X142.01 Y116.99
G1 F900 X149.99 Y116.99 E140.92201
G1 X149.99 Y83.01 E142.61728
G1 X142.01 Y83.01 E143.0154
G1 X142.01 Y116.99 E144.71067
G0 F3600 X149.628 Y116.628
G0 X153.828 Y70.673
G1 F900 X153.326 Y70.17 E144.74613
G0 F3600 X152.76 Y70.17
G1 F900 X153.828 Y71.238 E144.82148
G0 F3600 X153.828 Y71.804
G1 F900 X152.194 Y70.17 E144.93677
G0 F3600 X152.169 Y70.71
G1 F900 X153.828 Y72.37 E145.05386
G0 F3600 X153.828 Y72.935
G1 F900 X152.169 Y71.276 E145.17091
G0 F3600 X152.169 Y71.842
G1 F900 X153.828 Y73.501 E145.28796
G0 F3600 X153.828 Y74.067
G1 F900 X152.169 Y72.407 E145.40504
G0 F3600 X152.169 Y72.973
G1 F900 X153.828 Y74.632 E145.5221
G0 F3600 X153.828 Y75.198
G1 F900 X152.169 Y73.539 E145.63915
G0 F3600 X152.169 Y74.104
G1 F900 X153.828 Y75.764 E145.75623
G0 F3600 X153.828 Y76.33
G1 F900 X151.668 Y74.169 E145.90867
G0 F3600 X151.103 Y74.169
G1 F900 X153.828 Y76.895 E146.10097
G0 F3600 X153.828 Y77.461
G1 F900 X150.537 Y74.169 E146.3332
G0 F3600 X149.971 Y74.169
G1 F900 X153.828 Y78.027 E146.60537
G0 F3600 X153.828 Y78.592
G1 F900 X149.406 Y74.169 E146.9174
G0 F3600 X148.84 Y74.169
G1 F900 X153.828 Y79.158 E147.26937
G0 F3600 X153.828 Y79.724
G1 F900 X148.274 Y74.169 E147.66127
G0 F3600 X147.708 Y74.169
G1 F900 X153.828 Y80.289 E148.09306
G0 F3600 X153.828 Y80.855
G1 F900 X147.143 Y74.169 E148.56476
G0 F3600 X146.577 Y74.169
G1 F900 X153.828 Y81.421 E149.07639
G0 F3600 X153.828 Y81.986
G1 F900 X146.011 Y74.169 E149.62793
G0 F3600 X145.446 Y74.169
G1 F900 X153.828 Y82.552 E150.21936
G0 F3600 X153.828 Y83.118
G1 F900 X144.88 Y74.169 E150.85072
G0 F3600 X144.314 Y74.169
G1 F900 X153.828 Y83.683 E151.52199
G0 F3600 X153.828 Y84.249
G1 F900 X143.749 Y74.169 E152.23315
G0 F3600 X143.183 Y74.169
G1 F900 X153.828 Y84.815 E152.98425
G0 F3600 X153.828 Y85.381
G1 F900 X142.617 Y74.169 E153.77528
G0 F3600 X142.052 Y74.169
G1 F900 X153.828 Y85.946 E154.60617
G0 F3600 X153.828 Y86.512
G1 F900 X150.168 Y82.852 E154.86441
G0 F3600 X150.146 Y82.829
G1 F900 X141.486 Y74.169 E155.47542
G0 F3600 X140.92 Y74.169
G1 F900 X149.58 Y82.829 E156.08643
G0 F3600 X149.014 Y82.829
G1 F900 X140.355 Y74.169 E156.6974
G0 F3600 X139.789 Y74.169
G1 F900 X148.449 Y82.829 E157.30841
G0 F3600 X147.883 Y82.829
G1 F900 X139.223 Y74.169 E157.91942
G0 F3600 X138.657 Y74.169
G1 F900 X147.317 Y82.829 E158.53043
G0 F3600 X146.752 Y82.829
G1 F900 X138.092 Y74.169 E159.14144
G0 F3600 X137.526 Y74.169
G1 F900 X146.186 Y82.829 E159.75245
G0 F3600 X145.62 Y82.829
G1 F900 X136.96 Y74.169 E160.36346
G0 F3600 X136.395 Y74.169
G1 F900 X145.055 Y82.829 E160.97447
G0 F3600 X144.489 Y82.829
G1 F900 X135.829 Y74.169 E161.58548
G0 F3600 X135.263 Y74.169
G1 F900 X143.923 Y82.829 E162.19649
G0 F3600 X143.358 Y82.829
G1 F900 X134.698 Y74.169 E162.8075
G0 F3600 X134.132 Y74.169
G1 F900 X142.792 Y82.829 E163.41851
G0 F3600 X142.226 Y82.829
G1 F900 X133.566 Y74.169 E164.02952
G0 F3600 X133.001 Y74.169
G1 F900 X141.829 Y82.998 E164.65242
G0 F3600 X141.829 Y83.563
G1 F900 X132.435 Y74.169 E165.31521
G0 F3600 X131.869 Y74.169
G1 F900 X141.829 Y84.129 E166.01795
G0 F3600 X141.829 Y84.695
G1 F900 X131.304 Y74.169 E166.76058
G0 F3600 X130.738 Y74.169
G1 F900 X141.829 Y85.26 E167.54311
G0 F3600 X141.829 Y85.826
G1 F900 X130.172 Y74.169 E168.36557
G0 F3600 X129.607 Y74.169
G1 F900 X141.829 Y86.392 E169.22793
G0 F3600 X141.829 Y86.957
G1 F900 X129.041 Y74.169 E170.1302
G0 F3600 X128.475 Y74.169
G1 F900 X141.829 Y87.523 E171.07239
G0 F3600 X141.829 Y88.089
G1 F900 X127.909 Y74.169 E172.05453
G0 F3600 X127.344 Y74.169
G1 F900 X141.829 Y88.654 E173.07652
G0 F3600 X141.829 Y89.22
G1 F900 X126.778 Y74.169 E174.13845
G0 F3600 X126.212 Y74.169
G1 F900 X141.829 Y89.786 E175.24031
G0 F3600 X141.829 Y90.351
G1 F900 X125.647 Y74.169 E176.38204
G0 F3600 X125.081 Y74.169
G1 F900 X141.829 Y90.917 E177.5637
G0 F3600 X141.829 Y91.483
G1 F900 X124.515 Y74.169 E178.7853
G0 F3600 X123.95 Y74.169
G1 F900 X141.829 Y92.049 E180.04679
G0 F3600 X141.829 Y92.614
G1 F900 X123.384 Y74.169 E181.34819
G0 F3600 X122.818 Y74.169
G1 F900 X141.829 Y93.18 E182.68952
G0 F3600 X141.829 Y93.746
G1 F900 X122.253 Y74.169 E184.07075
G0 F3600 X121.687 Y74.169
G1 F900 X141.829 Y94.311 E185.49187
G0 F3600 X141.829 Y94.877
G1 F900 X121.121 Y74.169 E186.95293
G0 F3600 X120.556 Y74.169
G1 F900 X141.829 Y95.443 E188.45389
G0 F3600 X141.829 Y96.008
G1 F900 X119.99 Y74.169 E189.99475
G0 F3600 X119.424 Y74.169
G1 F900 X141.829 Y96.574 E191.57555
G0 F3600 X141.829 Y97.14
G1 F900 X118.858 Y74.169 E193.19627
G0 F3600 X118.293 Y74.169
G1 F900 X141.829 Y97.705 E194.85687
G0 F3600 X141.829 Y98.271
G1 F900 X117.727 Y74.169 E196.55739
G0 F3600 X117.161 Y74.169
G1 F900 X141.829 Y98.837 E198.29785
G0 F3600 X141.829 Y99.402
G1 F900 X116.596 Y74.169 E200.07818
G0 F3600 X116.03 Y74.169
G1 F900 X141.829 Y99.968 E201.89844
G0 F3600 X141.829 Y100.534
G1 F900 X115.464 Y74.169 E203.75863
G0 F3600 X114.899 Y74.169
G1 F900 X141.829 Y101.1 E205.65872
G0 F3600 X141.829 Y101.665
G1 F900 X114.333 Y74.169 E207.59871
G0 F3600 X113.767 Y74.169
G1 F900 X141.829 Y102.231 E209.57864
G0 F3600 X141.829 Y102.797
G1 F900 X113.202 Y74.169 E211.59846
G0 F3600 X112.636 Y74.169
G1 F900 X141.829 Y103.362 E213.65819
G0 F3600 X141.829 Y103.928
G1 F900 X112.07 Y74.169 E215.75785
G0 F3600 X111.505 Y74.169
G1 F900 X141.829 Y104.494 E217.8974
G0 F3600 X141.829 Y105.059
G1 F900 X110.939 Y74.169 E220.07686
G0 F3600 X110.373 Y74.169
G1 F900 X141.829 Y105.625 E222.29625
G0 F3600 X141.829 Y106.191
G1 F900 X109.808 Y74.169 E224.55554
G0 F3600 X109.242 Y74.169
G1 F900 X141.829 Y106.756 E226.85473
G0 F3600 X141.829 Y107.322
G1 F900 X108.676 Y74.169 E229.19385
G0 F3600 X108.11 Y74.169
G1 F900 X141.829 Y107.888 E231.57291
G0 F3600 X141.829 Y108.453
G1 F900 X107.545 Y74.169 E233.99183
G0 F3600 X106.979 Y74.169
G1 F900 X141.829 Y109.019 E236.45069
G0 F3600 X141.829 Y109.585
G1 F900 X106.413 Y74.169 E238.94948
G0 F3600 X105.848 Y74.169
G1 F900 X141.829 Y110.15 E241.48813
G0 F3600 X141.829 Y110.716
G1 F900 X105.282 Y74.169 E244.06672
G0 F3600 X104.716 Y74.169
G1 F900 X141.829 Y111.282 E246.68524
G0 F3600 X141.829 Y111.848
G1 F900 X104.151 Y74.169 E249.34366
G0 F3600 X103.585 Y74.169
G1 F900 X141.829 Y112.413 E252.04198
G0 F3600 X141.829 Y112.979
G1 F900 X103.019 Y74.169 E254.78024
G0 F3600 X102.454 Y74.169
G1 F900 X141.829 Y113.545 E257.55839
G0 F3600 X141.829 Y114.11
G1 F900 X101.888 Y74.169 E260.37645
G0 F3600 X101.322 Y74.169
G1 F900 X141.829 Y114.676 E263.23443
G0 F3600 X141.829 Y115.242
G1 F900 X100.757 Y74.169 E266.13232
G0 F3600 X100.191 Y74.169
G1 F900 X141.829 Y115.807 E269.07011
G0 F3600 X141.829 Y116.373
G1 F900 X99.625 Y74.169 E272.04783
G0 F3600 X99.06 Y74.169
G1 F900 X141.829 Y116.939 E275.06545
G0 F3600 X142.059 Y117.169
G1 F900 X150.719 Y125.829 E275.67646
G0 F3600 X150.154 Y125.829
G1 F900 X98.494 Y74.169 E279.32135
G0 F3600 X97.928 Y74.169
G1 F900 X149.588 Y125.829 E282.96624
G0 F3600 X149.022 Y125.829
G1 F900 X97.362 Y74.169 E286.61113
G0 F3600 X96.797 Y74.169
G1 F900 X148.457 Y125.829 E290.25602
G0 F3600 X147.891 Y125.829
G1 F900 X96.231 Y74.169 E293.90092
G0 F3600 X95.665 Y74.169
G1 F900 X147.325 Y125.829 E297.54581
G0 F3600 X146.76 Y125.829
G1 F900 X95.1 Y74.169 E301.1907
G0 F3600 X94.534 Y74.169
G1 F900 X146.194 Y125.829 E304.83559
G0 F3600 X145.628 Y125.829
G1 F900 X93.968 Y74.169 E308.48048
G0 F3600 X93.403 Y74.169
G1 F900 X145.062 Y125.829 E312.12534
G0 F3600 X144.497 Y125.829
G1 F900 X92.837 Y74.169 E315.77023
G0 F3600 X92.271 Y74.169
G1 F900 X143.931 Y125.829 E319.41512
G0 F3600 X143.365 Y125.829
G1 F900 X91.706 Y74.169 E323.05998
G0 F3600 X91.14 Y74.169
G1 F900 X142.8 Y125.829 E326.70487
G0 F3600 X142.234 Y125.829
G1 F900 X90.574 Y74.169 E330.34977
G0 F3600 X90.009 Y74.169
G1 F900 X141.668 Y125.829 E333.99462
G0 F3600 X141.103 Y125.829
G1 F900 X89.443 Y74.169 E337.63951
G0 F3600 X88.877 Y74.169
G1 F900 X140.537 Y125.829 E341.28441
G0 F3600 X139.971 Y125.829
G1 F900 X88.311 Y74.169 E344.9293
G0 F3600 X87.746 Y74.169
G1 F900 X139.406 Y125.829 E348.57419
G0 F3600 X138.84 Y125.829
G1 F900 X87.18 Y74.169 E352.21908
G0 F3600 X86.614 Y74.169
G1 F900 X138.274 Y125.829 E355.86397
G0 F3600 X137.709 Y125.829
G1 F900 X86.049 Y74.169 E359.50887
G0 F3600 X85.483 Y74.169
G1 F900 X137.143 Y125.829 E363.15376
G0 F3600 X136.577 Y125.829
G1 F900 X84.917 Y74.169 E366.79865
G0 F3600 X84.352 Y74.169
G1 F900 X136.011 Y125.829 E370.44351
G0 F3600 X135.446 Y125.829
G1 F900 X83.786 Y74.169 E374.0884
G0 F3600 X83.22 Y74.169
G1 F900 X134.88 Y125.829 E377.73329
G0 F3600 X134.314 Y125.829
G1 F900 X82.655 Y74.169 E381.37815
G0 F3600 X82.089 Y74.169
G1 F900 X133.749 Y125.829 E385.02304
G0 F3600 X133.183 Y125.829
G1 F900 X81.523 Y74.169 E388.66793
G0 F3600 X80.958 Y74.169
G1 F900 X132.617 Y125.829 E392.31279
G0 F3600 X132.052 Y125.829
G1 F900 X80.392 Y74.169 E395.95768
G0 F3600 X79.826 Y74.169
G1 F900 X131.486 Y125.829 E399.60257
G0 F3600 X130.92 Y125.829
G1 F900 X79.261 Y74.169 E403.24743
G0 F3600 X78.695 Y74.169
G1 F900 X130.355 Y125.829 E406.89232
G0 F3600 X129.789 Y125.829
G1 F900 X78.129 Y74.169 E410.53721
G0 F3600 X77.563 Y74.169
G1 F900 X129.223 Y125.829 E414.18211
G0 F3600 X128.658 Y125.829
G1 F900 X76.998 Y74.169 E417.827
G0 F3600 X76.432 Y74.169
G1 F900 X128.092 Y125.829 E421.47189
G0 F3600 X127.526 Y125.829
G1 F900 X75.866 Y74.169 E425.11678
G0 F3600 X75.301 Y74.169
G1 F900 X126.961 Y125.829 E428.76167
G0 F3600 X126.395 Y125.829
G1 F900 X74.735 Y74.169 E432.40657
G0 F3600 X74.169 Y74.169
G1 F900 X125.829 Y125.829 E436.05146
G0 F3600 X125.263 Y125.829
G1 F900 X73.604 Y74.169 E439.69631
G0 F3600 X73.038 Y74.169
G1 F900 X124.698 Y125.829 E443.34121
G0 F3600 X124.132 Y125.829
G1 F900 X72.472 Y74.169 E446.9861
G0 F3600 X71.907 Y74.169
G1 F900 X123.566 Y125.829 E450.63096
G0 F3600 X123.001 Y125.829
G1 F900 X71.341 Y74.169 E454.27585
G0 F3600 X70.775 Y74.169
G1 F900 X122.435 Y125.829 E457.92074
G0 F3600 X121.869 Y125.829
G1 F900 X70.21 Y74.169 E461.5656
G0 F3600 X69.644 Y74.169
G1 F900 X121.304 Y125.829 E465.21049
G0 F3600 X120.738 Y125.829
G1 F900 X69.078 Y74.169 E468.85538
G0 F3600 X68.512 Y74.169
G1 F900 X120.172 Y125.829 E472.50027
G0 F3600 X119.607 Y125.829
G1 F900 X67.947 Y74.169 E476.14516
G0 F3600 X67.381 Y74.169
G1 F900 X119.041 Y125.829 E479.79006
G0 F3600 X118.475 Y125.829
G1 F900 X66.815 Y74.169 E483.43495
G0 F3600 X66.25 Y74.169
G1 F900 X117.91 Y125.829 E487.07984
G0 F3600 X117.344 Y125.829
G1 F900 X65.684 Y74.169 E490.72473
G0 F3600 X65.118 Y74.169
G1 F900 X116.778 Y125.829 E494.36962
G0 F3600 X116.212 Y125.829
G1 F900 X64.553 Y74.169 E498.01448
G0 F3600 X63.987 Y74.169
G1 F900 X115.647 Y125.829 E501.65937
G0 F3600 X115.081 Y125.829
G1 F900 X63.421 Y74.169 E505.30427
G0 F3600 X62.856 Y74.169
G1 F900 X114.515 Y125.829 E508.94912
G0 F3600 X113.95 Y125.829
G1 F900 X62.29 Y74.169 E512.59401
G0 F3600 X61.724 Y74.169
G1 F900 X113.384 Y125.829 E516.23891
G0 F3600 X112.818 Y125.829
G1 F900 X61.159 Y74.169 E519.88376
G0 F3600 X60.593 Y74.169
G1 F900 X112.253 Y125.829 E523.52865
G0 F3600 X111.687 Y125.829
G1 F900 X60.027 Y74.169 E527.17355
G0 F3600 X59.462 Y74.169
G1 F900 X111.121 Y125.829 E530.8184
G0 F3600 X110.556 Y125.829
G1 F900 X58.896 Y74.169 E534.4633
G0 F3600 X58.33 Y74.169
G1 F900 X109.99 Y125.829 E538.10819
G0 F3600 X109.424 Y125.829
G1 F900 X57.764 Y74.169 E541.75308
G0 F3600 X57.199 Y74.169
G1 F900 X108.859 Y125.829 E545.39797
G0 F3600 X108.293 Y125.829
G1 F900 X56.633 Y74.169 E549.04286
G0 F3600 X56.067 Y74.169
G1 F900 X107.727 Y125.829 E552.68776
G0 F3600 X107.162 Y125.829
G1 F900 X55.502 Y74.169 E556.33265
G0 F3600 X54.936 Y74.169
G1 F900 X106.596 Y125.829 E559.97754
