;FLAVOR:Marlin
;TIME:24850
;Filament used: 17.6937m
;Layer height: 0.2
;MINX:41.8
;MINY:65.8
;MINZ:0.3
;MAXX:158.2
;MAXY:134.2
;MAXZ:27.9
;Generated with Cura_SteamEngine 4.4.1
M140 S45
M105
M190 S45
M104 S200
M105
M109 S200
M82 ;absolute extrusion mode
G21 ;metric values
 G90 ;absolute positioning
 M82 ;set extruder to absolute mode
 M107 ;start with the fan off
 G28 X0 Y0 ;move X/Y to min endstops
 G28 Z0 ;move Z to min endstops
 G1 Z15.0 F120 ;move the platform down 15mm
 G92 E0 ;zero the extruded length
 G1 F200 E6 ;extrude 6 mm of feed stock
 G92 E0 ;zero the extruded length again
 G1 F120 
 ;Put printing message on LCD screen
 M117 Printing...
G92 E0
G92 E0
G1 F1500 E-6.5
;LAYER_COUNT:139
;LAYER:0
M107
G0 F3600 X43.18 Y66.383 Z0.3
;TYPE:SKIRT
G1 F1500 E0
G1 F900 X43.617 Y66.128 E0.02524
G1 X44.088 Y65.944 E0.05047
G1 X44.582 Y65.838 E0.07568
G1 X44.919 Y65.81 E0.09255
G1 X45.24 Y65.801 E0.10857
G1 X45.33 Y65.8 E0.11306
G1 X154.339 Y65.8 E5.55154
G1 X155.037 Y65.81 E5.58637
G1 X155.54 Y65.857 E5.61157
G1 X156.03 Y65.983 E5.63681
G1 X156.494 Y66.185 E5.66206
G1 X156.92 Y66.457 E5.68728
G1 X157.298 Y66.792 E5.71248
G1 X157.618 Y67.183 E5.73768
G1 X157.873 Y67.62 E5.76292
G1 X158.056 Y68.091 E5.78813
G1 X158.163 Y68.585 E5.81335
G1 X158.19 Y68.92 E5.83012
G1 X158.199 Y69.24 E5.84609
G1 X158.2 Y69.33 E5.85058
G1 X158.2 Y130.304 E8.89259
G1 X158.191 Y131.031 E8.92886
G1 X158.145 Y131.534 E8.95406
G1 X158.02 Y132.024 E8.97929
G1 X157.819 Y132.488 E9.00452
G1 X157.548 Y132.915 E9.02975
G1 X157.213 Y133.294 E9.05498
G1 X156.823 Y133.615 E9.08018
G1 X156.387 Y133.871 E9.10541
G1 X155.916 Y134.054 E9.13062
G1 X155.422 Y134.162 E9.15584
G1 X155.081 Y134.19 E9.17291
G1 X154.76 Y134.199 E9.18894
G1 X154.67 Y134.2 E9.19343
G1 X45.666 Y134.2 E14.63166
G1 X44.968 Y134.191 E14.66648
G1 X44.464 Y134.144 E14.69174
G1 X43.974 Y134.019 E14.71697
G1 X43.51 Y133.818 E14.74219
G1 X43.084 Y133.547 E14.76738
G1 X42.705 Y133.212 E14.79262
G1 X42.384 Y132.821 E14.81786
G1 X42.129 Y132.385 E14.84306
G1 X41.945 Y131.914 E14.86829
G1 X41.838 Y131.42 E14.8935
G1 X41.81 Y131.077 E14.91067
G1 X41.801 Y130.744 E14.92729
G1 X41.8 Y130.658 E14.93158
G1 X41.8 Y69.631 E17.97623
G1 X41.809 Y68.966 E18.00941
G1 X41.856 Y68.462 E18.03467
G1 X41.982 Y67.973 E18.05986
G1 X42.183 Y67.509 E18.08509
G1 X42.454 Y67.082 E18.11032
G1 X42.789 Y66.704 E18.13552
G1 X43.18 Y66.383 E18.16076
G1 F1500 E11.66076
;MESH:PuckBox.stl
G0 F3600 X45.614 Y68.335
G0 X45.614 Y69.614
G0 X45.67 Y130.33
G0 X45.6 Y130.4
;TYPE:WALL-INNER
G1 F1500 E18.16076
G1 F900 X45.6 Y69.6 E21.19408
G1 X154.4 Y69.6 E26.62213
G1 X154.4 Y130.4 E29.65546
G1 X45.6 Y130.4 E35.08351
G0 F3600 X45.2 Y130.8
;TYPE:WALL-OUTER
G1 F900 X45.2 Y69.2 E38.15675
G1 X154.8 Y69.2 E43.62471
G1 X154.8 Y130.8 E46.69795
G1 X45.2 Y130.8 E52.16592
G0 F3600 X45.2 Y130.6
G0 X45.99 Y130.01
;TYPE:SKIN
G1 F900 X45.99 Y69.99 E55.16033
G1 X154.01 Y69.99 E60.54947
G1 X154.01 Y130.01 E63.54388
G1 X45.99 Y130.01 E68.93302
G0 F3600 X46.673 Y129.829
G1 F900 X46.169 Y129.325 E68.96858
G0 F3600 X46.169 Y128.759
G1 F900 X47.238 Y129.829 E69.04404
G0 F3600 X47.804 Y129.829
G1 F900 X46.169 Y128.194 E69.15939
G0 F3600 X46.169 Y127.628
G1 F900 X48.37 Y129.829 E69.31469
G0 F3600 X48.936 Y129.829
G1 F900 X46.169 Y127.062 E69.50991
G0 F3600 X46.169 Y126.497
G1 F900 X49.501 Y129.829 E69.745
G0 F3600 X50.067 Y129.829
G1 F900 X46.169 Y125.931 E70.02003
G0 F3600 X46.169 Y125.365
G1 F900 X50.633 Y129.829 E70.33499
G0 F3600 X51.198 Y129.829
G1 F900 X46.169 Y124.8 E70.68981
G0 F3600 X46.169 Y124.234
G1 F900 X51.764 Y129.829 E71.08457
G0 F3600 X52.33 Y129.829
G1 F900 X46.169 Y123.668 E71.51926
G0 F3600 X46.169 Y123.103
G1 F900 X52.895 Y129.829 E71.99382
G0 F3600 X53.461 Y129.829
G1 F900 X46.169 Y122.537 E72.50831
G0 F3600 X46.169 Y121.971
G1 F900 X54.027 Y129.829 E73.06273
G0 F3600 X54.592 Y129.829
G1 F900 X46.169 Y121.405 E73.65705
G0 F3600 X46.169 Y120.84
G1 F900 X55.158 Y129.829 E74.29128
G0 F3600 X55.724 Y129.829
G1 F900 X46.169 Y120.274 E74.96543
G0 F3600 X46.169 Y119.708
G1 F900 X56.289 Y129.829 E75.67949
G0 F3600 X56.855 Y129.829
G1 F900 X46.169 Y119.143 E76.43344
G0 F3600 X46.169 Y118.577
G1 F900 X57.421 Y129.829 E77.22733
G0 F3600 X57.986 Y129.829
G1 F900 X46.169 Y118.011 E78.06112
G0 F3600 X46.169 Y117.446
G1 F900 X58.552 Y129.829 E78.93481
G0 F3600 X59.118 Y129.829
G1 F900 X46.169 Y116.88 E79.84843
G0 F3600 X46.169 Y116.314
G1 F900 X59.684 Y129.829 E80.80199
G0 F3600 X60.249 Y129.829
G1 F900 X46.169 Y115.749 E81.79541
G0 F3600 X46.169 Y115.183
G1 F900 X60.815 Y129.829 E82.82876
G0 F3600 X61.381 Y129.829
G1 F900 X46.169 Y114.617 E83.90205
G0 F3600 X46.169 Y114.052
G1 F900 X61.946 Y129.829 E85.0152
G0 F3600 X62.512 Y129.829
G1 F900 X46.169 Y113.486 E86.16829
G0 F3600 X46.169 Y112.92
G1 F900 X63.078 Y129.829 E87.36131
G0 F3600 X63.643 Y129.829
G1 F900 X46.169 Y112.355 E88.5942
G0 F3600 X46.169 Y111.789
G1 F900 X64.209 Y129.829 E89.86702
G0 F3600 X64.775 Y129.829
G1 F900 X46.169 Y111.223 E91.17977
G0 F3600 X46.169 Y110.657
G1 F900 X65.34 Y129.829 E92.53242
G0 F3600 X65.906 Y129.829
G1 F900 X46.169 Y110.092 E93.92497
G0 F3600 X46.169 Y109.526
G1 F900 X66.472 Y129.829 E95.35746
G0 F3600 X67.037 Y129.829
G1 F900 X46.169 Y108.96 E96.82985
G0 F3600 X46.169 Y108.395
G1 F900 X67.603 Y129.829 E98.34213
G0 F3600 X68.169 Y129.829
G1 F900 X46.169 Y107.829 E99.89435
G0 F3600 X46.169 Y107.263
G1 F900 X68.735 Y129.829 E101.4865
G0 F3600 X69.3 Y129.829
G1 F900 X46.169 Y106.698 E103.11852
G0 F3600 X46.169 Y106.132
G1 F900 X69.866 Y129.829 E104.79047
G0 F3600 X70.432 Y129.829
G1 F900 X46.169 Y105.566 E106.50236
G0 F3600 X46.169 Y105.001
G1 F900 X70.997 Y129.829 E108.25411
G0 F3600 X71.563 Y129.829
G1 F900 X46.169 Y104.435 E110.04579
G0 F3600 X46.169 Y103.869
G1 F900 X72.129 Y129.829 E111.87741
G0 F3600 X72.694 Y129.829
G1 F900 X46.169 Y103.304 E113.74889
G0 F3600 X46.169 Y102.738
G1 F900 X73.26 Y129.829 E115.66031
G0 F3600 X73.826 Y129.829
G1 F900 X46.169 Y102.172 E117.61166
G0 F3600 X46.169 Y101.607
G1 F900 X74.391 Y129.829 E119.60287
G0 F3600 X74.957 Y129.829
G1 F900 X46.169 Y101.041 E121.63402
G0 F3600 X46.169 Y100.475
G1 F900 X75.523 Y129.829 E123.7051
G0 F3600 X76.088 Y129.829
G1 F900 X46.169 Y99.909 E125.81609
G0 F3600 X46.169 Y99.344
G1 F900 X76.654 Y129.829 E127.96697
G0 F3600 X77.22 Y129.829
G1 F900 X46.169 Y98.778 E130.15778
G0 F3600 X46.169 Y98.212
G1 F900 X77.785 Y129.829 E132.3885
G0 F3600 X78.351 Y129.829
G1 F900 X46.169 Y97.647 E134.65911
G0 F3600 X46.169 Y97.081
G1 F900 X78.917 Y129.829 E136.96966
G0 F3600 X79.483 Y129.829
G1 F900 X46.169 Y96.515 E139.32014
G0 F3600 X46.169 Y95.95
G1 F900 X80.048 Y129.829 E141.71049
G0 F3600 X80.614 Y129.829
G1 F900 X46.169 Y95.384 E144.14077
G0 F3600 X46.169 Y94.818
G1 F900 X81.18 Y129.829 E146.61099
G0 F3600 X81.745 Y129.829
G1 F900 X46.169 Y94.253 E149.12106
G0 F3600 X46.169 Y93.687
G1 F900 X82.311 Y129.829 E151.67108
G0 F3600 X82.877 Y129.829
G1 F900 X46.169 Y93.121 E154.26103
G0 F3600 X46.169 Y92.556
G1 F900 X83.442 Y129.829 E156.89084
G0 F3600 X84.008 Y129.829
G1 F900 X46.169 Y91.99 E159.56058
G0 F3600 X46.169 Y91.424
G1 F900 X84.574 Y129.829 E162.27026
G0 F3600 X85.139 Y129.829
G1 F900 X46.169 Y90.858 E165.01984
G0 F3600 X46.169 Y90.293
G1 F900 X85.705 Y129.829 E167.80932
G0 F3600 X86.271 Y129.829
G1 F900 X46.169 Y89.727 E170.63873
G0 F3600 X46.169 Y89.161
G1 F900 X86.836 Y129.829 E173.50805
G0 F3600 X87.402 Y129.829
G1 F900 X46.169 Y88.596 E176.41726
G0 F3600 X46.169 Y88.03
G1 F900 X87.968 Y129.829 E179.3664
G0 F3600 X88.534 Y129.829
G1 F900 X46.169 Y87.464 E182.35548
G0 F3600 X46.169 Y86.899
G1 F900 X89.099 Y129.829 E185.38442
G0 F3600 X89.665 Y129.829
G1 F900 X46.169 Y86.333 E188.4533
G0 F3600 X46.169 Y85.767
G1 F900 X90.231 Y129.829 E191.56211
G0 F3600 X90.796 Y129.829
G1 F900 X46.169 Y85.202 E194.71079
G0 F3600 X46.169 Y84.636
G1 F900 X91.362 Y129.829 E197.8994
G0 F3600 X91.928 Y129.829
G1 F900 X46.169 Y84.07 E201.12794
G0 F3600 X46.169 Y83.505
G1 F900 X92.493 Y129.829 E204.39635
G0 F3600 X93.059 Y129.829
G1 F900 X46.169 Y82.939 E207.7047
G0 F3600 X46.169 Y82.373
G1 F900 X93.625 Y129.829 E211.05297
G0 F3600 X94.19 Y129.829
G1 F900 X46.169 Y81.808 E214.44111
G0 F3600 X46.169 Y81.242
G1 F900 X94.756 Y129.829 E217.86919
G0 F3600 X95.322 Y129.829
G1 F900 X46.169 Y80.676 E221.3372
G0 F3600 X46.169 Y80.11
G1 F900 X95.887 Y129.829 E224.84511
G0 F3600 X96.453 Y129.829
G1 F900 X46.169 Y79.545 E228.39292
G0 F3600 X46.169 Y78.979
G1 F900 X97.019 Y129.829 E231.98066
G0 F3600 X97.584 Y129.829
G1 F900 X46.169 Y78.413 E235.6083
G0 F3600 X46.169 Y77.848
G1 F900 X98.15 Y129.829 E239.27584
G0 F3600 X98.716 Y129.829
G1 F900 X46.169 Y77.282 E242.98331
G0 F3600 X46.169 Y76.716
G1 F900 X99.282 Y129.829 E246.73072
G0 F3600 X99.847 Y129.829
G1 F900 X46.169 Y76.151 E250.518
G0 F3600 X46.169 Y75.585
G1 F900 X100.413 Y129.829 E254.3452
G0 F3600 X100.979 Y129.829
G1 F900 X46.169 Y75.019 E258.21234
G0 F3600 X46.169 Y74.454
G1 F900 X101.544 Y129.829 E262.11935
G0 F3600 X102.11 Y129.829
G1 F900 X46.169 Y73.888 E266.06629
G0 F3600 X46.169 Y73.322
G1 F900 X102.676 Y129.829 E270.05316
G0 F3600 X103.241 Y129.829
G1 F900 X46.169 Y72.757 E274.0799
G0 F3600 X46.169 Y72.191
G1 F900 X103.807 Y129.829 E278.14657
G0 F3600 X104.373 Y129.829
G1 F900 X46.169 Y71.625 E282.25318
G0 F3600 X46.169 Y71.059
G1 F900 X104.938 Y129.829 E286.39969
G0 F3600 X105.504 Y129.829
G1 F900 X46.169 Y70.494 E290.58609
G0 F3600 X46.41 Y70.169
G1 F900 X106.07 Y129.829 E294.79543
G0 F3600 X106.635 Y129.829
G1 F900 X46.976 Y70.169 E299.00473
G0 F3600 X47.542 Y70.169
G1 F900 X107.201 Y129.829 E303.21403
G0 F3600 X107.767 Y129.829
G1 F900 X48.108 Y70.169 E307.42333
G0 F3600 X48.673 Y70.169
G1 F900 X108.333 Y129.829 E311.63266
G0 F3600 X108.898 Y129.829
G1 F900 X49.239 Y70.169 E315.84196
G0 F3600 X49.805 Y70.169
G1 F900 X109.464 Y129.829 E320.05126
G0 F3600 X110.03 Y129.829
G1 F900 X50.37 Y70.169 E324.2606
G0 F3600 X50.936 Y70.169
G1 F900 X110.595 Y129.829 E328.4699
G0 F3600 X111.161 Y129.829
G1 F900 X51.502 Y70.169 E332.6792
G0 F3600 X52.067 Y70.169
G1 F900 X111.727 Y129.829 E336.88853
G0 F3600 X112.292 Y129.829
G1 F900 X52.633 Y70.169 E341.09783
G0 F3600 X53.199 Y70.169
G1 F900 X112.858 Y129.829 E345.30713
G0 F3600 X113.424 Y129.829
G1 F900 X53.764 Y70.169 E349.51647
G0 F3600 X54.33 Y70.169
G1 F900 X113.989 Y129.829 E353.72577
G0 F3600 X114.555 Y129.829
G1 F900 X54.896 Y70.169 E357.93507
G0 F3600 X55.461 Y70.169
G1 F900 X115.121 Y129.829 E362.1444
G0 F3600 X115.686 Y129.829
G1 F900 X56.027 Y70.169 E366.3537
G0 F3600 X56.593 Y70.169
G1 F900 X116.252 Y129.829 E370.563
G0 F3600 X116.818 Y129.829
G1 F900 X57.158 Y70.169 E374.77234
G0 F3600 X57.724 Y70.169
G1 F900 X117.383 Y129.829 E378.98164
G0 F3600 X117.949 Y129.829
G1 F900 X58.29 Y70.169 E383.19094
G0 F3600 X58.856 Y70.169
G1 F900 X118.515 Y129.829 E387.40024
G0 F3600 X119.081 Y129.829
G1 F900 X59.421 Y70.169 E391.60957
G0 F3600 X59.987 Y70.169
G1 F900 X119.646 Y129.829 E395.81887
G0 F3600 X120.212 Y129.829
G1 F900 X60.553 Y70.169 E400.02817
G0 F3600 X61.118 Y70.169
G1 F900 X120.778 Y129.829 E404.23751
G0 F3600 X121.343 Y129.829
G1 F900 X61.684 Y70.169 E408.44681
G0 F3600 X62.25 Y70.169
G1 F900 X121.909 Y129.829 E412.65611
G0 F3600 X122.475 Y129.829
G1 F900 X62.815 Y70.169 E416.86544
G0 F3600 X63.381 Y70.169
G1 F900 X123.04 Y129.829 E421.07474
G0 F3600 X123.606 Y129.829
G1 F900 X63.947 Y70.169 E425.28404
G0 F3600 X64.512 Y70.169
G1 F900 X124.172 Y129.829 E429.49338
G0 F3600 X124.737 Y129.829
G1 F900 X65.078 Y70.169 E433.70268
G0 F3600 X65.644 Y70.169
G1 F900 X125.303 Y129.829 E437.91198
G0 F3600 X125.869 Y129.829
G1 F900 X66.209 Y70.169 E442.12131
G0 F3600 X66.775 Y70.169
G1 F900 X126.434 Y129.829 E446.33061
G0 F3600 X127 Y129.829
G1 F900 X67.341 Y70.169 E450.53991
G0 F3600 X67.906 Y70.169
G1 F900 X127.566 Y129.829 E454.74925
G0 F3600 X128.131 Y129.829
G1 F900 X68.472 Y70.169 E458.95855
G0 F3600 X69.038 Y70.169
G1 F900 X128.697 Y129.829 E463.16785
G0 F3600 X129.263 Y129.829
G1 F900 X69.604 Y70.169 E467.37715
G0 F3600 X70.169 Y70.169
G1 F900 X129.829 Y129.829 E471.58648
G0 F3600 X130.394 Y129.829
G1 F900 X70.735 Y70.169 E475.79578
G0 F3600 X71.301 Y70.169
G1 F900 X130.96 Y129.829 E480.00508
G0 F3600 X131.526 Y129.829
G1 F900 X71.866 Y70.169 E484.21442
G0 F3600 X72.432 Y70.169
G1 F900 X132.091 Y129.829 E488.42372
G0 F3600 X132.657 Y129.829
G1 F900 X72.998 Y70.169 E492.63302
G0 F3600 X73.563 Y70.169
G1 F900 X133.223 Y129.829 E496.84235
G0 F3600 X133.788 Y129.829
G1 F900 X74.129 Y70.169 E501.05165
G0 F3600 X74.695 Y70.169
G1 F900 X134.354 Y129.829 E505.26095
G0 F3600 X134.92 Y129.829
G1 F900 X75.26 Y70.169 E509.47029
G0 F3600 X75.826 Y70.169
G1 F900 X135.485 Y129.829 E513.67959
G0 F3600 X136.051 Y129.829
G1 F900 X76.392 Y70.169 E517.88889
G0 F3600 X76.957 Y70.169
G1 F900 X136.617 Y129.829 E522.09822
G0 F3600 X137.182 Y129.829
G1 F900 X77.523 Y70.169 E526.30752
G0 F3600 X78.089 Y70.169
G1 F900 X137.748 Y129.829 E530.51682
G0 F3600 X138.314 Y129.829
G1 F900 X78.655 Y70.169 E534.72612
G0 F3600 X79.22 Y70.169
G1 F900 X138.88 Y129.829 E538.93546
G0 F3600 X139.445 Y129.829
G1 F900 X79.786 Y70.169 E543.14476
G0 F3600 X80.352 Y70.169
G1 F900 X140.011 Y129.829 E547.35406
G0 F3600 X140.577 Y129.829
G1 F900 X80.917 Y70.169 E551.56339
G0 F3600 X81.483 Y70.169
G1 F900 X141.142 Y129.829 E555.77269
G0 F3600 X141.708 Y129.829
G1 F900 X82.049 Y70.169 E559.98199
G0 F3600 X82.614 Y70.169
G1 F900 X142.274 Y129.829 E564.19133
G0 F3600 X142.839 Y129.829
G1 F900 X83.18 Y70.169 E568.40063
G0 F3600 X83.746 Y70.169
G1 F900 X143.405 Y129.829 E572.60993
G0 F3600 X143.971 Y129.829
G1 F900 X84.311 Y70.169 E576.81926
G0 F3600 X84.877 Y70.169
G1 F900 X144.536 Y129.829 E581.02856
G0 F3600 X145.102 Y129.829
G1 F900 X85.443 Y70.169 E585.23786
G0 F3600 X86.008 Y70.169
G1 F900 X145.668 Y129.829 E589.4472
G0 F3600 X146.233 Y129.829
G1 F900 X86.574 Y70.169 E593.6565
G0 F3600 X87.14 Y70.169
G1 F900 X146.799 Y129.829 E597.8658
G0 F3600 X147.365 Y129.829
G1 F900 X87.705 Y70.169 E602.07513
G0 F3600 X88.271 Y70.169
G1 F900 X147.93 Y129.829 E606.28443
G0 F3600 X148.496 Y129.829
G1 F900 X88.837 Y70.169 E610.49373
G0 F3600 X89.403 Y70.169
G1 F900 X149.062 Y129.829 E614.70303
G0 F3600 X149.628 Y129.829
G1 F900 X89.968 Y70.169 E618.91237
G0 F3600 X90.534 Y70.169
G1 F900 X150.193 Y129.829 E623.12167
G0 F3600 X150.759 Y129.829
G1 F900 X91.1 Y70.169 E627.33097
G0 F3600 X91.665 Y70.169
G1 F900 X151.325 Y129.829 E631.5403
G0 F3600 X151.89 Y129.829
G1 F900 X92.231 Y70.169 E635.7496
G0 F3600 X92.797 Y70.169
G1 F900 X152.456 Y129.829 E639.9589
G0 F3600 X153.022 Y129.829
G1 F900 X93.362 Y70.169 E644.16824
G0 F3600 X93.928 Y70.169
G1 F900 X153.587 Y129.829 E648.37754
G0 F3600 X153.828 Y129.504
G1 F900 X94.494 Y70.169 E652.56391
G0 F3600 X95.059 Y70.169
G1 F900 X153.828 Y128.938 E656.71038
G0 F3600 X153.828 Y128.373
G1 F900 X95.625 Y70.169 E660.81695
G0 F3600 X96.191 Y70.169
G1 F900 X153.828 Y127.807 E664.88359
G0 F3600 X153.828 Y127.241
G1 F900 X96.756 Y70.169 E668.91032
G0 F3600 X97.322 Y70.169
G1 F900 X153.828 Y126.676 E672.89716
G0 F3600 X153.828 Y126.11
G1 F900 X97.888 Y70.169 E676.84407
G0 F3600 X98.454 Y70.169
G1 F900 X153.828 Y125.544 E680.75104
G0 F3600 X153.828 Y124.979
G1 F900 X99.019 Y70.169 E684.61814
G0 F3600 X99.585 Y70.169
G1 F900 X153.828 Y124.413 E688.44532
G0 F3600 X153.828 Y123.847
G1 F900 X100.151 Y70.169 E692.23255
G0 F3600 X100.716 Y70.169
G1 F900 X153.828 Y123.281 E695.97989
G0 F3600 X153.828 Y122.716
G1 F900 X101.282 Y70.169 E699.68733
G0 F3600 X101.848 Y70.169
G1 F900 X153.828 Y122.15 E703.35484
G0 F3600 X153.828 Y121.584
G1 F900 X102.413 Y70.169 E706.98244
G0 F3600 X102.979 Y70.169
G1 F900 X153.828 Y121.019 E710.57015
G0 F3600 X153.828 Y120.453
G1 F900 X103.545 Y70.169 E714.11792
G0 F3600 X104.11 Y70.169
G1 F900 X153.828 Y119.887 E717.6258
G0 F3600 X153.828 Y119.322
G1 F900 X104.676 Y70.169 E721.09377
G0 F3600 X105.242 Y70.169
G1 F900 X153.828 Y118.756 E724.52181
G0 F3600 X153.828 Y118.19
G1 F900 X105.807 Y70.169 E727.90995
G0 F3600 X106.373 Y70.169
G1 F900 X153.828 Y117.625 E731.25819
G0 F3600 X153.828 Y117.059
