;FLAVOR:Marlin
;TIME:21584
;Filament used: 14.0363m
;Layer height: 0.2
;MINX:41.8
;MINY:65.8
;MINZ:0.3
;MAXX:158.2
;MAXY:134.2
;MAXZ:19.9
;Generated with Cura_SteamEngine 4.4.1
M140 S45
M105
M190 S45
M104 S200
M105
M109 S200
M82 ;absolute extrusion mode
G21 ;metric values
 G90 ;absolute positioning
 M82 ;set extruder to absolute mode
 M107 ;start with the fan off
 G28 X0 Y0 ;move X/Y to min endstops
 G28 Z0 ;move Z to min endstops
 G1 Z15.0 F120 ;move the platform down 15mm
 G92 E0 ;zero the extruded length
 G1 F200 E6 ;extrude 6 mm of feed stock
 G92 E0 ;zero the extruded length again
 G1 F120 
 ;Put printing message on LCD screen
 M117 Printing...
G92 E0
G92 E0
G1 F1500 E-6.5
;LAYER_COUNT:99
;LAYER:0
M107
G0 F3600 X43.18 Y66.383 Z0.3
;TYPE:SKIRT
G1 F1500 E0
G1 F900 X43.617 Y66.128 E0.02524
G1 X44.088 Y65.944 E0.05047
G1 X44.582 Y65.838 E0.07568
G1 X44.919 Y65.81 E0.09255
G1 X45.24 Y65.801 E0.10857
G1 X45.33 Y65.8 E0.11306
G1 X154.339 Y65.8 E5.55154
G1 X155.037 Y65.81 E5.58637
G1 X155.54 Y65.857 E5.61157
G1 X156.03 Y65.983 E5.63681
G1 X156.494 Y66.185 E5.66206
G1 X156.92 Y66.457 E5.68728
G1 X157.298 Y66.792 E5.71248
G1 X157.618 Y67.183 E5.73768
G1 X157.873 Y67.62 E5.76292
G1 X158.056 Y68.091 E5.78813
G1 X158.163 Y68.585 E5.81335
G1 X158.19 Y68.92 E5.83012
G1 X158.199 Y69.24 E5.84609
G1 X158.2 Y69.33 E5.85058
G1 X158.2 Y130.304 E8.89259
G1 X158.191 Y131.031 E8.92886
G1 X158.145 Y131.534 E8.95406
G1 X158.02 Y132.024 E8.97929
G1 X157.819 Y132.488 E9.00452
G1 X157.548 Y132.915 E9.02975
G1 X157.213 Y133.294 E9.05498
G1 X156.823 Y133.615 E9.08018
G1 X156.387 Y133.871 E9.10541
G1 X155.916 Y134.054 E9.13062
G1 X155.422 Y134.162 E9.15584
G1 X155.081 Y134.19 E9.17291
G1 X154.76 Y134.199 E9.18894
G1 X154.67 Y134.2 E9.19343
G1 X45.666 Y134.2 E14.63166
G1 X44.968 Y134.191 E14.66648
G1 X44.464 Y134.144 E14.69174
G1 X43.974 Y134.019 E14.71697
G1 X43.51 Y133.818 E14.74219
G1 X43.084 Y133.547 E14.76738
G1 X42.705 Y133.212 E14.79262
G1 X42.384 Y132.821 E14.81786
G1 X42.129 Y132.385 E14.84306
G1 X41.945 Y131.914 E14.86829
G1 X41.838 Y131.42 E14.8935
G1 X41.81 Y131.077 E14.91067
G1 X41.801 Y130.744 E14.92729
G1 X41.8 Y130.658 E14.93158
G1 X41.8 Y69.631 E17.97623
G1 X41.809 Y68.966 E18.00941
G1 X41.856 Y68.462 E18.03467
G1 X41.982 Y67.973 E18.05986
G1 X42.183 Y67.509 E18.08509
G1 X42.454 Y67.082 E18.11032
G1 X42.789 Y66.704 E18.13552
G1 X43.18 Y66.383 E18.16076
G1 F1500 E11.66076
;MESH:PiBox.stl
G0 F3600 X45.414 Y68.335
G0 X45.414 Y69.414
G0 X47.4 Y79.6
;TYPE:WALL-INNER
G1 F1500 E18.16076
G1 F900 X113.6 Y79.6 E21.46349
G1 X113.6 Y73.4 E21.77281
G1 X47.4 Y73.4 E25.07554
G1 X47.4 Y79.6 E25.38486
G0 F3600 X151.6 Y127.4
G1 F900 X48.4 Y127.4 E30.53353
G1 X48.4 Y130.4 E30.6832
G1 X45.6 Y130.4 E30.82289
G1 X45.6 Y69.6 E33.85621
G1 X48.4 Y69.6 E33.99591
G1 X48.4 Y72.6 E34.14558
G1 X151.6 Y72.6 E39.29425
G1 X151.6 Y69.6 E39.44392
G1 X154.4 Y69.6 E39.58361
G1 X154.4 Y130.4 E42.61693
G1 X151.6 Y130.4 E42.75663
G1 X151.6 Y127.4 E42.9063
G0 F3600 X48.572 Y127.572
G0 X48.572 Y130.228
G0 X48.8 Y130.2
;TYPE:WALL-OUTER
G1 F900 X151.2 Y130.2 E48.01505
G1 X151.2 Y127.8 E48.13479
G1 X48.8 Y127.8 E53.24355
G1 X48.8 Y130.2 E53.36328
G0 F3600 X49 Y130.2
G0 X49 Y130.3
G0 X45.47 Y130.53
G0 X45.2 Y130.8
G1 F900 X45.2 Y69.2 E56.43652
G1 X154.8 Y69.2 E61.90449
G1 X154.8 Y130.8 E64.97772
G1 X45.2 Y130.8 E70.44569
G0 F3600 X45.2 Y130.6
G0 X45.47 Y130.53
G0 X47.5 Y79.2
G0 X47.8 Y79.2
G1 F900 X113.2 Y79.2 E73.70851
G1 X113.2 Y73.8 E73.97791
G1 X47.8 Y73.8 E77.24073
G1 X47.8 Y79.2 E77.51014
G0 F3600 X48 Y79.2
G0 X48 Y79.5
G0 X47.572 Y73.572
G0 X48.5 Y72.2
G0 X48.8 Y72.2
G1 F900 X151.2 Y72.2 E82.6189
G1 X151.2 Y69.8 E82.73863
G1 X48.8 Y69.8 E87.84739
G1 X48.8 Y72.2 E87.96713
G0 F3600 X49 Y72.2
G0 X49 Y72.5
G0 X48.01 Y72.99
;TYPE:SKIN
G1 F900 X151.99 Y72.99 E93.15471
G1 X151.99 Y69.99 E93.30438
G1 X154.01 Y69.99 E93.40516
G1 X154.01 Y130.01 E96.39957
G1 X151.99 Y130.01 E96.50035
G1 X151.99 Y127.01 E96.65002
G1 X48.01 Y127.01 E101.8376
G1 X48.01 Y130.01 E101.98727
G1 X45.99 Y130.01 E102.08805
G1 X45.99 Y69.99 E105.08246
G1 X48.01 Y69.99 E105.18324
G1 X48.01 Y72.99 E105.33291
G0 F3600 X47.01 Y73.01
G1 F900 X47.01 Y79.99 E105.68114
G1 X113.99 Y79.99 E109.02279
G1 X113.99 Y73.01 E109.37102
G1 X47.01 Y73.01 E112.71267
G0 F3600 X46.673 Y129.829
G1 F900 X46.169 Y129.325 E112.74823
G0 F3600 X46.169 Y128.759
G1 F900 X47.238 Y129.829 E112.82369
G0 F3600 X47.804 Y129.829
G1 F900 X46.169 Y128.194 E112.93904
G0 F3600 X46.169 Y127.628
G1 F900 X47.83 Y129.288 E113.0562
G0 F3600 X47.83 Y128.723
G1 F900 X46.169 Y127.062 E113.17339
G0 F3600 X46.169 Y126.497
G1 F900 X47.83 Y128.157 E113.29055
G0 F3600 X47.83 Y127.591
G1 F900 X46.169 Y125.931 E113.40771
G0 F3600 X46.169 Y125.365
G1 F900 X47.83 Y127.026 E113.5249
G0 F3600 X48.199 Y126.829
G1 F900 X46.169 Y124.8 E113.66809
G0 F3600 X46.169 Y124.234
G1 F900 X48.764 Y126.829 E113.85118
G0 F3600 X49.33 Y126.829
G1 F900 X46.169 Y123.668 E114.07421
G0 F3600 X46.169 Y123.103
G1 F900 X49.896 Y126.829 E114.33713
G0 F3600 X50.461 Y126.829
G1 F900 X46.169 Y122.537 E114.63996
G0 F3600 X46.169 Y121.971
G1 F900 X51.027 Y126.829 E114.98272
G0 F3600 X51.593 Y126.829
G1 F900 X46.169 Y121.405 E115.36541
G0 F3600 X46.169 Y120.84
G1 F900 X52.159 Y126.829 E115.788
G0 F3600 X52.724 Y126.829
G1 F900 X46.169 Y120.274 E116.25049
G0 F3600 X46.169 Y119.708
G1 F900 X53.29 Y126.829 E116.75292
G0 F3600 X53.856 Y126.829
G1 F900 X46.169 Y119.143 E117.29524
G0 F3600 X46.169 Y118.577
G1 F900 X54.421 Y126.829 E117.87746
G0 F3600 X54.987 Y126.829
G1 F900 X46.169 Y118.011 E118.49962
G0 F3600 X46.169 Y117.446
G1 F900 X55.553 Y126.829 E119.16168
G0 F3600 X56.118 Y126.829
G1 F900 X46.169 Y116.88 E119.86363
G0 F3600 X46.169 Y116.314
G1 F900 X56.684 Y126.829 E120.60552
G0 F3600 X57.25 Y126.829
G1 F900 X46.169 Y115.749 E121.38731
G0 F3600 X46.169 Y115.183
G1 F900 X57.815 Y126.829 E122.209
G0 F3600 X58.381 Y126.829
G1 F900 X46.169 Y114.617 E123.07062
G0 F3600 X46.169 Y114.052
G1 F900 X58.947 Y126.829 E123.97215
G0 F3600 X59.512 Y126.829
G1 F900 X46.169 Y113.486 E124.91357
G0 F3600 X46.169 Y112.92
G1 F900 X60.078 Y126.829 E125.89492
G0 F3600 X60.644 Y126.829
G1 F900 X46.169 Y112.355 E126.91618
G0 F3600 X46.169 Y111.789
G1 F900 X61.209 Y126.829 E127.97733
G0 F3600 X61.775 Y126.829
G1 F900 X46.169 Y111.223 E129.07842
G0 F3600 X46.169 Y110.657
G1 F900 X62.341 Y126.829 E130.21944
G0 F3600 X62.907 Y126.829
G1 F900 X46.169 Y110.092 E131.40036
G0 F3600 X46.169 Y109.526
G1 F900 X63.472 Y126.829 E132.62118
G0 F3600 X64.038 Y126.829
G1 F900 X46.169 Y108.96 E133.88193
G0 F3600 X46.169 Y108.395
G1 F900 X64.604 Y126.829 E135.18259
G0 F3600 X65.169 Y126.829
G1 F900 X46.169 Y107.829 E136.52314
G0 F3600 X46.169 Y107.263
G1 F900 X65.735 Y126.829 E137.90363
G0 F3600 X66.301 Y126.829
G1 F900 X46.169 Y106.698 E139.32401
G0 F3600 X46.169 Y106.132
G1 F900 X66.866 Y126.829 E140.7843
G0 F3600 X67.432 Y126.829
G1 F900 X46.169 Y105.566 E142.28452
G0 F3600 X46.169 Y105.001
G1 F900 X67.998 Y126.829 E143.82464
G0 F3600 X68.563 Y126.829
G1 F900 X46.169 Y104.435 E145.40465
G0 F3600 X46.169 Y103.869
G1 F900 X69.129 Y126.829 E147.02461
G0 F3600 X69.695 Y126.829
G1 F900 X46.169 Y103.304 E148.68446
G0 F3600 X46.169 Y102.738
G1 F900 X70.26 Y126.829 E150.38421
G0 F3600 X70.826 Y126.829
G1 F900 X46.169 Y102.172 E152.12389
G0 F3600 X46.169 Y101.607
G1 F900 X71.392 Y126.829 E153.90347
G0 F3600 X71.958 Y126.829
G1 F900 X46.169 Y101.041 E155.72299
G0 F3600 X46.169 Y100.475
G1 F900 X72.523 Y126.829 E157.58241
G0 F3600 X73.089 Y126.829
G1 F900 X46.169 Y99.909 E159.48176
G0 F3600 X46.169 Y99.344
G1 F900 X73.655 Y126.829 E161.42101
G0 F3600 X74.22 Y126.829
G1 F900 X46.169 Y98.778 E163.40016
G0 F3600 X46.169 Y98.212
G1 F900 X74.786 Y126.829 E165.41925
G0 F3600 X75.352 Y126.829
G1 F900 X46.169 Y97.647 E167.47823
G0 F3600 X46.169 Y97.081
G1 F900 X75.917 Y126.829 E169.57711
G0 F3600 X76.483 Y126.829
G1 F900 X46.169 Y96.515 E171.71593
G0 F3600 X46.169 Y95.95
G1 F900 X77.049 Y126.829 E173.89464
G0 F3600 X77.614 Y126.829
G1 F900 X46.169 Y95.384 E176.11326
G0 F3600 X46.169 Y94.818
G1 F900 X78.18 Y126.829 E178.37181
G0 F3600 X78.746 Y126.829
G1 F900 X46.169 Y94.253 E180.67025
G0 F3600 X46.169 Y93.687
G1 F900 X79.311 Y126.829 E183.0086
G0 F3600 X79.877 Y126.829
G1 F900 X46.169 Y93.121 E185.38688
G0 F3600 X46.169 Y92.556
G1 F900 X80.443 Y126.829 E187.80506
G0 F3600 X81.008 Y126.829
G1 F900 X46.169 Y91.99 E190.26314
G0 F3600 X46.169 Y91.424
G1 F900 X81.574 Y126.829 E192.76116
G0 F3600 X82.14 Y126.829
G1 F900 X46.169 Y90.858 E195.2991
G0 F3600 X46.169 Y90.293
G1 F900 X82.706 Y126.829 E197.87695
G0 F3600 X83.271 Y126.829
G1 F900 X46.169 Y89.727 E200.4947
G0 F3600 X46.169 Y89.161
G1 F900 X83.837 Y126.829 E203.15238
G0 F3600 X84.403 Y126.829
G1 F900 X46.169 Y88.596 E205.84996
G0 F3600 X46.169 Y88.03
G1 F900 X84.968 Y126.829 E208.58744
G0 F3600 X85.534 Y126.829
G1 F900 X46.169 Y87.464 E211.36485
G0 F3600 X46.169 Y86.899
G1 F900 X86.1 Y126.829 E214.18216
G0 F3600 X86.665 Y126.829
G1 F900 X46.169 Y86.333 E217.03938
G0 F3600 X46.169 Y85.767
G1 F900 X87.231 Y126.829 E219.93652
G0 F3600 X87.797 Y126.829
G1 F900 X46.169 Y85.202 E222.87357
G0 F3600 X46.169 Y84.636
G1 F900 X88.362 Y126.829 E225.85051
G0 F3600 X88.928 Y126.829
G1 F900 X46.169 Y84.07 E228.86739
G0 F3600 X46.169 Y83.505
G1 F900 X89.494 Y126.829 E231.92417
G0 F3600 X90.059 Y126.829
G1 F900 X46.169 Y82.939 E235.02084
G0 F3600 X46.169 Y82.373
G1 F900 X90.625 Y126.829 E238.15745
G0 F3600 X91.191 Y126.829
G1 F900 X46.169 Y81.808 E241.33396
G0 F3600 X46.169 Y81.242
G1 F900 X91.757 Y126.829 E244.55041
G0 F3600 X92.322 Y126.829
G1 F900 X46.169 Y80.676 E247.80675
G0 F3600 X46.169 Y80.11
G1 F900 X92.888 Y126.829 E251.10303
G0 F3600 X93.454 Y126.829
G1 F900 X46.169 Y79.545 E254.43921
G0 F3600 X46.169 Y78.979
G1 F900 X46.83 Y79.64 E254.48584
G0 F3600 X46.83 Y79.074
G1 F900 X46.169 Y78.413 E254.53248
G0 F3600 X46.169 Y77.848
G1 F900 X46.83 Y78.508 E254.57908
G0 F3600 X46.83 Y77.942
G1 F900 X46.169 Y77.282 E254.62568
G0 F3600 X46.169 Y76.716
G1 F900 X46.83 Y77.377 E254.67232
G0 F3600 X46.83 Y76.811
G1 F900 X46.169 Y76.151 E254.71892
G0 F3600 X46.169 Y75.585
G1 F900 X46.83 Y76.245 E254.76553
G0 F3600 X46.83 Y75.68
G1 F900 X46.169 Y75.019 E254.81216
G0 F3600 X46.169 Y74.454
G1 F900 X46.83 Y75.114 E254.85876
G0 F3600 X46.83 Y74.548
G1 F900 X46.169 Y73.888 E254.90537
G0 F3600 X46.169 Y73.322
G1 F900 X46.83 Y73.983 E254.952
G0 F3600 X46.83 Y73.417
G1 F900 X46.169 Y72.757 E254.99861
G0 F3600 X46.169 Y72.191
G1 F900 X46.83 Y72.851 E255.04521
G0 F3600 X47.373 Y72.829
G1 F900 X46.169 Y71.625 E255.13016
G0 F3600 X46.169 Y71.059
G1 F900 X47.83 Y72.72 E255.24735
G0 F3600 X47.83 Y72.154
G1 F900 X46.169 Y70.494 E255.36451
G0 F3600 X46.41 Y70.169
G1 F900 X47.83 Y71.588 E255.46466
G0 F3600 X47.83 Y71.023
G1 F900 X46.975 Y70.169 E255.52495
G0 F3600 X47.541 Y70.169
G1 F900 X47.83 Y70.457 E255.5453
G0 F3600 X47.572 Y73.572
G0 X47.572 Y79.428
G0 X47.925 Y80.169
G1 F900 X94.585 Y126.829 E258.83742
G0 F3600 X94.019 Y126.829
G1 F900 X47.359 Y80.169 E262.12953
G1 X47.289 Y80.099
G0 F3600 X48.491 Y80.169
G1 F900 X95.151 Y126.829 E265.42165
G0 F3600 X95.716 Y126.829
G1 F900 X49.056 Y80.169 E268.71376
G0 F3600 X49.622 Y80.169
G1 F900 X96.282 Y126.829 E272.00588
G0 F3600 X96.848 Y126.829
G1 F900 X50.188 Y80.169 E275.29799
G0 F3600 X50.754 Y80.169
G1 F900 X97.413 Y126.829 E278.59007
G0 F3600 X97.979 Y126.829
G1 F900 X51.319 Y80.169 E281.88219
G0 F3600 X51.885 Y80.169
G1 F900 X98.545 Y126.829 E285.1743
G0 F3600 X99.11 Y126.829
G1 F900 X52.451 Y80.169 E288.46638
G0 F3600 X53.016 Y80.169
G1 F900 X99.676 Y126.829 E291.7585
G0 F3600 X100.242 Y126.829
G1 F900 X53.582 Y80.169 E295.05061
G0 F3600 X54.148 Y80.169
G1 F900 X100.807 Y126.829 E298.34269
G0 F3600 X101.373 Y126.829
G1 F900 X54.713 Y80.169 E301.63481
G0 F3600 X55.279 Y80.169
G1 F900 X101.939 Y126.829 E304.92692
G0 F3600 X102.505 Y126.829
G1 F900 X55.845 Y80.169 E308.21904
G0 F3600 X56.41 Y80.169
G1 F900 X103.07 Y126.829 E311.51115
G0 F3600 X103.636 Y126.829
G1 F900 X56.976 Y80.169 E314.80327
G0 F3600 X57.542 Y80.169
G1 F900 X104.202 Y126.829 E318.09538
G0 F3600 X104.767 Y126.829
G1 F900 X58.107 Y80.169 E321.3875
G0 F3600 X58.673 Y80.169
G1 F900 X105.333 Y126.829 E324.67961
G0 F3600 X105.899 Y126.829
G1 F900 X59.239 Y80.169 E327.97173
G0 F3600 X59.804 Y80.169
G1 F900 X106.464 Y126.829 E331.26384
G0 F3600 X107.03 Y126.829
G1 F900 X60.37 Y80.169 E334.55596
G0 F3600 X60.936 Y80.169
G1 F900 X107.596 Y126.829 E337.84807
G0 F3600 X108.161 Y126.829
G1 F900 X61.502 Y80.169 E341.14015
G0 F3600 X62.067 Y80.169
G1 F900 X108.727 Y126.829 E344.43227
G0 F3600 X109.293 Y126.829
G1 F900 X62.633 Y80.169 E347.72438
G0 F3600 X63.199 Y80.169
G1 F900 X109.858 Y126.829 E351.01646
G0 F3600 X110.424 Y126.829
G1 F900 X63.764 Y80.169 E354.30858
G0 F3600 X64.33 Y80.169
G1 F900 X110.99 Y126.829 E357.60069
G0 F3600 X111.555 Y126.829
G1 F900 X64.896 Y80.169 E360.89277
G0 F3600 X65.461 Y80.169
G1 F900 X112.121 Y126.829 E364.18489
G0 F3600 X112.687 Y126.829
G1 F900 X66.027 Y80.169 E367.477
G0 F3600 X66.593 Y80.169
G1 F900 X113.253 Y126.829 E370.76912
G0 F3600 X113.818 Y126.829
G1 F900 X67.158 Y80.169 E374.06123
G0 F3600 X67.724 Y80.169
G1 F900 X114.384 Y126.829 E377.35335
G0 F3600 X114.95 Y126.829
G1 F900 X68.29 Y80.169 E380.64546
G0 F3600 X68.855 Y80.169
G1 F900 X115.515 Y126.829 E383.93758
G0 F3600 X116.081 Y126.829
G1 F900 X69.421 Y80.169 E387.22969
G0 F3600 X69.987 Y80.169
G1 F900 X116.647 Y126.829 E390.52181
G0 F3600 X117.212 Y126.829
G1 F900 X70.552 Y80.169 E393.81392
G0 F3600 X71.118 Y80.169
G1 F900 X117.778 Y126.829 E397.10604
G0 F3600 X118.344 Y126.829
G1 F900 X71.684 Y80.169 E400.39815
G0 F3600 X72.25 Y80.169
G1 F900 X118.909 Y126.829 E403.69023
G0 F3600 X119.475 Y126.829
G1 F900 X72.815 Y80.169 E406.98235
G0 F3600 X73.381 Y80.169
G1 F900 X120.041 Y126.829 E410.27446
G0 F3600 X120.606 Y126.829
G1 F900 X73.947 Y80.169 E413.56654
G0 F3600 X74.512 Y80.169
G1 F900 X121.172 Y126.829 E416.85866
G0 F3600 X121.738 Y126.829
G1 F900 X75.078 Y80.169 E420.15077
G0 F3600 X75.644 Y80.169
G1 F900 X122.304 Y126.829 E423.44289
G0 F3600 X122.869 Y126.829
G1 F900 X76.209 Y80.169 E426.735
G0 F3600 X76.775 Y80.169
G1 F900 X123.435 Y126.829 E430.02712
G0 F3600 X124.001 Y126.829
G1 F900 X77.341 Y80.169 E433.31923
G0 F3600 X77.906 Y80.169
G1 F900 X124.566 Y126.829 E436.61135
G0 F3600 X125.132 Y126.829
G1 F900 X78.472 Y80.169 E439.90346
G0 F3600 X79.038 Y80.169
G1 F900 X125.698 Y126.829 E443.19558
G0 F3600 X126.263 Y126.829
G1 F900 X79.603 Y80.169 E446.48769
G0 F3600 X80.169 Y80.169
G1 F900 X126.829 Y126.829 E449.77981
G0 F3600 X127.395 Y126.829
G1 F900 X80.736 Y80.17 E453.07185
G0 F3600 X81.301 Y80.17
G1 F900 X127.96 Y126.829 E456.3639
G0 F3600 X128.526 Y126.829
G1 F900 X81.867 Y80.17 E459.65594
G0 F3600 X82.433 Y80.17
G1 F900 X129.092 Y126.829 E462.94799
G0 F3600 X129.657 Y126.829
G1 F900 X82.998 Y80.17 E466.24003
G0 F3600 X83.564 Y80.17
G1 F900 X130.223 Y126.829 E469.53207
G0 F3600 X130.789 Y126.829
G1 F900 X84.13 Y80.17 E472.82412
G0 F3600 X84.695 Y80.17
G1 F900 X131.354 Y126.829 E476.11616
G0 F3600 X131.92 Y126.829
G1 F900 X85.261 Y80.17 E479.40821
G0 F3600 X85.827 Y80.17
G1 F900 X132.486 Y126.829 E482.70025
G0 F3600 X133.052 Y126.829
G1 F900 X86.392 Y80.17 E485.99233
G0 F3600 X86.958 Y80.17
G1 F900 X133.617 Y126.829 E489.28438
G0 F3600 X134.183 Y126.829
G1 F900 X87.524 Y80.17 E492.57642
G0 F3600 X88.089 Y80.17
G1 F900 X134.749 Y126.829 E495.8685
G0 F3600 X135.314 Y126.829
G1 F900 X88.655 Y80.17 E499.16054
G0 F3600 X89.221 Y80.17
G1 F900 X135.88 Y126.829 E502.45259
G0 F3600 X136.446 Y126.829
G1 F900 X89.787 Y80.17 E505.74463
G0 F3600 X90.352 Y80.17
G1 F900 X137.011 Y126.829 E509.03668
G0 F3600 X137.577 Y126.829
G1 F900 X90.918 Y80.17 E512.32872
G0 F3600 X91.484 Y80.17
G1 F900 X138.143 Y126.829 E515.62077
G0 F3600 X138.708 Y126.829
G1 F900 X92.049 Y80.17 E518.91281
G0 F3600 X92.615 Y80.17
G1 F900 X139.274 Y126.829 E522.20486
G0 F3600 X139.84 Y126.829
G1 F900 X93.181 Y80.17 E525.4969
G0 F3600 X93.746 Y80.17
G1 F900 X140.405 Y126.829 E528.78895
G0 F3600 X140.971 Y126.829
